gm4lowpitch.cube
#Created by: Our Conversion Website
#Tool Author: Viktor Fejes
#Website: https://google.com
TITLE "gm4lowpitch"
#LUT size
LUT_3D_SIZE 64
#data domain
DOMAIN_MIN 0.0 0.0 0.0
DOMAIN_MAX 1.0 1.0 1.0
#LUT data points
0.000000 0.101961 0.000000
0.007843 0.101961 0.000000
0.019608 0.101961 0.000000
0.035294 0.101961 0.000000
0.050980 0.101961 0.000000
0.066667 0.101961 0.000000
0.082353 0.101961 0.000000
0.098039 0.101961 0.000000
0.109804 0.101961 0.000000
0.125490 0.101961 0.000000
0.141176 0.101961 0.000000
0.156863 0.101961 0.000000
0.172549 0.105882 0.000000
0.184314 0.105882 0.000000
0.196078 0.105882 0.000000
0.211765 0.109804 0.003922
0.227451 0.105882 0.003922
0.243137 0.109804 0.003922
0.258824 0.109804 0.003922
0.270588 0.113725 0.007843
0.286275 0.113725 0.007843
0.298039 0.117647 0.007843
0.313725 0.121569 0.007843
0.329412 0.125490 0.011765
0.345098 0.125490 0.011765
0.356863 0.129412 0.011765
0.368627 0.133333 0.015686
0.380392 0.137255 0.015686
0.396078 0.145098 0.019608
0.407843 0.149020 0.019608
0.423529 0.152941 0.019608
0.435294 0.156863 0.023529
0.454902 0.164706 0.023529
0.466667 0.168627 0.027451
0.478431 0.176471 0.027451
0.490196 0.180392 0.031373
0.505882 0.184314 0.031373
0.521569 0.192157 0.035294
0.533333 0.200000 0.035294
0.545098 0.203922 0.039216
0.556863 0.211765 0.043137
0.568627 0.215686 0.043137
0.592157 0.227451 0.047059
0.603922 0.235294 0.050980
0.615686 0.243137 0.050980
0.627451 0.250980 0.050980
0.639216 0.254902 0.054902
0.654902 0.274510 0.058824
0.666667 0.282353 0.062745
0.678431 0.290196 0.062745
0.690196 0.298039 0.066667
0.705882 0.309804 0.066667
0.721569 0.321569 0.070588
0.733333 0.329412 0.074510
0.745098 0.337255 0.078431
0.752941 0.341176 0.078431
0.768627 0.356863 0.086275
0.780392 0.364706 0.090196
0.788235 0.372549 0.090196
0.803922 0.376471 0.090196
0.811765 0.388235 0.094118
0.827451 0.403922 0.098039
0.835294 0.407843 0.105882
0.843137 0.415686 0.105882
0.000000 0.113725 0.000000
0.007843 0.113725 0.000000
0.023529 0.113725 0.000000
0.039216 0.113725 0.000000
0.054902 0.113725 0.000000
0.070588 0.113725 0.000000
0.082353 0.113725 0.000000
0.101961 0.113725 0.000000
0.109804 0.117647 0.000000
0.125490 0.117647 0.000000
0.141176 0.117647 0.000000
0.156863 0.117647 0.000000
0.168627 0.117647 0.000000
0.188235 0.121569 0.003922
0.200000 0.121569 0.003922
0.215686 0.125490 0.003922
0.235294 0.121569 0.003922
0.250980 0.125490 0.007843
0.262745 0.125490 0.007843
0.278431 0.129412 0.007843
0.294118 0.129412 0.007843
0.305882 0.137255 0.011765
0.317647 0.137255 0.011765
0.333333 0.141176 0.011765
0.345098 0.145098 0.015686
0.360784 0.145098 0.015686
0.376471 0.152941 0.019608
0.392157 0.156863 0.019608
0.403922 0.160784 0.019608
0.419608 0.164706 0.023529
0.431373 0.168627 0.023529
0.443137 0.172549 0.023529
0.462745 0.184314 0.027451
0.474510 0.188235 0.031373
0.490196 0.196078 0.031373
0.505882 0.203922 0.035294
0.517647 0.211765 0.035294
0.533333 0.215686 0.039216
0.545098 0.215686 0.043137
0.556863 0.223529 0.043137
0.572549 0.239216 0.047059
0.588235 0.247059 0.050980
0.600000 0.247059 0.050980
0.615686 0.258824 0.050980
0.627451 0.266667 0.054902
0.643137 0.278431 0.058824
0.658824 0.286275 0.062745
0.670588 0.294118 0.062745
0.678431 0.301961 0.066667
0.698039 0.317647 0.066667
0.709804 0.325490 0.070588
0.725490 0.333333 0.074510
0.737255 0.341176 0.078431
0.745098 0.345098 0.078431
0.760784 0.356863 0.086275
0.772549 0.368627 0.090196
0.780392 0.376471 0.090196
0.796078 0.380392 0.090196
0.803922 0.388235 0.094118
0.819608 0.407843 0.098039
0.827451 0.415686 0.105882
0.835294 0.419608 0.105882
0.847059 0.427451 0.105882
0.858824 0.435294 0.109804
0.000000 0.129412 0.000000
0.011765 0.129412 0.000000
0.027451 0.129412 0.000000
0.043137 0.129412 0.000000
0.058824 0.129412 0.000000
0.070588 0.129412 0.000000
0.086275 0.129412 0.000000
0.101961 0.129412 0.000000
0.117647 0.129412 0.000000
0.129412 0.129412 0.000000
0.145098 0.129412 0.000000
0.164706 0.133333 0.003922
0.176471 0.133333 0.003922
0.192157 0.133333 0.003922
0.207843 0.137255 0.003922
0.215686 0.133333 0.003922
0.239216 0.137255 0.007843
0.250980 0.137255 0.007843
0.266667 0.141176 0.007843
0.278431 0.141176 0.007843
0.298039 0.149020 0.011765
0.313725 0.152941 0.011765
0.325490 0.152941 0.015686
0.341176 0.156863 0.015686
0.356863 0.160784 0.015686
0.372549 0.168627 0.019608
0.388235 0.172549 0.019608
0.400000 0.172549 0.023529
0.415686 0.176471 0.023529
0.427451 0.184314 0.023529
0.447059 0.192157 0.027451
0.458824 0.196078 0.031373
0.474510 0.200000 0.031373
0.490196 0.211765 0.035294
0.505882 0.215686 0.035294
0.517647 0.219608 0.039216
0.529412 0.227451 0.043137
0.545098 0.235294 0.043137
0.560784 0.243137 0.047059
0.576471 0.250980 0.050980
0.588235 0.258824 0.050980
0.600000 0.266667 0.050980
0.611765 0.270588 0.054902
0.623529 0.278431 0.054902
0.647059 0.290196 0.062745
0.658824 0.298039 0.062745
0.670588 0.305882 0.066667
0.682353 0.313725 0.066667
0.698039 0.329412 0.070588
0.713725 0.337255 0.074510
0.725490 0.341176 0.078431
0.737255 0.349020 0.078431
0.752941 0.360784 0.086275
0.764706 0.372549 0.090196
0.776471 0.380392 0.090196
0.788235 0.384314 0.090196
0.800000 0.392157 0.094118
0.815686 0.407843 0.098039
0.823529 0.419608 0.105882
0.831373 0.419608 0.105882
0.843137 0.427451 0.105882
0.854902 0.435294 0.109804
0.870588 0.450980 0.113725
0.878431 0.462745 0.117647
0.000000 0.141176 0.000000
0.011765 0.141176 0.000000
0.027451 0.141176 0.000000
0.043137 0.141176 0.000000
0.058824 0.141176 0.000000
0.074510 0.141176 0.000000
0.090196 0.141176 0.000000
0.105882 0.141176 0.000000
0.121569 0.141176 0.000000
0.137255 0.145098 0.003922
0.149020 0.145098 0.003922
0.164706 0.145098 0.003922
0.180392 0.149020 0.003922
0.196078 0.149020 0.003922
0.211765 0.152941 0.007843
0.227451 0.152941 0.007843
0.247059 0.152941 0.007843
0.258824 0.152941 0.007843
0.278431 0.156863 0.011765
0.294118 0.160784 0.011765
0.305882 0.164706 0.015686
0.321569 0.164706 0.015686
0.337255 0.168627 0.015686
0.352941 0.176471 0.019608
0.368627 0.180392 0.019608
0.384314 0.180392 0.023529
0.396078 0.188235 0.023529
0.403922 0.192157 0.023529
0.427451 0.200000 0.027451
0.443137 0.203922 0.031373
0.458824 0.207843 0.031373
0.470588 0.211765 0.031373
0.490196 0.223529 0.035294
0.505882 0.227451 0.039216
0.517647 0.235294 0.043137
0.533333 0.239216 0.043137
0.545098 0.247059 0.047059
0.564706 0.258824 0.050980
0.576471 0.262745 0.050980
0.588235 0.270588 0.050980
0.603922 0.274510 0.054902
0.611765 0.282353 0.054902
0.631373 0.294118 0.062745
0.650980 0.301961 0.062745
0.658824 0.309804 0.066667
0.674510 0.317647 0.066667
0.686275 0.325490 0.066667
0.701961 0.341176 0.074510
0.717647 0.345098 0.078431
0.725490 0.352941 0.078431
0.749020 0.364706 0.086275
0.760784 0.376471 0.090196
0.768627 0.384314 0.090196
0.780392 0.384314 0.090196
0.788235 0.396078 0.094118
0.803922 0.403922 0.094118
0.819608 0.419608 0.105882
0.827451 0.423529 0.105882
0.839216 0.431373 0.105882
0.847059 0.439216 0.109804
0.858824 0.447059 0.113725
0.874510 0.462745 0.117647
0.882353 0.470588 0.117647
0.890196 0.478431 0.121569
0.000000 0.152941 0.000000
0.015686 0.152941 0.000000
0.035294 0.152941 0.000000
0.050980 0.152941 0.000000
0.066667 0.152941 0.000000
0.082353 0.156863 0.000000
0.094118 0.156863 0.000000
0.109804 0.156863 0.003922
0.125490 0.156863 0.003922
0.141176 0.156863 0.003922
0.156863 0.160784 0.003922
0.172549 0.160784 0.003922
0.192157 0.164706 0.007843
0.207843 0.164706 0.007843
0.223529 0.168627 0.007843
0.235294 0.168627 0.007843
0.258824 0.168627 0.011765
0.270588 0.172549 0.011765
0.286275 0.172549 0.015686
0.301961 0.176471 0.015686
0.313725 0.180392 0.015686
0.337255 0.184314 0.019608
0.345098 0.188235 0.019608
0.360784 0.192157 0.023529
0.380392 0.196078 0.023529
0.388235 0.200000 0.023529
0.407843 0.207843 0.027451
0.423529 0.211765 0.031373
0.443137 0.215686 0.031373
0.454902 0.219608 0.031373
0.462745 0.227451 0.035294
0.490196 0.235294 0.039216
0.505882 0.239216 0.043137
0.517647 0.247059 0.043137
0.533333 0.250980 0.047059
0.549020 0.262745 0.050980
0.564706 0.270588 0.050980
0.576471 0.278431 0.050980
0.592157 0.282353 0.054902
0.600000 0.290196 0.054902
0.623529 0.301961 0.062745
0.635294 0.309804 0.062745
0.650980 0.317647 0.066667
0.662745 0.321569 0.066667
0.678431 0.329412 0.066667
0.694118 0.345098 0.074510
0.709804 0.349020 0.078431
0.717647 0.356863 0.078431
0.733333 0.364706 0.078431
0.752941 0.376471 0.090196
0.760784 0.388235 0.090196
0.776471 0.392157 0.090196
0.784314 0.396078 0.094118
0.796078 0.407843 0.094118
0.815686 0.423529 0.105882
0.823529 0.423529 0.105882
0.835294 0.435294 0.105882
0.843137 0.439216 0.109804
0.854902 0.447059 0.113725
0.870588 0.466667 0.117647
0.878431 0.470588 0.117647
0.886275 0.482353 0.121569
0.894118 0.486275 0.125490
0.901961 0.494118 0.125490
0.007843 0.168627 0.000000
0.019608 0.168627 0.000000
0.035294 0.168627 0.000000
0.050980 0.168627 0.000000
0.066667 0.168627 0.000000
0.086275 0.168627 0.003922
0.101961 0.168627 0.003922
0.117647 0.168627 0.003922
0.133333 0.172549 0.003922
0.149020 0.172549 0.003922
0.164706 0.172549 0.007843
0.184314 0.176471 0.007843
0.200000 0.176471 0.007843
0.215686 0.180392 0.007843
0.231373 0.180392 0.011765
0.243137 0.176471 0.011765
0.262745 0.184314 0.015686
0.278431 0.184314 0.015686
0.294118 0.188235 0.015686
0.313725 0.192157 0.019608
0.329412 0.196078 0.019608
0.345098 0.200000 0.023529
0.360784 0.203922 0.023529
0.372549 0.207843 0.023529
0.392157 0.215686 0.027451
0.407843 0.219608 0.031373
0.423529 0.223529 0.031373
0.435294 0.227451 0.031373
0.450980 0.231373 0.035294
0.462745 0.239216 0.035294
0.486275 0.247059 0.043137
0.498039 0.254902 0.043137
0.513725 0.258824 0.047059
0.537255 0.270588 0.050980
0.552941 0.274510 0.050980
0.564706 0.282353 0.050980
0.580392 0.286275 0.054902
0.592157 0.294118 0.054902
0.611765 0.305882 0.062745
0.627451 0.313725 0.062745
0.639216 0.321569 0.066667
0.654902 0.329412 0.066667
0.666667 0.333333 0.066667
0.686275 0.349020 0.074510
0.701961 0.352941 0.078431
0.709804 0.360784 0.078431
0.721569 0.372549 0.078431
0.737255 0.372549 0.086275
0.756863 0.388235 0.090196
0.768627 0.396078 0.090196
0.780392 0.400000 0.094118
0.788235 0.407843 0.094118
0.811765 0.423529 0.105882
0.819608 0.427451 0.105882
0.831373 0.435294 0.105882
0.839216 0.443137 0.109804
0.847059 0.450980 0.113725
0.866667 0.466667 0.117647
0.874510 0.470588 0.117647
0.886275 0.482353 0.121569
0.894118 0.486275 0.125490
0.901961 0.498039 0.125490
0.917647 0.509804 0.125490
0.925490 0.517647 0.129412
0.011765 0.180392 0.000000
0.027451 0.180392 0.000000
0.043137 0.180392 0.000000
0.058824 0.180392 0.000000
0.078431 0.180392 0.003922
0.094118 0.180392 0.003922
0.109804 0.180392 0.003922
0.125490 0.184314 0.003922
0.141176 0.184314 0.007843
0.160784 0.184314 0.007843
0.176471 0.188235 0.007843
0.188235 0.188235 0.007843
0.203922 0.192157 0.011765
0.219608 0.192157 0.011765
0.243137 0.196078 0.015686
0.258824 0.200000 0.015686
0.274510 0.203922 0.015686
0.290196 0.200000 0.019608
0.309804 0.207843 0.019608
0.325490 0.207843 0.023529
0.341176 0.211765 0.023529
0.356863 0.215686 0.023529
0.368627 0.219608 0.027451
0.392157 0.227451 0.031373
0.407843 0.231373 0.031373
0.423529 0.235294 0.031373
0.435294 0.239216 0.035294
0.450980 0.247059 0.035294
0.470588 0.254902 0.043137
0.486275 0.258824 0.043137
0.501961 0.266667 0.047059
0.513725 0.270588 0.047059
0.541176 0.282353 0.050980
0.556863 0.290196 0.050980
0.568627 0.294118 0.054902
0.580392 0.298039 0.054902
0.603922 0.309804 0.062745
0.615686 0.317647 0.062745
0.627451 0.325490 0.066667
0.643137 0.333333 0.066667
0.658824 0.337255 0.066667
0.670588 0.345098 0.070588
0.694118 0.356863 0.078431
0.701961 0.364706 0.078431
0.717647 0.376471 0.078431
0.725490 0.376471 0.086275
0.741176 0.384314 0.090196
0.760784 0.400000 0.090196
0.772549 0.403922 0.094118
0.780392 0.411765 0.094118
0.803922 0.427451 0.105882
0.815686 0.427451 0.105882
0.827451 0.439216 0.105882
0.835294 0.443137 0.109804
0.847059 0.450980 0.113725
0.866667 0.466667 0.117647
0.874510 0.474510 0.117647
0.882353 0.482353 0.121569
0.890196 0.490196 0.125490
0.898039 0.498039 0.125490
0.913725 0.509804 0.125490
0.921569 0.521569 0.129412
0.929412 0.525490 0.129412
0.933333 0.529412 0.129412
0.019608 0.192157 0.000000
0.031373 0.192157 0.000000
0.054902 0.192157 0.003922
0.066667 0.192157 0.003922
0.086275 0.192157 0.003922
0.101961 0.196078 0.003922
0.117647 0.196078 0.007843
0.137255 0.196078 0.007843
0.152941 0.200000 0.007843
0.168627 0.200000 0.007843
0.184314 0.200000 0.011765
0.200000 0.203922 0.011765
0.223529 0.207843 0.015686
0.239216 0.207843 0.015686
0.254902 0.211765 0.015686
0.270588 0.211765 0.019608
0.294118 0.215686 0.019608
0.309804 0.215686 0.023529
0.325490 0.219608 0.023529
0.337255 0.223529 0.023529
0.352941 0.227451 0.027451
0.376471 0.235294 0.031373
0.392157 0.239216 0.031373
0.407843 0.243137 0.031373
0.419608 0.247059 0.035294
0.435294 0.250980 0.035294
0.458824 0.262745 0.043137
0.474510 0.266667 0.043137
0.486275 0.270588 0.047059
0.501961 0.274510 0.047059
0.513725 0.282353 0.050980
0.537255 0.294118 0.050980
0.556863 0.298039 0.054902
0.568627 0.305882 0.054902
0.584314 0.309804 0.058824
0.607843 0.321569 0.062745
0.619608 0.329412 0.066667
0.631373 0.337255 0.066667
0.647059 0.341176 0.066667
0.658824 0.349020 0.070588
0.686275 0.360784 0.078431
0.694118 0.368627 0.078431
0.709804 0.376471 0.078431
0.717647 0.380392 0.086275
0.737255 0.388235 0.090196
0.756863 0.400000 0.090196
0.764706 0.411765 0.094118
0.776471 0.415686 0.094118
0.800000 0.431373 0.105882
0.811765 0.435294 0.105882
0.823529 0.439216 0.105882
0.831373 0.447059 0.109804
0.843137 0.454902 0.113725
0.854902 0.458824 0.117647
0.870588 0.474510 0.117647
0.878431 0.486275 0.121569
0.886275 0.490196 0.125490
0.898039 0.498039 0.125490
0.909804 0.505882 0.125490
0.921569 0.521569 0.129412
0.929412 0.525490 0.129412
0.933333 0.529412 0.129412
0.945098 0.545098 0.133333
0.952941 0.549020 0.133333
0.031373 0.152941 0.003922
0.047059 0.152941 0.003922
0.062745 0.152941 0.003922
0.082353 0.156863 0.003922
0.098039 0.156863 0.003922
0.113725 0.156863 0.003922
0.129412 0.156863 0.007843
0.145098 0.156863 0.007843
0.160784 0.156863 0.007843
0.176471 0.156863 0.011765
0.196078 0.160784 0.011765
0.211765 0.160784 0.011765
0.227451 0.164706 0.011765
0.239216 0.164706 0.011765
0.258824 0.164706 0.011765
0.274510 0.168627 0.015686
0.290196 0.172549 0.015686
0.309804 0.176471 0.019608
0.325490 0.176471 0.019608
0.337255 0.180392 0.023529
0.356863 0.180392 0.023529
0.368627 0.188235 0.023529
0.384314 0.192157 0.023529
0.400000 0.196078 0.027451
0.415686 0.196078 0.027451
0.431373 0.200000 0.027451
0.443137 0.203922 0.035294
0.462745 0.207843 0.035294
0.478431 0.215686 0.039216
0.490196 0.219608 0.039216
0.505882 0.223529 0.039216
0.517647 0.227451 0.043137
0.537255 0.235294 0.043137
0.549020 0.239216 0.047059
0.560784 0.247059 0.047059
0.572549 0.250980 0.050980
0.592157 0.262745 0.050980
0.607843 0.270588 0.054902
0.615686 0.274510 0.058824
0.631373 0.282353 0.062745
0.643137 0.286275 0.062745
0.654902 0.294118 0.066667
0.670588 0.305882 0.066667
0.682353 0.313725 0.070588
0.694118 0.321569 0.070588
0.705882 0.329412 0.070588
0.717647 0.333333 0.074510
0.733333 0.349020 0.078431
0.745098 0.352941 0.082353
0.752941 0.364706 0.082353
0.764706 0.372549 0.086275
0.780392 0.380392 0.086275
0.788235 0.392157 0.090196
0.800000 0.400000 0.090196
0.811765 0.411765 0.094118
0.819608 0.427451 0.094118
0.831373 0.443137 0.094118
0.839216 0.454902 0.098039
0.847059 0.466667 0.094118
0.858824 0.478431 0.094118
0.862745 0.498039 0.094118
0.874510 0.513725 0.094118
0.882353 0.525490 0.098039
0.890196 0.537255 0.094118
0.039216 0.164706 0.003922
0.054902 0.164706 0.003922
0.074510 0.168627 0.003922
0.090196 0.168627 0.003922
0.105882 0.168627 0.007843
0.121569 0.168627 0.007843
0.133333 0.168627 0.007843
0.156863 0.168627 0.011765
0.168627 0.172549 0.011765
0.188235 0.172549 0.011765
0.203922 0.172549 0.011765
0.219608 0.176471 0.011765
0.235294 0.176471 0.011765
0.254902 0.180392 0.015686
0.266667 0.180392 0.015686
0.282353 0.184314 0.019608
0.305882 0.188235 0.019608
0.321569 0.192157 0.023529
0.333333 0.192157 0.023529
0.349020 0.196078 0.023529
0.364706 0.196078 0.023529
0.384314 0.207843 0.027451
0.396078 0.207843 0.027451
0.411765 0.211765 0.027451
0.427451 0.215686 0.035294
0.439216 0.215686 0.035294
0.458824 0.223529 0.039216
0.474510 0.227451 0.039216
0.490196 0.231373 0.039216
0.501961 0.235294 0.043137
0.517647 0.239216 0.043137
0.529412 0.243137 0.043137
0.549020 0.254902 0.047059
0.560784 0.258824 0.050980
0.576471 0.266667 0.050980
0.592157 0.274510 0.054902
0.603922 0.282353 0.058824
0.619608 0.286275 0.062745
0.631373 0.290196 0.062745
0.643137 0.301961 0.066667
0.658824 0.309804 0.066667
0.674510 0.317647 0.070588
0.686275 0.325490 0.070588
0.698039 0.329412 0.070588
0.705882 0.337255 0.074510
0.721569 0.349020 0.078431
0.737255 0.356863 0.082353
0.749020 0.364706 0.082353
0.756863 0.372549 0.086275
0.772549 0.388235 0.086275
0.784314 0.396078 0.090196
0.796078 0.403922 0.090196
0.803922 0.411765 0.094118
0.811765 0.431373 0.094118
0.823529 0.443137 0.094118
0.835294 0.458824 0.098039
0.839216 0.470588 0.094118
0.850980 0.482353 0.094118
0.858824 0.498039 0.094118
0.870588 0.517647 0.094118
0.878431 0.529412 0.098039
0.882353 0.537255 0.094118
0.894118 0.549020 0.094118
0.898039 0.564706 0.094118
0.043137 0.180392 0.003922
0.062745 0.180392 0.003922
0.078431 0.180392 0.007843
0.098039 0.184314 0.007843
0.113725 0.184314 0.007843
0.133333 0.184314 0.007843
0.149020 0.184314 0.011765
0.164706 0.184314 0.011765
0.180392 0.184314 0.011765
0.192157 0.184314 0.011765
0.211765 0.188235 0.011765
0.231373 0.192157 0.015686
0.243137 0.192157 0.015686
0.262745 0.192157 0.019608
0.278431 0.196078 0.019608
0.294118 0.200000 0.019608
0.317647 0.203922 0.023529
0.329412 0.203922 0.023529
0.345098 0.207843 0.023529
0.360784 0.211765 0.023529
0.380392 0.215686 0.027451
0.396078 0.219608 0.027451
0.407843 0.223529 0.035294
0.423529 0.227451 0.035294
0.443137 0.231373 0.035294
0.458824 0.239216 0.039216
0.474510 0.239216 0.039216
0.486275 0.243137 0.043137
0.501961 0.247059 0.043137
0.517647 0.254902 0.043137
0.537255 0.262745 0.047059
0.549020 0.266667 0.050980
0.560784 0.270588 0.050980
0.580392 0.282353 0.054902
0.596078 0.286275 0.058824
0.607843 0.290196 0.062745
0.619608 0.298039 0.062745
0.631373 0.305882 0.062745
0.650980 0.313725 0.066667
0.662745 0.321569 0.070588
0.674510 0.329412 0.070588
0.686275 0.337255 0.070588
0.698039 0.341176 0.074510
0.709804 0.349020 0.074510
0.729412 0.360784 0.082353
0.737255 0.368627 0.082353
0.749020 0.376471 0.086275
0.760784 0.384314 0.086275
0.772549 0.400000 0.090196
0.788235 0.403922 0.090196
0.800000 0.411765 0.094118
0.807843 0.431373 0.094118
0.819608 0.447059 0.094118
0.827451 0.462745 0.098039
0.839216 0.474510 0.094118
0.847059 0.482353 0.094118
0.854902 0.494118 0.094118
0.866667 0.517647 0.094118
0.874510 0.529412 0.098039
0.878431 0.537255 0.094118
0.890196 0.549020 0.094118
0.898039 0.560784 0.094118
0.909804 0.580392 0.094118
0.913725 0.592157 0.094118
0.054902 0.192157 0.007843
0.070588 0.192157 0.007843
0.086275 0.192157 0.007843
0.105882 0.196078 0.007843
0.125490 0.196078 0.011765
0.141176 0.196078 0.011765
0.156863 0.196078 0.011765
0.172549 0.196078 0.011765
0.192157 0.200000 0.011765
0.207843 0.203922 0.015686
0.223529 0.203922 0.015686
0.239216 0.203922 0.019608
0.258824 0.207843 0.019608
0.274510 0.211765 0.019608
0.294118 0.215686 0.023529
0.309804 0.215686 0.023529
0.325490 0.219608 0.023529
0.341176 0.219608 0.023529
0.364706 0.223529 0.027451
0.376471 0.227451 0.027451
0.392157 0.231373 0.035294
0.407843 0.231373 0.035294
0.427451 0.235294 0.035294
0.443137 0.243137 0.039216
0.458824 0.247059 0.039216
0.474510 0.250980 0.043137
0.486275 0.254902 0.043137
0.501961 0.262745 0.043137
0.517647 0.270588 0.047059
0.533333 0.270588 0.050980
0.549020 0.278431 0.050980
0.560784 0.282353 0.050980
0.580392 0.294118 0.058824
0.596078 0.298039 0.062745
0.607843 0.305882 0.062745
0.623529 0.309804 0.062745
0.635294 0.317647 0.066667
0.654902 0.329412 0.070588
0.666667 0.333333 0.070588
0.678431 0.341176 0.070588
0.690196 0.345098 0.074510
0.701961 0.352941 0.074510
0.717647 0.364706 0.082353
0.733333 0.372549 0.082353
0.741176 0.380392 0.086275
0.752941 0.388235 0.086275
0.764706 0.396078 0.086275
0.780392 0.407843 0.090196
0.792157 0.415686 0.094118
0.800000 0.427451 0.094118
0.815686 0.450980 0.094118
0.823529 0.462745 0.098039
0.831373 0.474510 0.094118
0.843137 0.482353 0.094118
0.847059 0.498039 0.094118
0.858824 0.513725 0.090196
0.870588 0.529412 0.098039
0.878431 0.541176 0.094118
0.886275 0.552941 0.094118
0.894118 0.564706 0.094118
0.898039 0.576471 0.094118
0.913725 0.592157 0.094118
0.917647 0.600000 0.090196
0.925490 0.611765 0.094118
0.062745 0.203922 0.007843
0.082353 0.203922 0.007843
0.101961 0.207843 0.011765
0.117647 0.207843 0.011765
0.133333 0.207843 0.011765
0.152941 0.211765 0.011765
0.172549 0.211765 0.011765
0.188235 0.211765 0.015686
0.203922 0.215686 0.015686
0.219608 0.215686 0.019608
0.235294 0.219608 0.019608
0.250980 0.219608 0.019608
0.274510 0.223529 0.023529
0.290196 0.223529 0.023529
0.305882 0.231373 0.023529
0.321569 0.227451 0.023529
0.345098 0.235294 0.027451
0.356863 0.239216 0.027451
0.372549 0.239216 0.035294
0.392157 0.243137 0.035294
0.407843 0.247059 0.035294
0.427451 0.250980 0.039216
0.443137 0.254902 0.039216
0.454902 0.258824 0.043137
0.470588 0.262745 0.043137
0.486275 0.266667 0.043137
0.505882 0.274510 0.047059
0.521569 0.278431 0.050980
0.537255 0.282353 0.050980
0.549020 0.286275 0.050980
0.560784 0.294118 0.058824
0.584314 0.301961 0.062745
0.600000 0.305882 0.062745
0.607843 0.313725 0.062745
0.627451 0.321569 0.066667
0.643137 0.333333 0.070588
0.654902 0.341176 0.070588
0.666667 0.345098 0.070588
0.682353 0.352941 0.074510
0.690196 0.360784 0.074510
0.713725 0.372549 0.082353
0.721569 0.380392 0.082353
0.733333 0.384314 0.086275
0.745098 0.388235 0.086275
0.760784 0.400000 0.086275
0.772549 0.411765 0.090196
0.788235 0.419608 0.094118
0.792157 0.431373 0.094118
0.803922 0.450980 0.090196
0.819608 0.462745 0.098039
0.823529 0.478431 0.094118
0.839216 0.486275 0.094118
0.843137 0.498039 0.094118
0.850980 0.517647 0.090196
0.866667 0.533333 0.098039
0.874510 0.541176 0.094118
0.882353 0.556863 0.094118
0.890196 0.564706 0.094118
0.898039 0.576471 0.094118
0.909804 0.596078 0.094118
0.917647 0.600000 0.090196
0.921569 0.615686 0.094118
0.929412 0.619608 0.094118
0.933333 0.627451 0.094118
0.078431 0.219608 0.011765
0.094118 0.219608 0.011765
0.109804 0.219608 0.011765
0.125490 0.223529 0.011765
0.145098 0.223529 0.011765
0.164706 0.223529 0.015686
0.180392 0.223529 0.015686
0.200000 0.223529 0.019608
0.215686 0.227451 0.019608
0.231373 0.231373 0.019608
0.250980 0.231373 0.023529
0.270588 0.235294 0.023529
0.286275 0.235294 0.023529
0.301961 0.239216 0.023529
0.317647 0.239216 0.027451
0.337255 0.243137 0.027451
0.356863 0.250980 0.035294
0.372549 0.250980 0.035294
0.388235 0.250980 0.035294
0.411765 0.258824 0.039216
0.427451 0.262745 0.039216
0.443137 0.266667 0.043137
0.458824 0.270588 0.043137
0.470588 0.274510 0.043137
0.494118 0.282353 0.047059
0.505882 0.286275 0.050980
0.521569 0.290196 0.050980
0.537255 0.294118 0.050980
0.549020 0.298039 0.058824
0.564706 0.305882 0.058824
0.584314 0.313725 0.062745
0.596078 0.321569 0.062745
0.615686 0.329412 0.066667
0.631373 0.337255 0.070588
0.647059 0.341176 0.070588
0.658824 0.349020 0.070588
0.670588 0.352941 0.074510
0.686275 0.364706 0.074510
0.701961 0.372549 0.082353
0.717647 0.380392 0.082353
0.725490 0.388235 0.086275
0.737255 0.396078 0.086275
0.749020 0.400000 0.086275
0.764706 0.415686 0.090196
0.780392 0.423529 0.094118
0.788235 0.435294 0.094118
0.796078 0.447059 0.094118
0.807843 0.454902 0.094118
0.823529 0.478431 0.094118
