gm4lowpitchfixed.cube
# VEGAS Pro LUT
TITLE "gm4lowpitch"
LUT_3D_SIZE 33
0.00000000 0.00000000 0.00000000
0.03112175 0.00001438 0.00000325
0.06191154 0.00007831 0.00001858
0.09227347 0.00022866 0.00005616
0.12213288 0.00050894 0.00012818
0.15143414 0.00096815 0.00024851
0.18013856 0.00165972 0.00043229
0.20822242 0.00264043 0.00069556
0.23567498 0.00396944 0.00105498
0.26249671 0.00570735 0.00152743
0.28869760 0.00791524 0.00212974
0.31429541 0.01065385 0.00287843
0.33931428 0.01398273 0.00378940
0.36378315 0.01795952 0.00487768
0.38773444 0.02263916 0.00615723
0.41120285 0.02807326 0.00764069
0.43422419 0.03430943 0.00933919
0.45683420 0.04139070 0.01126220
0.47906765 0.04935497 0.01341732
0.50095743 0.05823454 0.01581016
0.52253377 0.06805559 0.01844422
0.54382354 0.07883784 0.02132077
0.56484967 0.09059414 0.02443876
0.58563054 0.10333014 0.02779475
0.60617959 0.11704408 0.03138287
0.62650496 0.13172652 0.03519473
0.64660954 0.14736013 0.03921947
0.66649044 0.16391957 0.04344372
0.68613905 0.18137142 0.04785161
0.70554113 0.19967417 0.05242483
0.72467721 0.21877807 0.05714265
0.74352205 0.23862530 0.06198202
0.76204598 0.25915012 0.06691767
0.00012217 0.03097492 0.00001769
0.03100857 0.03086296 0.00005425
0.06149527 0.03082808 0.00012476
0.09152152 0.03092135 0.00024306
0.12104357 0.03119835 0.00042422
0.15003271 0.03171803 0.00068428
0.17847331 0.03254175 0.00103986
0.20636097 0.03373234 0.00150785
0.23370089 0.03535316 0.00210509
0.26050615 0.03746724 0.00284811
0.28679618 0.04013649 0.00375283
0.31259525 0.04342088 0.00483434
0.33793133 0.04737777 0.00610662
0.36283451 0.05206114 0.00758237
0.38733613 0.05752105 0.00927278
0.41146746 0.06380299 0.01118739
0.43525892 0.07094732 0.01333385
0.45873898 0.07898884 0.01571787
0.48193353 0.08795623 0.01834302
0.50486511 0.09787172 0.02121065
0.52755225 0.10875070 0.02431981
0.55000913 0.12060140 0.02766713
0.57224488 0.13342458 0.03124684
0.59426343 0.14721332 0.03505065
0.61606342 0.16195293 0.03906778
0.63763750 0.17762060 0.04328496
0.65897310 0.19418553 0.04768640
0.68005157 0.21160871 0.05225389
0.70084894 0.22984301 0.05696679
0.72133625 0.24883318 0.06180212
0.74147904 0.26851600 0.06673469
0.76123869 0.28882030 0.07173713
0.78057247 0.30966723 0.07678007
0.00080874 0.06117199 0.00012141
0.03155302 0.06090292 0.00023769
0.06188609 0.06076877 0.00041625
0.09177424 0.06083068 0.00067312
0.12119696 0.06115220 0.00102489
0.15014498 0.06179840 0.00148844
0.17861871 0.06283491 0.00208063
0.20662650 0.06432707 0.00281800
0.23418310 0.06633911 0.00371651
0.26130822 0.06893336 0.00479125
0.28802514 0.07216955 0.00605628
0.31435958 0.07610410 0.00752433
0.34033823 0.08078949 0.00920667
0.36598805 0.08627366 0.01111288
0.39133486 0.09259944 0.01325070
0.41640294 0.09980410 0.01562591
0.44121373 0.10791886 0.01824215
0.46578544 0.11696846 0.02110086
0.49013239 0.12697083 0.02420118
0.51426429 0.13793668 0.02753983
0.53818607 0.14986941 0.03111112
0.56189758 0.16276464 0.03490686
0.58539283 0.17661020 0.03891636
0.60866058 0.19138592 0.04312644
0.63168359 0.20706350 0.04752142
0.65443939 0.22360654 0.05208314
0.67689955 0.24097051 0.05679108
0.69903070 0.25910270 0.06162235
0.72079432 0.27794245 0.06655182
0.74214733 0.29742116 0.07155219
0.76304281 0.31746256 0.07659417
0.78343004 0.33798283 0.08164658
0.80325580 0.35889092 0.08667646
0.00266648 0.09037080 0.00040840
0.03344738 0.08997820 0.00066209
0.06384626 0.08980063 0.00101007
0.09384906 0.08990538 0.00146921
0.12345134 0.09036036 0.00205637
0.15265675 0.09123319 0.00278812
0.18147536 0.09259044 0.00368042
0.20992222 0.09449681 0.00474842
0.23801613 0.09701441 0.00600622
0.26577815 0.10020206 0.00746659
0.29323062 0.10411467 0.00914087
0.32039589 0.10880262 0.01103869
0.34729558 0.11431123 0.01316788
0.37394938 0.12068027 0.01553427
0.40037447 0.12794346 0.01814160
0.42658469 0.13612801 0.02099140
0.45259005 0.14525443 0.02408287
0.47839609 0.15533602 0.02741284
0.50400335 0.16637862 0.03097570
0.52940726 0.17838046 0.03476335
0.55459785 0.19133197 0.03876521
0.57955945 0.20521550 0.04296818
0.60427070 0.22000536 0.04735665
0.62870467 0.23566774 0.05191259
0.65282881 0.25216058 0.05661555
0.67660546 0.26943389 0.06144271
0.69999176 0.28742948 0.06636903
0.72294044 0.30608135 0.07136731
0.74540007 0.32531574 0.07640830
0.76731575 0.34505147 0.08146089
0.78862977 0.36519989 0.08649220
0.80928242 0.38566571 0.09146784
0.82921290 0.40634689 0.09635200
0.00642155 0.11848687 0.00099540
0.03747348 0.11805312 0.00145015
0.06819906 0.11792933 0.00203231
0.09859715 0.11818545 0.00275845
0.12867315 0.11889037 0.00364457
0.15843755 0.12011113 0.00470585
0.18790446 0.12191223 0.00595643
0.21709050 0.12435490 0.00740914
0.24601348 0.12749648 0.00907537
0.27469134 0.13138980 0.01096481
0.30314118 0.13608266 0.01308537
0.33137840 0.14161730 0.01544296
0.35941583 0.14802994 0.01804139
0.38726297 0.15535036 0.02088226
0.41492546 0.16360153 0.02396488
0.44240451 0.17279932 0.02728616
0.46969652 0.18295214 0.03084058
0.49679255 0.19406080 0.03462014
0.52367842 0.20611823 0.03861434
0.55033416 0.21910939 0.04281016
0.57673419 0.23301114 0.04719212
0.60284734 0.24779229 0.05174225
0.62863672 0.26341337 0.05644019
0.65406036 0.27982685 0.06126321
0.67907131 0.29697719 0.06618635
0.70361781 0.31480095 0.07118249
0.72764421 0.33322692 0.07622246
0.75109106 0.35217640 0.08127518
0.77389657 0.37156343 0.08630788
0.79599643 0.39129514 0.09128618
0.81732541 0.41127199 0.09617435
0.83781803 0.43138820 0.10093548
0.85740942 0.45153251 0.10553173
0.01286215 0.14554171 0.00200844
0.04444797 0.14518374 0.00272899
0.07577676 0.14523877 0.00360895
0.10685437 0.14577621 0.00466354
0.13769037 0.14686291 0.00590691
0.16829681 0.14856255 0.00735198
0.19868699 0.15093483 0.00901017
0.22887444 0.15403512 0.01089125
0.25887185 0.15791364 0.01300319
0.28869018 0.16261512 0.01535197
0.31833792 0.16817828 0.01794150
0.34782028 0.17463543 0.02077345
0.37713853 0.18201208 0.02384722
0.40628964 0.19032659 0.02715980
0.43526566 0.19959000 0.03070577
0.46405345 0.20980561 0.03447722
0.49263456 0.22096896 0.03846373
0.52098477 0.23306757 0.04265240
0.54907411 0.24608088 0.04702781
0.57686722 0.25998026 0.05157210
0.60432315 0.27472878 0.05626499
0.63139546 0.29028156 0.06108383
0.65803277 0.30658561 0.06600377
0.68417931 0.32358003 0.07099772
0.70977485 0.34119612 0.07603661
0.73475587 0.35935783 0.08108944
0.75905597 0.37798166 0.08612349
0.78260660 0.39697725 0.09110441
0.80533791 0.41624761 0.09599654
0.82718003 0.43568957 0.10076301
0.84806371 0.45519406 0.10536600
0.86792171 0.47464696 0.10976700
0.88668984 0.49392915 0.11392708
0.02278641 0.17163551 0.00357358
0.05517294 0.17149189 0.00462148
0.08737403 0.17186633 0.00585767
0.11939722 0.17282486 0.00729510
0.15125132 0.17442967 0.00894527
0.18294537 0.17673852 0.01081800
0.21448767 0.17980410 0.01292133
0.24588481 0.18367365 0.01526132
0.27714086 0.18838841 0.01784194
0.30825672 0.19398318 0.02066497
0.33922940 0.20048600 0.02372988
0.37005150 0.20791781 0.02703376
0.40071085 0.21629214 0.03057127
0.43119001 0.22561491 0.03433459
0.46146625 0.23588420 0.03831340
0.49151105 0.24709009 0.04249489
0.52129042 0.25921461 0.04686373
0.55076450 0.27223167 0.05140216
0.57988805 0.28610694 0.05608996
0.60861045 0.30079815 0.06090461
0.63687611 0.31625482 0.06582128
0.66462481 0.33241862 0.07081302
0.69179213 0.34922349 0.07585078
0.71831012 0.36659577 0.08090369
0.74410796 0.38445464 0.08593901
0.76911271 0.40271217 0.09092253
0.79325020 0.42127395 0.09581856
0.81644595 0.44003922 0.10059032
0.83862638 0.45890152 0.10520000
0.85971946 0.47774905 0.10960913
0.87965655 0.49646530 0.11377876
0.89837348 0.51492947 0.11766981
0.91581178 0.53301716 0.12124325
0.03695569 0.19692238 0.00580870
0.07039196 0.19714177 0.00723852
0.10370663 0.19798085 0.00888067
0.13690430 0.19949986 0.01074506
0.16998881 0.20175397 0.01283979
0.20296237 0.20479286 0.01517098
0.23582473 0.20866027 0.01774271
0.26857242 0.21339358 0.02055682
0.30119812 0.21902332 0.02361287
0.33369017 0.22557294 0.02690803
0.36603212 0.23305860 0.03043707
0.39820221 0.24148871 0.03419225
0.43017349 0.25086394 0.03816335
0.46191320 0.26117694 0.04233763
0.49338299 0.27241233 0.04669989
0.52453887 0.28454655 0.05123241
0.55533129 0.29754794 0.05591511
0.58570534 0.31137663 0.06072551
0.61560118 0.32598490 0.06563890
0.64495420 0.34131682 0.07062837
0.67369568 0.35730901 0.07566500
0.70175338 0.37389031 0.08071790
0.72905219 0.39098242 0.08575447
0.75551462 0.40850002 0.09074050
0.78106207 0.42635104 0.09564041
0.80561566 0.44443738 0.10041741
0.82909709 0.46265501 0.10503373
0.85143006 0.48089460 0.10945093
0.87254125 0.49904197 0.11363006
0.89236170 0.51697886 0.11753204
0.91082835 0.53458333 0.12111787
0.92788559 0.55173039 0.12434902
0.94348645 0.56829309 0.12718770
0.05605312 0.22158831 0.00881638
0.09075136 0.22231910 0.01067243
0.12537540 0.22376314 0.01275856
0.15992305 0.22597265 0.01508098
0.19438967 0.22899385 0.01764381
0.22876744 0.23286659 0.02044899
0.26304477 0.23762396 0.02349617
0.29720569 0.24329200 0.02678262
0.33122945 0.24988934 0.03030317
0.36509007 0.25742698 0.03405020
0.39875627 0.26590818 0.03801357
0.43219107 0.27532816 0.04218063
0.46535188 0.28567404 0.04653627
0.49819040 0.29692495 0.05106287
0.53065288 0.30905169 0.05574043
0.56268001 0.32201707 0.06054656
0.59420788 0.33577585 0.06545662
0.62516737 0.35027474 0.07044379
0.65548551 0.36545283 0.07547922
0.68508577 0.38124156 0.08053209
0.71388853 0.39756519 0.08556986
0.74181199 0.41434085 0.09055838
0.76877320 0.43147910 0.09546210
0.79468870 0.44888419 0.10024428
0.81947571 0.46645468 0.10486719
0.84305334 0.48408368 0.10929240
0.86534363 0.50165939 0.11348099
0.88627309 0.51906610 0.11739384
0.90577394 0.53618407 0.12099200
0.92378569 0.55289090 0.12423687
0.94025660 0.56906182 0.12709063
0.95514572 0.58457065 0.12951662
0.96842426 0.59929037 0.13147952
0.08064760 0.24583161 0.01267766
0.11676693 0.24721298 0.01499130
0.15283573 0.24938905 0.01754524
0.18884185 0.25240213 0.02034150
0.22476940 0.25628790 0.02337981
0.26059812 0.26107490 0.02665753
0.29630291 0.26678431 0.03016959
0.33185363 0.27342975 0.03390845
0.36721462 0.28101695 0.03786407
0.40234470 0.28954369 0.04202389
0.43719700 0.29899982 0.04637288
0.47171900 0.30936688 0.05089354
0.50585264 0.32061833 0.05556592
0.53953445 0.33271956 0.06036775
0.57269603 0.34562775 0.06527445
0.60526413 0.35929239 0.07025929
0.63716137 0.37365502 0.07529347
0.66830695 0.38864964 0.08034626
0.69861680 0.40420300 0.08538518
0.72800481 0.42023480 0.09037613
0.75638348 0.43665814 0.09528362
0.78366488 0.45337981 0.10007093
0.80976182 0.47030067 0.10470039
0.83458889 0.48731643 0.10913355
0.85806346 0.50431776 0.11333153
0.88010728 0.52119124 0.11725523
0.90064806 0.53781962 0.12086565
0.91962039 0.55408287 0.12412418
0.93696785 0.56985855 0.12699302
0.95264447 0.58502275 0.12943536
0.96661669 0.59945089 0.13141590
0.97886485 0.61301827 0.13290124
0.98938584 0.62560141 0.13386010
0.11116304 0.26984578 0.01744699
0.14879577 0.27200019 0.02023433
0.18637210 0.27501512 0.02326377
0.22386748 0.27892163 0.02653275
0.26125252 0.28374356 0.03003631
0.29849285 0.28949696 0.03376699
0.33554846 0.29619020 0.03771484
0.37237400 0.30382365 0.04186741
0.40891832 0.31238967 0.04620973
0.44512466 0.32187241 0.05072441
0.48093057 0.33224785 0.05539159
0.51626849 0.34348404 0.06018908
0.55106556 0.35554072 0.06509238
0.58524436 0.36836988 0.07007484
0.61872321 0.38191563 0.07510774
0.65141684 0.39611459 0.08016042
0.68323684 0.41089594 0.08520044
0.71409273 0.42618203 0.09019378
0.74389255 0.44188836 0.09510498
0.77254403 0.45792428 0.09989738
0.79995543 0.47419316 0.10453331
0.82603651 0.49059302 0.10897439
0.85070038 0.50701714 0.11318172
0.87386405 0.52335447 0.11711620
0.89545047 0.53949016 0.12073883
0.91538942 0.55530655 0.12401099
0.93361986 0.57068354 0.12689480
0.95009077 0.58549953 0.12935348
0.96476370 0.59963214 0.13135162
0.97761393 0.61295909 0.13285573
0.98863328 0.62535906 0.13383450
0.99783111 0.63671273 0.13425928
1.00000000 0.67454565 0.12665147
0.14785294 0.29380554 0.02314805
0.18701385 0.29683223 0.02640830
0.22607835 0.30076700 0.02990334
0.26500776 0.30562863 0.03362582
0.30375788 0.31142795 0.03756589
0.34227905 0.31816798 0.04171117
0.38051581 0.32584357 0.04604682
0.41840723 0.33444148 0.05055549
0.45588660 0.34394038 0.05521744
0.49288204 0.35431066 0.06001054
0.52931643 0.36551479 0.06491042
0.56510800 0.37750727 0.06989046
0.60017079 0.39023480 0.07492204
0.63441515 0.40363652 0.07997455
0.66774845 0.41764417 0.08501563
0.70007563 0.43218261 0.09001131
0.73130035 0.44716987 0.09492618
0.76132596 0.46251777 0.09972361
0.79005599 0.47813219 0.10436597
0.81739593 0.49391362 0.10881490
0.84325415 0.50975776 0.11303152
0.86754298 0.52555597 0.11697674
0.89018077 0.54119587 0.12061153
0.91109252 0.55656201 0.12389726
0.93021214 0.57153690 0.12679604
0.94748414 0.58600092 0.12927097
0.96286488 0.59983432 0.13128667
0.97632468 0.61291689 0.13280950
0.98785013 0.62512958 0.13380815
0.99744570 0.63635522 0.13425379
1.00000000 0.67275131 0.12707464
1.00000000 0.72235954 0.11427825
1.00000000 0.77264565 0.09925287
0.19078040 0.31785467 0.02977068
0.23139839 0.32182473 0.03348495
0.27184281 0.32673025 0.03741721
0.31205973 0.33257669 0.04155520
0.35198945 0.33936161 0.04588413
0.39156675 0.34707427 0.05038677
0.43072066 0.35569584 0.05504346
0.46937501 0.36519945 0.05983217
0.50744843 0.37555000 0.06472857
0.54485488 0.38670462 0.06970616
0.58150399 0.39861259 0.07473636
0.61730194 0.41121548 0.07978868
0.65215141 0.42444772 0.08483076
0.68595320 0.43823662 0.08982874
0.71860659 0.45250273 0.09474722
0.75001025 0.46716037 0.09954963
0.78006339 0.48211792 0.10419837
0.80866688 0.49727836 0.10865511
0.83572441 0.51253974 0.11288097
0.86114383 0.52779591 0.11683686
0.88483864 0.54293686 0.12048376
0.90672916 0.55784959 0.12378301
0.92674464 0.57241875 0.12669666
0.94482428 0.58652741 0.12918784
0.96091986 0.60005778 0.13122104
0.97499657 0.61289197 0.13276258
0.98703599 0.62491333 0.13378103
0.99703741 0.63600653 0.13424750
1.00000000 0.67096007 0.12749386
1.00000000 0.72051257 0.11479279
1.00000000 0.77080232 0.09983703
1.00000000 0.82021654 0.08332550
1.00000000 0.86714238 0.06595712
0.23980330 0.34209704 0.03726882
0.28171608 0.34704983 0.04139949
0.32333919 0.35294375 0.04572168
0.36460310 0.35977066 0.05021827
0.40543264 0.36751431 0.05486966
0.44574738 0.37615040 0.05965393
0.48546153 0.38564640 0.06454682
0.52448487 0.39596203 0.06952193
0.56272280 0.40704900 0.07455073
0.60007679 0.41885161 0.07960278
0.63644558 0.43130678 0.08464584
0.67172545 0.44434422 0.08964605
0.70581108 0.45788714 0.09456810
0.73859692 0.47185227 0.09937543
0.76997745 0.48615053 0.10403052
0.79984903 0.50068736 0.10849500
0.82811099 0.51536322 0.11273003
0.85466629 0.53007442 0.11669656
0.87942380 0.54471332 0.12035551
0.90229917 0.55916935 0.12366824
0.92321664 0.57332951 0.12659673
0.94211084 0.58707911 0.12910409
0.95892829 0.60030258 0.13115476
0.97362936 0.61288446 0.13271496
0.98619050 0.62471026 0.13375318
0.99660569 0.63566691 0.13424042
1.00000000 0.66917205 0.12790906
1.00000000 0.71866661 0.11530428
1.00000000 0.76895785 0.10041909
1.00000000 0.81843287 0.08395241
1.00000000 0.86547881 0.06660317
1.00000000 0.90848291 0.04907029
1.00000000 0.94583237 0.03205268
0.29456499 0.36659005 0.04555947
0.33751628 0.37253076 0.05004997
0.38002250 0.37939587 0.05469605
0.42199892 0.38716361 0.05947584
0.46335557 0.39580411 0.06436519
0.50399786 0.40527952 0.06933776
0.54382682 0.41554421 0.07436512
0.58273971 0.42654502 0.07941687
0.62063080 0.43822134 0.08446086
0.65739202 0.45050547 0.08946326
0.69291359 0.46332312 0.09438883
0.72708547 0.47659355 0.09920104
0.75979781 0.49023014 0.10386240
0.79094231 0.50414073 0.10833459
0.82041353 0.51822841 0.11257875
0.84811002 0.53239173 0.11655585
0.87393594 0.54652548 0.12022680
0.89780211 0.56052148 0.12355294
0.91962796 0.57426918 0.12649624
0.93934333 0.58765602 0.12901974
0.95688969 0.60056901 0.13108779
0.97222257 0.61289471 0.13266663
0.98531312 0.62452084 0.13372457
0.99615031 0.63533664 0.13423258
1.00000000 0.66738725 0.12832025
1.00000000 0.71682179 0.11581269
1.00000000 0.76711226 0.10099901
1.00000000 0.81664586 0.08457813
1.00000000 0.86380976 0.06724897
1.00000000 0.90699112 0.04971046
1.00000000 0.94457722 0.03266152
1.00000000 0.97495508 0.01680107
1.00000000 0.99651194 0.00282803
0.35449016 0.39134055 0.05452261
0.39812967 0.39823914 0.05929790
0.44113049 0.40602309 0.06418367
0.48339373 0.41465715 0.06915367
0.52481610 0.42409825 0.07417954
0.56529051 0.43429571 0.07923096
0.60470688 0.44519150 0.08427582
0.64295268 0.45672050 0.08928037
0.67991400 0.46881086 0.09420940
0.71547592 0.48138440 0.09902645
0.74952424 0.49435687 0.10369402
0.78194618 0.50763875 0.10817385
0.81263173 0.52113539 0.11242712
0.84147477 0.53474790 0.11641472
0.86837459 0.54837352 0.12009763
0.89323753 0.56190628 0.12343713
0.91597819 0.57523805 0.12639518
0.93652135 0.58825862 0.12893474
0.95480371 0.60085720 0.13102019
0.97077566 0.61292279 0.13261758
0.98440337 0.62434518 0.13369523
0.99567056 0.63501590 0.13422394
1.00000000 0.66560578 0.12872736
1.00000000 0.71497804 0.11631797
1.00000000 0.76526564 0.10157675
1.00000000 0.81485564 0.08520261
1.00000000 0.86213535 0.06789448
1.00000000 0.90549183 0.05035129
1.00000000 0.94331229 0.03327196
1.00000000 0.97398388 0.01735540
1.00000000 0.99589390 0.00330054
0.99384546 0.99710971 0.00000000
0.98394310 0.99131006 0.00000000
0.41878620 0.41630349 0.06400227
0.46267241 0.42409503 0.06896966
0.50569046 0.43271121 0.07399400
0.54772902 0.44210383 0.07904503
0.58867365 0.45221743 0.08409072
0.62840754 0.46298939 0.08909737
0.66681188 0.47435045 0.09402982
0.70376790 0.48622483 0.09885164
0.73915654 0.49853086 0.10352541
0.77286053 0.51118141 0.10801282
0.80476534 0.52408433 0.11227510
0.83476019 0.53714323 0.11627317
0.86273968 0.55025750 0.11996798
0.88860536 0.56332386 0.12332080
0.91226703 0.57623625 0.12629354
0.93364471 0.58888698 0.12884915
0.95266998 0.60116744 0.13095190
0.96928841 0.61296892 0.13256784
0.98346090 0.62418365 0.13366513
0.99516624 0.63470495 0.13421452
1.00000000 0.66382778 0.12913038
1.00000000 0.71313560 0.11682010
1.00000000 0.76341808 0.10215228
1.00000000 0.81306231 0.08582583
1.00000000 0.86045557 0.06853969
1.00000000 0.90398496 0.05099276
1.00000000 0.94203764 0.03388397
1.00000000 0.97300088 0.01791225
1.00000000 0.99526179 0.00377652
0.99417609 0.99728227 0.00000000
0.98433822 0.99156076 0.00000000
0.97278607 0.98375934 0.00000000
0.95960093 0.97397161 0.00000000
0.48644975 0.44138312 0.07380849
0.53005517 0.44996941 0.07885910
0.57253104 0.45929918 0.08390559
0.61375600 0.46931231 0.08891428
0.65360725 0.47994199 0.09385009
0.69196105 0.49111506 0.09867664
0.72869432 0.50275230 0.10335652
0.76368511 0.51476896 0.10785148
0.79681402 0.52707553 0.11212274
0.82796592 0.53957772 0.11613122
0.85703063 0.55217773 0.11983788
0.88390505 0.56477427 0.12320395
0.90849406 0.57726395 0.12619135
0.93071276 0.58954132 0.12876293
0.95048803 0.60149997 0.13088296
0.96776021 0.61303353 0.13251740
0.98248529 0.62403625 0.13363430
0.99463671 0.63440406 0.13420433
1.00000000 0.66205323 0.12952925
1.00000000 0.71129447 0.11731904
1.00000000 0.76156962 0.10272557
1.00000000 0.81126595 0.08644775
1.00000000 0.85877061 0.06918453
1.00000000 0.90247071 0.05163481
1.00000000 0.94075346 0.03449753
1.00000000 0.97200608 0.01847159
1.00000000 0.99461567 0.00425593
0.99450427 0.99745190 0.00000000
0.98473108 0.99180871 0.00000000
0.97324049 0.98408210 0.00000000
0.96011400 0.97436577 0.00000000
0.94543296 0.96275336 0.00000000
0.92927873 0.94933850 0.00000000
0.55627859 0.46643683 0.08372039
0.59899807 0.47568929 0.08873109
0.64029968 0.48558563 0.09367021
0.68005544 0.49605516 0.09850145
0.71813750 0.50702119 0.10318739
0.75441945 0.51840150 0.10768984
0.78877753 0.53010887 0.11197001
0.82109177 0.54205167 0.11598887
0.85124731 0.55413425 0.11970731
0.87913632 0.56625795 0.12308659
0.90465891 0.57832146 0.12608857
0.92772543 0.59022176 0.12867612
0.94825751 0.60185492 0.13081338
0.96619081 0.61311662 0.13246626
0.98147607 0.62390339 0.13360272
0.99408168 0.63411337 0.13419336
1.00000000 0.66028225 0.12992395
1.00000000 0.70945472 0.11781475
1.00000000 0.75972044 0.10329657
1.00000000 0.80946660 0.08706834
1.00000000 0.85708046 0.06982899
1.00000000 0.90094912 0.05227743
1.00000000 0.93945974 0.03511258
1.00000000 0.97099960 0.01903338
1.00000000 0.99395573 0.00473874
0.99483001 0.99761856 0.00000000
0.98512155 0.99205381 0.00000000
0.97369272 0.98440218 0.00000000
0.96062493 0.97475743 0.00000000
0.94599962 0.96321309 0.00000000
0.92989820 0.94986284 0.00000000
0.91240203 0.93480039 0.00000000
0.89359248 0.91811931 0.00000000
0.62688917 0.49128145 0.09349020
0.66805065 0.50104529 0.09832606
0.70748580 0.51133782 0.10301801
0.74506354 0.52207923 0.10752790
0.78065562 0.53318471 0.11181695
0.81413740 0.54456508 0.11584610
0.84538943 0.55612725 0.11957629
0.87429893 0.56777477 0.12296873
0.90076137 0.57940882 0.12598525
0.92468208 0.59092861 0.12858869
0.94597811 0.60223252 0.13074313
0.96457970 0.61321837 0.13241440
0.98043281 0.62378532 0.13357042
0.99350053 0.63383323 0.13418163
1.00000000 0.65851498 0.13031445
1.00000000 0.70761645 0.11830720
1.00000000 0.75787055 0.10386526
1.00000000 0.80766439 0.08768756
1.00000000 0.85538524 0.07047302
1.00000000 0.89942026 0.05292057
1.00000000 0.93815660 0.03572911
1.00000000 0.96998143 0.01959758
1.00000000 0.99328196 0.00522491
0.99515331 0.99778223 0.00000000
0.98550969 0.99229604 0.00000000
0.97414273 0.98471957 0.00000000
0.96113378 0.97514647 0.00000000
0.94656438 0.96367037 0.00000000
0.93051577 0.95038491 0.00000000
0.91306949 0.93538374 0.00000000
0.89430684 0.91876060 0.00000000
0.87430924 0.90060908 0.00000000
0.85315818 0.88102281 0.00000000
0.69673890 0.51570219 0.10284839
0.73561704 0.52580220 0.10736565
0.77244794 0.53630316 0.11166352
0.80710250 0.54711837 0.11570293
0.83945650 0.55815703 0.11944480
0.86939234 0.56932521 0.12285036
0.89680094 0.58052629 0.12588137
0.92158246 0.59166205 0.12850064
0.94364917 0.60263294 0.13067223
0.96292651 0.61333930 0.13236186
0.97935504 0.62368202 0.13353737
0.99289298 0.63356382 0.13416912
1.00000000 0.65675145 0.13070071
1.00000000 0.70577973 0.11879636
1.00000000 0.75602001 0.10443161
1.00000000 0.80585939 0.08830538
1.00000000 0.85368508 0.07111660
1.00000000 0.89788425 0.05356419
1.00000000 0.93684411 0.03634707
1.00000000 0.96895182 0.02016417
1.00000000 0.99259448 0.00571440
0.99547416 0.99794298 0.00000000
0.98589551 0.99253553 0.00000000
0.97459048 0.98503429 0.00000000
0.96164054 0.97553295 0.00000000
0.94712704 0.96412516 0.00000000
0.93113142 0.95090461 0.00000000
0.91373509 0.93596494 0.00000000
0.89501947 0.91939980 0.00000000
0.87506586 0.90130281 0.00000000
0.85395581 0.88176769 0.00000000
0.83177054 0.86088800 0.00000000
0.80859160 0.83875751 0.00000000
0.76415431 0.53946435 0.11150975
0.79998672 0.54971147 0.11555935
0.83344817 0.56022364 0.11931286
0.86441636 0.57090932 0.12273147
0.89277720 0.58167422 0.12577693
0.91842628 0.59242225 0.12841201
0.94127059 0.60305643 0.13060068
0.96123075 0.61347926 0.13230860
0.97824240 0.62359399 0.13350359
0.99225843 0.63330531 0.13415582
1.00000000 0.65499175 0.13108268
1.00000000 0.70394468 0.11928218
1.00000000 0.75416893 0.10499556
1.00000000 0.80405164 0.08892176
1.00000000 0.85197997 0.07175969
1.00000000 0.89634115 0.05420827
1.00000000 0.93552232 0.03696643
1.00000000 0.96791071 0.02073310
1.00000000 0.99189341 0.00620718
0.99579257 0.99810082 0.00000000
0.98627895 0.99277210 0.00000000
0.97503603 0.98534626 0.00000000
0.96214515 0.97591686 0.00000000
0.94768775 0.96457756 0.00000000
0.93174523 0.95142204 0.00000000
0.91439897 0.93654394 0.00000000
0.89573044 0.92003691 0.00000000
0.87582093 0.90199465 0.00000000
0.85475194 0.88251078 0.00000000
0.83260483 0.86167890 0.00000000
0.80946106 0.83959275 0.00000000
0.78540188 0.81634593 0.00000000
