gm4lowpitchfixed.cube
# VEGAS Pro LUT
TITLE "gm4lowpitch"
LUT_3D_SIZE 5
0.00000000 0.00000000 0.00000000
0.23567498 0.00396944 0.00105498
0.43422419 0.03430943 0.00933919
0.60617959 0.11704408 0.03138287
0.76204598 0.25915012 0.06691767
0.05605312 0.22158831 0.00881638
0.33122945 0.24988934 0.03030317
0.59420788 0.33577585 0.06545662
0.81947571 0.46645468 0.10486719
0.96842426 0.59929037 0.13147952
0.41878620 0.41630349 0.06400227
0.73915654 0.49853086 0.10352541
0.95266998 0.60116744 0.13095190
1.00000000 0.86045557 0.06853969
0.95960093 0.97397161 0.00000000
0.93383235 0.60446739 0.13038211
1.00000000 0.84683603 0.07368564
0.96364629 0.97705299 0.00000000
0.81206179 0.84208900 0.00000000
0.60132247 0.63218164 0.00000000
0.96755517 0.97996807 0.00000000
0.81894177 0.84867573 0.00000000
0.60964030 0.64067584 0.00000000
0.38132840 0.40391919 0.00000000
0.17568387 0.18635629 0.00000000
0.00039718 0.00023924 0.24499430
0.23360570 0.01080629 0.21788128
0.43791160 0.05870461 0.18415152
0.62401140 0.16477415 0.15767495
0.79267049 0.32513186 0.14394745
0.09679084 0.22610453 0.18532766
0.38962179 0.27582526 0.15842718
0.66235459 0.38204840 0.14424643
0.87900209 0.51993275 0.13930920
0.99886012 0.63800216 0.13441989
0.52492839 0.44259453 0.14455864
0.82745779 0.53780061 0.13942842
0.99550658 0.63521266 0.13470376
1.00000000 0.97433841 0.01715353
0.91014397 0.93282199 0.00000000
0.99055600 0.63305056 0.13497718
1.00000000 0.96618253 0.02166904
0.91548145 0.93748665 0.00000000
0.73642701 0.76829308 0.00000000
0.51410824 0.54243827 0.00000000
0.92070401 0.94200969 0.00000000
0.74403602 0.77581513 0.00000000
0.52257049 0.55119526 0.00000000
0.29798505 0.31610075 0.00000000
0.11195747 0.11848221 0.00000000
0.00296499 0.00174410 0.47261161
0.23866156 0.02314951 0.40351757
0.45414796 0.09182774 0.32061103
0.65541065 0.22073691 0.24429056
0.83215129 0.39416200 0.18568525
0.15216210 0.23815119 0.32364330
0.46121436 0.31031543 0.24682350
0.73652446 0.43321502 0.18747750
0.93372715 0.57064986 0.14858639
1.00000000 0.78317595 0.09586838
0.63445085 0.47551998 0.18929785
0.90571171 0.57751912 0.14966202
1.00000000 0.76845461 0.10057746
0.98325521 0.99087036 0.00000000
0.84856212 0.87672174 0.00000000
1.00000000 0.75366402 0.10514895
0.98638314 0.99283618 0.00000000
0.85496885 0.88271308 0.00000000
0.65450299 0.68626040 0.00000000
0.42666334 0.45142865 0.00000000
0.86128211 0.88858765 0.00000000
0.66261822 0.69446135 0.00000000
0.43504715 0.46019197 0.00000000
0.22024675 0.23373011 0.00000000
0.05989471 0.06302638 0.00000000
0.01032797 0.00600810 0.67344493
0.25393060 0.04253203 0.55258578
0.48420745 0.13401912 0.41697919
0.69891387 0.28350592 0.29300046
0.87671775 0.46313065 0.19754022
0.22251862 0.25864315 0.42189470
0.54363114 0.35251725 0.29713309
0.81199443 0.48673505 0.20041980
0.97831482 0.61508459 0.14197677
1.00000000 0.92168355 0.04328683
0.74168068 0.51310956 0.20335126
0.96754456 0.61469698 0.14334705
1.00000000 0.91010159 0.04837271
0.94251704 0.96037525 0.00000000
0.77716523 0.80832833 0.00000000
1.00000000 0.89802420 0.05350566
0.94707596 0.96408391 0.00000000
0.78441834 0.81539005 0.00000000
0.56859970 0.59864867 0.00000000
0.34129778 0.36181045 0.00000000
0.79159951 0.82235968 0.00000000
0.57699817 0.60727215 0.00000000
0.34938028 0.37032366 0.00000000
0.15042348 0.15946488 0.00000000
0.02180557 0.02264643 0.00000000
0.02544529 0.01472698 0.84020227
0.28180751 0.07014166 0.66164392
0.52815890 0.18497746 0.47337309
0.75185668 0.35096723 0.30744964
0.92191845 0.52844566 0.18691334
0.30701649 0.28785998 0.48007017
0.63328624 0.40089804 0.31286874
0.88333285 0.53957355 0.19032915
1.00000000 0.68801135 0.12337548
0.99846703 0.99935156 0.00000000
0.84020865 0.55288672 0.19383010
1.00000000 0.67356658 0.12688278
1.00000000 0.99853796 0.00122286
0.88821536 0.91327417 0.00000000
0.69826341 0.73029947 0.00000000
1.00000000 0.99358994 0.00500351
0.89398235 0.91846937 0.00000000
0.70613998 0.73817509 0.00000000
0.48102716 0.50811553 0.00000000
0.26032150 0.27624124 0.00000000
0.71396613 0.74598336 0.00000000
0.48948601 0.51690501 0.00000000
0.26787978 0.28424793 0.00000000
0.09082520 0.09596272 0.00000000
0.00000000 0.00000000 0.00000000
