gm4lowpitch.cube
#Created by: Our Conversion Website
#Tool Author: Viktor Fejes
#Website: https://google.com
TITLE "gm4lowpitch"
#LUT size
LUT_3D_SIZE 4
#data domain
DOMAIN_MIN 0.0 0.0 0.0
DOMAIN_MAX 1.0 1.0 1.0
#LUT data points
0.000000 0.101961 0.000000
0.298039 0.117647 0.007843
0.592157 0.227451 0.047059
0.843137 0.415686 0.105882
0.231373 0.329412 0.035294
0.654902 0.407843 0.090196
0.929412 0.545098 0.125490
1.000000 0.921569 0.023529
0.890196 0.662745 0.098039
1.000000 0.788235 0.090196
0.882353 0.937255 0.000000
0.619608 0.662745 0.000000
0.772549 0.843137 0.000000
0.654902 0.658824 0.003922
0.470588 0.419608 0.015686
0.301961 0.223529 0.027451
0.203922 0.290196 0.227451
0.423529 0.286275 0.172549
0.615686 0.341176 0.137255
0.764706 0.431373 0.121569
0.321569 0.333333 0.196078
0.760784 0.447059 0.164706
0.972549 0.717647 0.113725
0.988235 0.921569 0.031373
0.964706 0.701961 0.098039
0.976471 0.933333 0.023529
0.800000 0.858824 0.000000
0.498039 0.533333 0.000000
0.721569 0.796078 0.043137
0.576471 0.568627 0.039216
0.403922 0.345098 0.031373
0.247059 0.172549 0.027451
0.211765 0.286275 0.419608
0.450980 0.298039 0.290196
0.658824 0.372549 0.184314
0.796078 0.470588 0.125490
0.470588 0.372549 0.286275
0.854902 0.505882 0.192157
1.000000 0.894118 0.050980
0.941176 0.905882 0.023529
1.000000 0.725490 0.090196
0.933333 0.972549 0.000000
0.690196 0.741176 0.000000
0.388235 0.419608 0.000000
0.662745 0.713725 0.082353
0.505882 0.486275 0.058824
0.333333 0.262745 0.035294
0.207843 0.172549 0.015686
0.235294 0.286275 0.549020
0.494118 0.321569 0.349020
0.713725 0.403922 0.188235
0.811765 0.545098 0.105882
0.619608 0.415686 0.317647
0.937255 0.592157 0.180392
1.000000 0.929412 0.039216
0.866667 0.878431 0.007843
0.992157 0.831373 0.058824
0.862745 0.905882 0.000000
0.588235 0.615686 0.000000
0.298039 0.317647 0.000000
0.690196 0.725490 0.000000
0.380392 0.407843 0.000000
0.105882 0.113725 0.000000
0.000000 0.000000 0.000000
