gm4lowpitch.cube
#Created by: Our Conversion Website
#Tool Author: Viktor Fejes
#Website: https://google.com
TITLE "gm4lowpitch"
#LUT size
LUT_3D_SIZE 8
#data domain
DOMAIN_MIN 0.0 0.0 0.0
DOMAIN_MAX 1.0 1.0 1.0
#LUT data points
0.000000 0.101961 0.000000
0.125490 0.101961 0.000000
0.258824 0.109804 0.003922
0.380392 0.137255 0.015686
0.505882 0.184314 0.031373
0.627451 0.250980 0.050980
0.745098 0.337255 0.078431
0.843137 0.415686 0.105882
0.039216 0.164706 0.003922
0.188235 0.172549 0.011765
0.333333 0.192157 0.023529
0.474510 0.227451 0.039216
0.603922 0.282353 0.058824
0.721569 0.349020 0.078431
0.823529 0.443137 0.094118
0.898039 0.564706 0.094118
0.164706 0.290196 0.023529
0.337255 0.309804 0.039216
0.513725 0.349020 0.062745
0.674510 0.396078 0.090196
0.815686 0.454902 0.109804
0.909804 0.529412 0.125490
0.968627 0.678431 0.105882
0.996078 0.874510 0.043137
0.392157 0.400000 0.058824
0.580392 0.439216 0.078431
0.741176 0.505882 0.098039
0.866667 0.607843 0.098039
0.960784 0.682353 0.101961
0.996078 0.713725 0.105882
0.988235 0.843137 0.070588
0.960784 0.976471 0.003922
0.721569 0.498039 0.113725
0.866667 0.549020 0.125490
0.949020 0.670588 0.113725
0.988235 0.870588 0.050980
0.996078 0.933333 0.027451
0.956863 0.901961 0.027451
0.878431 0.882353 0.011765
0.784314 0.815686 0.000000
0.956863 0.694118 0.101961
1.000000 0.721569 0.105882
1.000000 0.847059 0.070588
0.960784 0.968627 0.003922
0.890196 0.941176 0.000000
0.788235 0.850980 0.000000
0.666667 0.717647 0.000000
0.533333 0.572549 0.000000
1.000000 0.964706 0.023529
0.988235 0.929412 0.027451
0.894118 0.894118 0.011765
0.776471 0.827451 0.000000
0.639216 0.701961 0.000000
0.498039 0.556863 0.000000
0.356863 0.407843 0.000000
0.223529 0.266667 0.000000
0.772549 0.843137 0.000000
0.737255 0.788235 0.000000
0.670588 0.686275 0.000000
0.607843 0.592157 0.007843
0.529412 0.498039 0.015686
0.450980 0.396078 0.019608
0.372549 0.301961 0.023529
0.301961 0.223529 0.027451
0.200000 0.278431 0.105882
0.298039 0.290196 0.090196
0.392157 0.290196 0.082353
0.470588 0.286275 0.082353
0.549020 0.305882 0.082353
0.619608 0.333333 0.086275
0.690196 0.368627 0.094118
0.745098 0.403922 0.105882
0.000000 0.105882 0.125490
0.149020 0.117647 0.121569
0.313725 0.152941 0.117647
0.474510 0.200000 0.117647
0.627451 0.274510 0.121569
0.764706 0.364706 0.125490
0.874510 0.490196 0.125490
0.960784 0.615686 0.109804
0.180392 0.274510 0.109804
0.356863 0.305882 0.109804
0.556863 0.352941 0.117647
0.713725 0.403922 0.129412
0.843137 0.470588 0.137255
0.941176 0.545098 0.141176
0.988235 0.756863 0.090196
1.000000 0.925490 0.027451
0.447059 0.411765 0.113725
0.631373 0.458824 0.117647
0.784314 0.541176 0.117647
0.905882 0.639216 0.105882
0.976471 0.694118 0.109804
1.000000 0.733333 0.105882
0.980392 0.921569 0.035294
0.945098 0.980392 0.000000
0.780392 0.517647 0.133333
0.905882 0.568627 0.137255
0.964706 0.756863 0.098039
1.000000 0.921569 0.031373
0.988235 0.925490 0.027451
0.933333 0.898039 0.023529
0.847059 0.866667 0.007843
0.741176 0.776471 0.000000
0.988235 0.705882 0.105882
1.000000 0.737255 0.101961
0.988235 0.909804 0.039216
0.941176 0.976471 0.000000
0.850980 0.905882 0.000000
0.745098 0.800000 0.000000
0.615686 0.658824 0.000000
0.486275 0.521569 0.000000
1.000000 0.956863 0.019608
0.960784 0.917647 0.015686
0.850980 0.874510 0.000000
0.729412 0.784314 0.000000
0.592157 0.650980 0.000000
0.443137 0.501961 0.000000
0.301961 0.352941 0.000000
0.172549 0.215686 0.000000
0.752941 0.823529 0.015686
0.705882 0.749020 0.015686
0.643137 0.650980 0.019608
0.576471 0.556863 0.023529
0.498039 0.458824 0.023529
0.419608 0.360784 0.027451
0.345098 0.270588 0.027451
0.278431 0.200000 0.031373
0.203922 0.290196 0.200000
0.298039 0.286275 0.180392
0.392157 0.286275 0.160784
0.478431 0.294118 0.145098
0.560784 0.313725 0.133333
0.635294 0.352941 0.121569
0.705882 0.384314 0.117647
0.756863 0.423529 0.121569
0.003922 0.109804 0.243137
0.172549 0.129412 0.223529
0.345098 0.164706 0.200000
0.509804 0.227451 0.184314
0.662745 0.305882 0.168627
0.800000 0.403922 0.156863
0.905882 0.545098 0.137255
0.992157 0.658824 0.117647
0.219608 0.286275 0.188235
0.423529 0.325490 0.168627
0.603922 0.372549 0.160784
0.764706 0.431373 0.160784
0.886275 0.505882 0.152941
0.960784 0.611765 0.137255
1.000000 0.835294 0.070588
1.000000 0.933333 0.031373
0.501961 0.427451 0.152941
0.682353 0.482353 0.145098
0.827451 0.584314 0.129412
0.937255 0.666667 0.105882
0.996078 0.709804 0.105882
0.996078 0.815686 0.078431
0.968627 0.960784 0.011765
0.909804 0.952941 0.000000
0.835294 0.537255 0.149020
0.937255 0.635294 0.133333
0.980392 0.843137 0.066667
1.000000 0.933333 0.027451
0.972549 0.913725 0.027451
0.905882 0.890196 0.015686
0.811765 0.843137 0.000000
0.698039 0.733333 0.000000
1.000000 0.717647 0.098039
1.000000 0.800000 0.078431
0.972549 0.952941 0.011765
0.909804 0.956863 0.000000
0.807843 0.866667 0.000000
0.690196 0.741176 0.000000
0.556863 0.600000 0.000000
0.435294 0.470588 0.000000
1.000000 0.937255 0.011765
0.925490 0.905882 0.003922
0.811765 0.850980 0.000000
0.682353 0.737255 0.000000
0.541176 0.600000 0.000000
0.392157 0.447059 0.000000
0.254902 0.298039 0.000000
0.137255 0.168627 0.000000
0.729412 0.803922 0.035294
0.678431 0.713725 0.035294
0.611765 0.611765 0.035294
0.533333 0.513725 0.031373
0.458824 0.415686 0.031373
0.392157 0.329412 0.031373
0.321569 0.243137 0.031373
0.254902 0.176471 0.031373
0.203922 0.290196 0.286275
0.301961 0.286275 0.254902
0.400000 0.286275 0.223529
0.490196 0.298039 0.196078
0.572549 0.325490 0.168627
0.654902 0.364706 0.149020
0.725490 0.400000 0.133333
0.772549 0.439216 0.125490
0.027451 0.117647 0.341176
0.203922 0.141176 0.305882
0.380392 0.188235 0.266667
0.545098 0.250980 0.235294
0.698039 0.337255 0.203922
0.831373 0.450980 0.176471
0.937255 0.588235 0.145098
1.000000 0.686275 0.121569
0.274510 0.298039 0.247059
0.470588 0.341176 0.219608
0.658824 0.392157 0.196078
0.807843 0.458824 0.176471
0.921569 0.533333 0.160784
0.972549 0.694118 0.121569
1.000000 0.901961 0.043137
1.000000 0.929412 0.031373
0.560784 0.443137 0.184314
0.733333 0.513725 0.160784
0.866667 0.619608 0.129412
0.960784 0.686275 0.105882
1.000000 0.717647 0.101961
0.988235 0.878431 0.054902
0.956863 0.984314 0.000000
0.878431 0.925490 0.000000
0.878431 0.560784 0.152941
0.952941 0.713725 0.113725
0.992157 0.898039 0.043137
0.996078 0.929412 0.027451
0.945098 0.894118 0.023529
0.874510 0.874510 0.007843
0.772549 0.807843 0.000000
0.650980 0.690196 0.000000
1.000000 0.721569 0.094118
1.000000 0.866667 0.054902
0.956863 0.980392 0.000000
0.878431 0.929412 0.000000
0.768627 0.827451 0.000000
0.647059 0.690196 0.000000
0.509804 0.549020 0.000000
0.388235 0.419608 0.000000
0.980392 0.917647 0.003922
0.882353 0.882353 0.000000
0.760784 0.803922 0.000000
0.631373 0.690196 0.000000
0.486275 0.545098 0.000000
0.341176 0.392157 0.000000
0.211765 0.250980 0.000000
0.098039 0.129412 0.000000
0.705882 0.776471 0.054902
0.647059 0.678431 0.050980
0.576471 0.576471 0.047059
0.505882 0.478431 0.039216
0.427451 0.376471 0.035294
0.352941 0.286275 0.035294
0.286275 0.211765 0.031373
0.239216 0.168627 0.027451
0.207843 0.286275 0.372549
0.309804 0.286275 0.325490
0.411765 0.290196 0.282353
0.501961 0.305882 0.235294
0.592157 0.341176 0.196078
0.674510 0.376471 0.164706
0.741176 0.415686 0.141176
0.788235 0.462745 0.125490
0.054902 0.125490 0.435294
0.239216 0.156863 0.376471
0.423529 0.211765 0.321569
0.584314 0.282353 0.274510
0.741176 0.372549 0.227451
0.862745 0.505882 0.184314
0.968627 0.631373 0.145098
1.000000 0.709804 0.121569
0.321569 0.313725 0.298039
0.525490 0.360784 0.250980
0.705882 0.411765 0.215686
0.850980 0.486275 0.184314
0.949020 0.568627 0.160784
0.988235 0.796078 0.094118
1.000000 0.929412 0.035294
0.988235 0.921569 0.031373
0.635294 0.470588 0.200000
0.780392 0.556863 0.164706
0.905882 0.650980 0.117647
0.984314 0.698039 0.109804
1.000000 0.768627 0.090196
0.976471 0.933333 0.023529
0.929412 0.972549 0.000000
0.843137 0.894118 0.000000
0.913725 0.580392 0.156863
0.968627 0.792157 0.094118
1.000000 0.933333 0.027451
0.980392 0.917647 0.023529
0.917647 0.894118 0.019608
0.827451 0.850980 0.003922
0.717647 0.756863 0.000000
0.607843 0.643137 0.000000
1.000000 0.752941 0.086275
0.984314 0.917647 0.023529
0.933333 0.972549 0.000000
0.839216 0.894118 0.000000
0.725490 0.776471 0.000000
0.596078 0.639216 0.000000
0.462745 0.498039 0.000000
0.333333 0.360784 0.000000
0.952941 0.913725 0.000000
0.839216 0.862745 0.000000
0.709804 0.760784 0.000000
0.568627 0.627451 0.000000
0.423529 0.474510 0.000000
0.294118 0.341176 0.000000
0.164706 0.203922 0.000000
0.062745 0.086275 0.000000
0.678431 0.741176 0.074510
0.619608 0.643137 0.066667
0.549020 0.541176 0.054902
0.474510 0.443137 0.047059
0.400000 0.345098 0.039216
0.329412 0.258824 0.035294
0.266667 0.188235 0.031373
0.215686 0.168627 0.019608
0.215686 0.286275 0.439216
0.317647 0.286275 0.380392
0.419608 0.294118 0.325490
0.517647 0.317647 0.266667
0.611765 0.356863 0.215686
0.690196 0.388235 0.176471
0.756863 0.431373 0.141176
0.800000 0.478431 0.121569
0.090196 0.137255 0.509804
0.278431 0.176471 0.431373
0.466667 0.239216 0.356863
0.627451 0.313725 0.301961
0.784314 0.427451 0.239216
0.898039 0.556863 0.184314
0.992157 0.666667 0.141176
1.000000 0.729412 0.117647
0.380392 0.329412 0.333333
0.584314 0.376471 0.274510
0.752941 0.439216 0.231373
0.886275 0.513725 0.188235
0.960784 0.650980 0.149020
1.000000 0.862745 0.070588
1.000000 0.929412 0.035294
0.968627 0.905882 0.031373
0.686275 0.494118 0.211765
0.823529 0.592157 0.160784
0.949020 0.678431 0.113725
1.000000 0.713725 0.098039
0.996078 0.831373 0.066667
0.964706 0.972549 0.000000
0.901961 0.945098 0.000000
0.803922 0.858824 0.000000
0.937255 0.650980 0.141176
0.980392 0.858824 0.066667
1.000000 0.933333 0.027451
0.960784 0.905882 0.023529
0.890196 0.882353 0.011765
0.792157 0.823529 0.000000
0.674510 0.713725 0.000000
0.560784 0.592157 0.000000
1.000000 0.831373 0.054902
0.972549 0.960784 0.000000
0.898039 0.945098 0.000000
0.800000 0.858824 0.000000
0.682353 0.725490 0.000000
0.545098 0.584314 0.000000
0.411765 0.450980 0.000000
0.286275 0.313725 0.000000
0.913725 0.901961 0.000000
0.796078 0.835294 0.000000
0.658824 0.713725 0.000000
0.517647 0.568627 0.000000
0.372549 0.419608 0.000000
0.243137 0.286275 0.000000
0.113725 0.152941 0.000000
0.031373 0.050980 0.000000
0.650980 0.705882 0.090196
0.588235 0.603922 0.078431
0.517647 0.505882 0.062745
0.443137 0.407843 0.050980
0.372549 0.313725 0.043137
0.305882 0.227451 0.035294
0.250980 0.172549 0.027451
0.203922 0.172549 0.011765
0.223529 0.286275 0.498039
0.333333 0.290196 0.427451
0.443137 0.301961 0.352941
0.533333 0.329412 0.290196
0.631373 0.364706 0.227451
0.713725 0.403922 0.180392
0.772549 0.447059 0.141176
0.807843 0.490196 0.113725
0.125490 0.149020 0.572549
0.325490 0.196078 0.482353
0.509804 0.266667 0.388235
0.682353 0.356863 0.309804
0.823529 0.478431 0.239216
0.929412 0.603922 0.176471
1.000000 0.698039 0.133333
1.000000 0.752941 0.113725
0.450980 0.349020 0.356863
0.635294 0.392157 0.290196
0.800000 0.462745 0.231373
0.913725 0.537255 0.188235
0.972549 0.737255 0.125490
1.000000 0.913725 0.047059
1.000000 0.929412 0.035294
0.949020 0.905882 0.027451
0.737255 0.537255 0.207843
0.878431 0.635294 0.145098
0.972549 0.694118 0.109804
1.000000 0.733333 0.090196
0.984314 0.909804 0.035294
0.949020 0.984314 0.000000
0.866667 0.913725 0.000000
0.760784 0.807843 0.000000
0.952941 0.733333 0.121569
0.996078 0.913725 0.043137
0.988235 0.925490 0.027451
0.941176 0.898039 0.019608
0.854902 0.866667 0.003922
0.752941 0.788235 0.000000
0.631373 0.666667 0.000000
0.498039 0.529412 0.000000
0.996078 0.894118 0.031373
0.952941 0.980392 0.000000
0.862745 0.913725 0.000000
0.756863 0.811765 0.000000
0.631373 0.674510 0.000000
0.498039 0.533333 0.000000
0.364706 0.400000 0.000000
0.243137 0.262745 0.000000
0.874510 0.882353 0.000000
0.749020 0.792157 0.000000
0.607843 0.662745 0.000000
0.462745 0.513725 0.000000
0.317647 0.364706 0.000000
0.188235 0.227451 0.000000
0.078431 0.109804 0.000000
0.003922 0.011765 0.000000
0.619608 0.658824 0.098039
0.556863 0.568627 0.082353
0.490196 0.470588 0.066667
0.415686 0.368627 0.050980
0.349020 0.278431 0.043137
0.282353 0.203922 0.031373
0.231373 0.168627 0.023529
0.192157 0.180392 0.007843
0.235294 0.286275 0.549020
0.349020 0.290196 0.462745
0.458824 0.309804 0.376471
0.560784 0.345098 0.298039
0.654902 0.380392 0.227451
0.733333 0.419608 0.172549
0.784314 0.462745 0.137255
0.811765 0.545098 0.105882
0.168627 0.164706 0.623529
0.368627 0.219608 0.509804
0.560784 0.298039 0.407843
0.725490 0.392157 0.317647
0.862745 0.533333 0.231373
0.972549 0.650980 0.160784
1.000000 0.721569 0.125490
1.000000 0.819608 0.094118
0.513725 0.364706 0.368627
0.690196 0.415686 0.294118
0.847059 0.494118 0.227451
0.945098 0.588235 0.180392
0.984314 0.811765 0.098039
1.000000 0.929412 0.039216
0.984314 0.917647 0.031373
0.921569 0.898039 0.019608
0.788235 0.572549 0.196078
0.917647 0.662745 0.133333
0.992157 0.709804 0.101961
1.000000 0.800000 0.074510
0.972549 0.952941 0.011765
0.921569 0.960784 0.000000
0.823529 0.874510 0.000000
0.721569 0.760784 0.000000
0.968627 0.823529 0.086275
1.000000 0.933333 0.031373
0.976471 0.917647 0.023529
0.913725 0.890196 0.015686
0.819608 0.850980 0.000000
0.709804 0.745098 0.000000
0.584314 0.619608 0.000000
0.447059 0.478431 0.000000
0.968627 0.933333 0.019608
0.917647 0.952941 0.000000
0.823529 0.874510 0.000000
0.721569 0.764706 0.000000
0.588235 0.619608 0.000000
0.466667 0.494118 0.000000
0.341176 0.360784 0.000000
0.227451 0.243137 0.000000
0.800000 0.819608 0.000000
0.690196 0.725490 0.000000
0.564706 0.603922 0.000000
0.439216 0.466667 0.000000
0.313725 0.333333 0.000000
0.203922 0.215686 0.000000
0.109804 0.121569 0.000000
0.054902 0.058824 0.000000
0.690196 0.725490 0.000000
0.564706 0.600000 0.000000
0.419608 0.443137 0.000000
0.301961 0.321569 0.000000
0.180392 0.192157 0.000000
0.082353 0.086275 0.000000
0.015686 0.011765 0.000000
0.000000 0.000000 0.000000
