gm4lowpitchfixed.cube
# VEGAS Pro LUT
TITLE "gm4lowpitch"
LUT_3D_SIZE 9
0.00000000 0.00000000 0.00000000
0.12213288 0.00050894 0.00012818
0.23567498 0.00396944 0.00105498
0.33931428 0.01398273 0.00378940
0.43422419 0.03430943 0.00933919
0.52253377 0.06805559 0.01844422
0.60617959 0.11704408 0.03138287
0.68613905 0.18137142 0.04785161
0.76204598 0.25915012 0.06691767
0.00642155 0.11848687 0.00099540
0.12867315 0.11889037 0.00364457
0.24601348 0.12749648 0.00907537
0.35941583 0.14802994 0.01804139
0.46969652 0.18295214 0.03084058
0.57673419 0.23301114 0.04719212
0.67907131 0.29697719 0.06618635
0.77389657 0.37156343 0.08630788
0.85740942 0.45153251 0.10553173
0.05605312 0.22158831 0.00881638
0.19438967 0.22899385 0.01764381
0.33122945 0.24988934 0.03030317
0.46535188 0.28567404 0.04653627
0.59420788 0.33577585 0.06545662
0.71388853 0.39756519 0.08556986
0.81947571 0.46645468 0.10486719
0.90577394 0.53618407 0.12099200
0.96842426 0.59929037 0.13147952
0.19078040 0.31785467 0.02977068
0.35198945 0.33936161 0.04588413
0.50744843 0.37555000 0.06472857
0.65215141 0.42444772 0.08483076
0.78006339 0.48211792 0.10419837
0.88483864 0.54293686 0.12048376
0.96091986 0.60005778 0.13122104
1.00000000 0.67096007 0.12749386
1.00000000 0.86714238 0.06595712
0.41878620 0.41630349 0.06400227
0.58867365 0.45221743 0.08409072
0.73915654 0.49853086 0.10352541
0.86273968 0.55025750 0.11996798
0.95266998 0.60116744 0.13095190
1.00000000 0.66382778 0.12913038
1.00000000 0.86045557 0.06853969
1.00000000 0.99526179 0.00377652
0.95960093 0.97397161 0.00000000
0.69673890 0.51570219 0.10284839
0.83945650 0.55815703 0.11944480
0.94364917 0.60263294 0.13067223
1.00000000 0.65675145 0.13070071
1.00000000 0.85368508 0.07111660
1.00000000 0.99259448 0.00571440
0.96164054 0.97553295 0.00000000
0.89501947 0.91939980 0.00000000
0.80859160 0.83875751 0.00000000
0.93383235 0.60446739 0.13038211
1.00000000 0.64973629 0.13220263
1.00000000 0.84683603 0.07368564
1.00000000 0.98970902 0.00770494
0.96364629 0.97705299 0.00000000
0.89785326 0.92193586 0.00000000
0.81206179 0.84208900 0.00000000
0.71148163 0.74350637 0.00000000
0.60132247 0.63218164 0.00000000
1.00000000 0.83991361 0.07624458
1.00000000 0.98661041 0.00974593
0.96561790 0.97853148 0.00000000
0.90065998 0.92443842 0.00000000
0.81551194 0.84539521 0.00000000
0.71538353 0.74739558 0.00000000
0.60548449 0.63643348 0.00000000
0.49102446 0.51850265 0.00000000
0.37721327 0.39959696 0.00000000
0.96755517 0.97996807 0.00000000
0.90343934 0.92690724 0.00000000
0.81894177 0.84867573 0.00000000
0.71927220 0.75126731 0.00000000
0.60964030 0.64067584 0.00000000
0.49525577 0.52289522 0.00000000
0.38132840 0.40391919 0.00000000
0.27306786 0.28974161 0.00000000
0.17568387 0.18635629 0.00000000
0.00006431 0.00003960 0.12399624
0.12120849 0.00129878 0.11934365
0.23396124 0.00680421 0.11295368
0.33794087 0.02032573 0.10645328
0.43462285 0.04546033 0.10135789
0.52595544 0.08488890 0.09883261
0.61335719 0.13981830 0.09952653
0.69709611 0.20960890 0.10348018
0.77604973 0.29158759 0.11010597
0.01115078 0.11794503 0.11320069
0.13530901 0.12098054 0.10667600
0.25555012 0.13375144 0.10150555
0.37268186 0.15956569 0.09887069
0.48701245 0.20027441 0.09944159
0.59771526 0.25589272 0.10328194
0.70257586 0.32440588 0.10982680
0.79812014 0.40176067 0.11793347
0.88012421 0.48204267 0.12600565
0.07465811 0.22298497 0.10165671
0.21746179 0.23525247 0.09891317
0.35867640 0.26176280 0.09936114
0.49638078 0.30318546 0.10308744
0.62726820 0.35816401 0.10954978
0.74676108 0.42330056 0.11762501
0.84950626 0.49332631 0.12573043
0.93025327 0.56145680 0.13201827
0.98511291 0.61993325 0.13464329
0.22834943 0.32428336 0.09928521
0.39308828 0.35148948 0.10289671
0.55011785 0.39286691 0.10927501
0.69375753 0.44567332 0.11731663
0.81752652 0.50528586 0.12545276
0.91500705 0.56554985 0.13184112
0.98109007 0.61931288 0.13463075
1.00000000 0.74692923 0.10717659
1.00000000 0.93026793 0.03940035
0.47111619 0.42851931 0.10900255
0.63909650 0.46888611 0.11700840
0.78416705 0.51793110 0.12517273
0.89874488 0.57012987 0.13165906
0.97650290 0.61893755 0.13461120
1.00000000 0.73951882 0.10936791
1.00000000 0.92475092 0.04191028
0.98922914 0.99454308 0.00000000
0.93653244 0.95543176 0.00000000
0.74941003 0.53127146 0.12489044
0.88144404 0.57520884 0.13147217
0.97132415 0.61882162 0.13458470
1.00000000 0.73211122 0.11151613
1.00000000 0.91909695 0.04443765
0.99066478 0.99537039 0.00000000
0.93890768 0.95740336 0.00000000
0.86412036 0.89121860 0.00000000
0.77151263 0.80280995 0.00000000
0.96552676 0.61897922 0.13455135
1.00000000 0.72471148 0.11361901
1.00000000 0.91331118 0.04698024
0.99206221 0.99615145 0.00000000
0.94125170 0.95933682 0.00000000
0.86721939 0.89408398 0.00000000
0.77517492 0.80638671 0.00000000
0.67032808 0.70223892 0.00000000
0.55788857 0.58763433 0.00000000
1.00000000 0.90739876 0.04953580
0.99342120 0.99688584 0.00000000
0.94356436 0.96123177 0.00000000
0.87029403 0.89691895 0.00000000
0.77881992 0.80994123 0.00000000
0.67435175 0.70629239 0.00000000
0.56209922 0.59196633 0.00000000
0.44727212 0.47295684 0.00000000
0.33508009 0.35525775 0.00000000
0.94584531 0.96308792 0.00000000
0.87334400 0.89972323 0.00000000
0.78244728 0.81347317 0.00000000
0.67836487 0.71033144 0.00000000
0.56630647 0.59629202 0.00000000
0.45148173 0.47734860 0.00000000
0.33910045 0.35949510 0.00000000
0.23437233 0.24872531 0.00000000
0.14250708 0.15103307 0.00000000
0.00039718 0.00023924 0.24499430
0.12092077 0.00269830 0.23333827
0.23360570 0.01080629 0.21788128
0.33874387 0.02836663 0.20082290
0.43791160 0.05870461 0.18415152
0.53273070 0.10399488 0.16943343
0.62401140 0.16477415 0.15767495
0.71127725 0.23963945 0.14925781
0.79267049 0.32513186 0.14394745
0.01787632 0.11820956 0.21849144
0.14459357 0.12449539 0.20145471
0.26828974 0.14191781 0.18473826
0.38945934 0.17328587 0.16992678
0.50781000 0.21978532 0.15804878
0.62177306 0.28067017 0.14950925
0.72839606 0.35313934 0.14409532
0.82361591 0.43239912 0.14105511
0.90291506 0.51191080 0.13924956
0.09679084 0.22610453 0.18532766
0.24421492 0.24360070 0.17042416
0.38962179 0.27582526 0.15842718
0.53035080 0.32268882 0.14976496
0.66235459 0.38204840 0.14424643
0.78045845 0.44976261 0.14113730
0.87900209 0.51993275 0.13930920
0.95286286 0.58532894 0.13746215
0.99886012 0.63800216 0.13441989
0.26944545 0.33289480 0.15881017
0.43700445 0.36569881 0.15002500
0.59453547 0.41186491 0.14440086
0.73575318 0.46790442 0.14122124
0.85385621 0.52855915 0.13936880
0.94253618 0.58722097 0.13754506
0.99736851 0.63653660 0.13456313
1.00000000 0.82264340 0.08246876
1.00000000 0.97813362 0.01495544
0.52492839 0.44259453 0.14455864
0.68948531 0.48683259 0.14130700
0.82745779 0.53780061 0.13942842
0.93135363 0.58951283 0.13762635
0.99550658 0.63521266 0.13470376
1.00000000 0.81550699 0.08497567
1.00000000 0.97433841 0.01715353
0.97216284 0.98331487 0.00000000
0.91014397 0.93282199 0.00000000
0.79978722 0.54766762 0.13948813
0.91929084 0.59221721 0.13770607
0.99324542 0.63404566 0.13484177
1.00000000 0.80832011 0.08746255
1.00000000 0.97035301 0.01939214
0.97397935 0.98460448 0.00000000
0.91282696 0.93517190 0.00000000
0.83063072 0.85980684 0.00000000
0.73260039 0.76450312 0.00000000
0.99055600 0.63305056 0.13497718
1.00000000 0.80108780 0.08992718
1.00000000 0.96618253 0.02166904
0.97576028 0.98585093 0.00000000
0.91548145 0.93748665 0.00000000
0.83396715 0.86296940 0.00000000
0.73642701 0.76829308 0.00000000
0.62807077 0.65945143 0.00000000
0.51410824 0.54243827 0.00000000
1.00000000 0.96183217 0.02398201
0.97750545 0.98705381 0.00000000
0.91810721 0.93976599 0.00000000
0.83728182 0.86610472 0.00000000
0.74023896 0.77206379 0.00000000
0.63218838 0.66363710 0.00000000
0.51833975 0.54681838 0.00000000
0.40390283 0.42760152 0.00000000
0.29408729 0.31198034 0.00000000
0.92070401 0.94200969 0.00000000
0.84057456 0.86921245 0.00000000
0.74403602 0.77581513 0.00000000
0.63629812 0.66781145 0.00000000
0.52257049 0.55119526 0.00000000
0.40806288 0.43196043 0.00000000
0.29798505 0.31610075 0.00000000
0.19754666 0.20961007 0.00000000
0.11195747 0.11848221 0.00000000
0.00125939 0.00074790 0.36161363
0.12166676 0.00491531 0.34100229
0.23503724 0.01618763 0.31498027
0.34210080 0.03827713 0.28627852
0.44435447 0.07413968 0.25732768
0.54296899 0.12537280 0.23007521
0.63807738 0.19179915 0.20587531
0.72844470 0.27123562 0.18545203
0.81152022 0.35944751 0.16893575
0.02696414 0.11952540 0.31600118
0.15684409 0.12964109 0.28735244
0.28443804 0.15212847 0.25837290
0.40980050 0.18922590 0.23103014
0.53196752 0.24140891 0.20670125
0.64861274 0.30715245 0.18613333
0.75608516 0.38287827 0.16947705
0.84982848 0.46308804 0.15639341
0.92518193 0.54068166 0.14623335
0.12259857 0.23111533 0.25942042
0.27464411 0.25411013 0.23198920
0.42388713 0.29203725 0.20753235
0.56690991 0.34402966 0.18681997
0.69896185 0.40716574 0.17002326
0.81436479 0.47659570 0.15681845
0.90729994 0.54585290 0.14656389
0.97297651 0.60735101 0.13855025
1.00000000 0.70661443 0.11857443
0.31383312 0.34368598 0.20836858
0.48332855 0.38187155 0.18751198
0.64013791 0.43231678 0.17057437
0.77746224 0.49082062 0.15724748
0.88832629 0.55155069 0.14689744
0.96673334 0.60753322 0.13881207
1.00000000 0.69928157 0.12050356
1.00000000 0.89238179 0.05584956
0.99659204 0.99848908 0.00000000
0.57960117 0.45833790 0.17113039
0.73910403 0.50577188 0.15768057
0.86823964 0.55778658 0.14723401
0.95980698 0.60802186 0.13907623
1.00000000 0.69197947 0.12237745
1.00000000 0.88607138 0.05843282
0.99781609 0.99906021 0.00000000
0.95130795 0.96747762 0.00000000
0.88072425 0.90647459 0.00000000
0.84701860 0.56457186 0.14757363
0.95217144 0.60883045 0.13934276
1.00000000 0.68471336 0.12419385
1.00000000 0.87965721 0.06101915
0.99900043 0.99958342 0.00000000
0.95347744 0.96919751 0.00000000
0.88368714 0.90917063 0.00000000
0.79483938 0.82549655 0.00000000
0.69214374 0.72416919 0.00000000
1.00000000 0.67748833 0.12595055
1.00000000 0.87314439 0.06360631
1.00000000 0.99972922 0.00023125
0.95561403 0.97087729 0.00000000
0.88662428 0.91183466 0.00000000
0.79838526 0.82892436 0.00000000
0.69610679 0.72814023 0.00000000
0.58499855 0.61547601 0.00000000
0.47027025 0.49692565 0.00000000
1.00000000 0.99749285 0.00206239
0.95771760 0.97251660 0.00000000
0.88953531 0.91446638 0.00000000
0.80191219 0.83232796 0.00000000
0.70005786 0.73209518 0.00000000
0.58918214 0.61976188 0.00000000
0.47449473 0.50132185 0.00000000
0.36120531 0.38276890 0.00000000
0.25452363 0.27009693 0.00000000
0.89242005 0.91706550 0.00000000
0.80541980 0.83570707 0.00000000
0.70399678 0.73603380 0.00000000
0.59336066 0.62403941 0.00000000
0.47872114 0.50571787 0.00000000
0.36528799 0.38706288 0.00000000
0.25827089 0.27406836 0.00000000
0.16287959 0.17272809 0.00000000
0.08432376 0.08903591 0.00000000
0.00296499 0.00174410 0.47261161
0.12385451 0.00816507 0.44135633
0.23866156 0.02314951 0.40351757
0.34833977 0.05020411 0.36232036
0.45414796 0.09182774 0.32061103
0.55670238 0.14898032 0.28070223
0.65541065 0.22073691 0.24429056
0.74828744 0.30412751 0.21244788
0.83215129 0.39416200 0.18568525
0.03875812 0.12212738 0.40498796
0.17232925 0.13659935 0.36386102
0.30413365 0.16448146 0.32212600
0.43368036 0.20737986 0.28211698
0.55928373 0.26502529 0.24555394
0.67786533 0.33510593 0.21353099
0.78513670 0.41328582 0.18657786
0.87616438 0.49340826 0.16479449
0.94631654 0.56788516 0.14805859
0.15216210 0.23815119 0.32364330
0.30866730 0.26681113 0.28353643
0.46121436 0.31031543 0.24682350
0.60563165 0.36701059 0.21462101
0.73652446 0.43321502 0.18747750
0.84782541 0.50341552 0.16550550
0.93372715 0.57064986 0.14858639
0.98999637 0.62707466 0.13664857
1.00000000 0.78317595 0.09586838
0.36119741 0.35661006 0.24809924
0.53157669 0.39984673 0.21571794
0.68630052 0.45395720 0.18838416
0.81816864 0.51407248 0.16622333
0.92019999 0.57385707 0.14912085
0.98693246 0.62607002 0.13699763
1.00000000 0.77582651 0.09823900
1.00000000 0.95042342 0.02979816
0.98163569 0.98982006 0.00000000
0.63445085 0.47551998 0.18929785
0.78717542 0.52538919 0.16694801
0.90571171 0.57751912 0.14966202
0.98337120 0.62527227 0.13735373
1.00000000 0.76845461 0.10057746
1.00000000 0.94549102 0.03221857
0.98325521 0.99087036 0.00000000
0.92695326 0.94736367 0.00000000
0.84856212 0.87672174 0.00000000
0.89023924 0.58164823 0.15020986
0.97928447 0.62469590 0.13771689
1.00000000 0.76106536 0.10288152
1.00000000 0.94040155 0.03466512
0.98483777 0.99187583 0.00000000
0.92944789 0.94948173 0.00000000
0.85177702 0.87973189 0.00000000
0.75703496 0.78862011 0.00000000
0.65043139 0.68214029 0.00000000
1.00000000 0.75366402 0.10514895
1.00000000 0.93516028 0.03713559
0.98638314 0.99283618 0.00000000
0.93191230 0.95156276 0.00000000
0.85496885 0.88271308 0.00000000
0.76076251 0.79228103 0.00000000
0.65450299 0.68626040 0.00000000
0.54140002 0.57064497 0.00000000
0.42666334 0.45142865 0.00000000
0.98789108 0.99375105 0.00000000
0.93434632 0.95360649 0.00000000
0.85813731 0.88566512 0.00000000
0.76447374 0.79592085 0.00000000
0.65856534 0.69036752 0.00000000
0.54562187 0.57499892 0.00000000
0.43085295 0.45580885 0.00000000
0.31946838 0.33879119 0.00000000
0.21667783 0.22993973 0.00000000
0.86128211 0.88858765 0.00000000
0.76816839 0.79953933 0.00000000
0.66261822 0.69446135 0.00000000
0.54984123 0.57934767 0.00000000
0.43504715 0.46019197 0.00000000
0.32344577 0.34298819 0.00000000
0.22024675 0.23373011 0.00000000
0.13065983 0.13841157 0.00000000
0.05989471 0.06302638 0.00000000
0.00586431 0.00342699 0.57688057
0.12788908 0.01266294 0.53354901
0.24485014 0.03187669 0.48288262
0.35773158 0.06426512 0.42856735
0.46741623 0.11179297 0.37384263
0.57388347 0.17473222 0.32137427
0.67578894 0.25138703 0.27320015
0.77042514 0.33800417 0.23074913
0.85406464 0.42886874 0.19493294
0.05356894 0.12623438 0.48483270
0.19126114 0.14552301 0.43059102
0.32744330 0.17903697 0.37583035
0.46099466 0.22769895 0.32323903
0.58947921 0.29047051 0.27487811
0.70909262 0.36425591 0.23219758
0.81499141 0.44399086 0.19612588
0.90200251 0.52291691 0.16723208
0.96571618 0.59304142 0.14596151
0.18549077 0.24730836 0.37782112
0.34612349 0.28169137 0.32510960
0.50126660 0.33053234 0.27656376
0.64601952 0.39139310 0.23365504
0.77442330 0.45986041 0.19732852
0.88015687 0.52981347 0.16816285
0.95761538 0.59387708 0.14660284
1.00000000 0.65996069 0.12999527
1.00000000 0.85677260 0.06994612
0.41114452 0.37157622 0.27825713
0.58119446 0.41942194 0.23512146
0.73234439 0.47648600 0.19854091
0.85712671 0.53728592 0.16910389
0.94874322 0.59506476 0.14725527
1.00000000 0.65291709 0.13152856
1.00000000 0.84995866 0.07251901
1.00000000 0.99104732 0.00679376
0.96273881 0.97636724 0.00000000
0.68873906 0.49387610 0.19976296
0.83289158 0.54534513 0.17005518
0.93907452 0.59661770 0.14791872
1.00000000 0.64593750 0.13299222
1.00000000 0.84306896 0.07508282
1.00000000 0.98804498 0.00881210
0.96472597 0.97786462 0.00000000
0.89938754 0.92330509 0.00000000
0.81394619 0.84389555 0.00000000
0.92858446 0.59854907 0.14859313
0.99986869 0.63946730 0.13430470
1.00000000 0.83610868 0.07763531
1.00000000 0.98483229 0.01087965
0.96667886 0.97932029 0.00000000
0.90217936 0.92578930 0.00000000
0.81738526 0.84718776 0.00000000
0.71750629 0.74950963 0.00000000
0.60775203 0.63874871 0.00000000
1.00000000 0.82908291 0.08017426
1.00000000 0.98141444 0.01299421
0.96859723 0.98073393 0.00000000
0.90494376 0.92823952 0.00000000
0.82080394 0.85045415 0.00000000
0.72138762 0.75337166 0.00000000
0.61190438 0.64298582 0.00000000
0.49756405 0.52529049 0.00000000
0.38357627 0.40627953 0.00000000
0.97048086 0.98210526 0.00000000
0.90768039 0.93065560 0.00000000
0.82420200 0.85369444 0.00000000
0.72525531 0.75721568 0.00000000
0.61605018 0.64721304 0.00000000
0.50179619 0.52968043 0.00000000
0.38770315 0.41061166 0.00000000
0.27898073 0.29600057 0.00000000
0.18083866 0.19184093 0.00000000
0.82757908 0.85690832 0.00000000
0.72910917 0.76104134 0.00000000
0.62018907 0.65143007 0.00000000
0.50602859 0.53406829 0.00000000
0.39183730 0.41494983 0.00000000
0.28282499 0.30006853 0.00000000
0.18420137 0.19541822 0.00000000
0.10117616 0.10699270 0.00000000
0.03895907 0.04078582 0.00000000
0.01032797 0.00600810 0.67344493
0.13415968 0.01861757 0.61685473
0.25393060 0.04253203 0.55258578
0.37048310 0.08054470 0.48475593
0.48420745 0.13401912 0.41697919
0.59438515 0.20249945 0.35226679
0.69891387 0.28350592 0.29300046
0.79441422 0.37251592 0.24097940
0.87671775 0.46313065 0.19754022
0.07166427 0.13204387 0.55503720
0.21378855 0.15653220 0.48727083
0.35435820 0.19581509 0.41943491
0.49155945 0.25009066 0.35456377
0.62219822 0.31753743 0.29506189
0.74179232 0.39428854 0.24274828
0.84504604 0.47459131 0.19897351
0.92670596 0.55115253 0.16481006
0.98279828 0.61566854 0.14131582
0.22251862 0.25864315 0.42189470
0.38677180 0.29869485 0.35686803
0.54363114 0.35251725 0.29713309
0.68751264 0.41689929 0.24452873
0.81199443 0.48673505 0.20041980
0.91065860 0.55536199 0.16588488
0.97831482 0.61508459 0.14197677
1.00000000 0.73547763 0.11054516
1.00000000 0.92168355 0.04328683
0.46320426 0.38844997 0.29921401
0.63156217 0.44035524 0.24632071
0.77754509 0.49957126 0.20187905
0.89357251 0.56006712 0.16697401
0.97323918 0.61475605 0.14265387
1.00000000 0.72807366 0.11266892
1.00000000 0.91595709 0.04582278
0.99143177 0.99580216 0.00000000
0.94019014 0.95846272 0.00000000
0.74168068 0.51310956 0.20335126
0.87542516 0.56527966 0.16807748
0.96754456 0.61469698 0.14334705
1.00000000 0.72068042 0.11474614
1.00000000 0.91010159 0.04837271
0.99280828 0.99655783 0.00000000
0.94251704 0.96037525 0.00000000
0.86889946 0.89563411 0.00000000
0.77716523 0.80832833 0.00000000
0.96120393 0.61492151 0.14405619
1.00000000 0.71330303 0.11677458
1.00000000 0.90412223 0.05093442
0.99414611 0.99726671 0.00000000
0.94481242 0.96224904 0.00000000
0.87196070 0.89845240 0.00000000
0.78080070 0.81187057 0.00000000
0.67654204 0.70849735 0.00000000
0.56439453 0.59432662 0.00000000
1.00000000 0.89802420 0.05350566
0.99544513 0.99792850 0.00000000
0.94707596 0.96408391 0.00000000
0.87499714 0.90123981 0.00000000
0.78441834 0.81539005 0.00000000
0.68054932 0.71252835 0.00000000
0.56859970 0.59864867 0.00000000
0.45377931 0.47974476 0.00000000
0.34129778 0.36181045 0.00000000
0.94930744 0.96587956 0.00000000
0.87800860 0.90399617 0.00000000
0.78801805 0.81888652 0.00000000
0.68454564 0.71654451 0.00000000
0.57280105 0.60296392 0.00000000
0.45799392 0.48413867 0.00000000
0.34533405 0.36606249 0.00000000
0.24003111 0.25472924 0.00000000
0.14729483 0.15613276 0.00000000
0.79159951 0.82235968 0.00000000
0.68853080 0.72054541 0.00000000
0.57699817 0.60727215 0.00000000
0.46221146 0.48853359 0.00000000
0.34938028 0.37032366 0.00000000
0.24371438 0.25863615 0.00000000
0.15042348 0.15946488 0.00000000
0.07471731 0.07880370 0.00000000
0.02180557 0.02264643 0.00000000
0.01673222 0.00970356 0.76145852
0.14302807 0.02622468 0.69067138
0.26617801 0.05525184 0.61225694
0.38673177 0.09909099 0.53073943
0.50449157 0.15844786 0.45009336
0.61800098 0.23210898 0.37367129
0.72441554 0.31680793 0.30420578
0.81975448 0.40727696 0.24388385
0.89953494 0.49648449 0.19449477
0.09326006 0.13972721 0.61522287
0.23999123 0.16971102 0.53374547
0.38479125 0.21479377 0.45300400
0.52511144 0.27441847 0.37637451
0.65701294 0.34597668 0.30661133
0.77540469 0.42485368 0.24591947
0.87466329 0.50465858 0.19609934
0.94963467 0.57764041 0.15876514
0.99701643 0.63528883 0.13563617
0.26310167 0.27216992 0.45592037
0.43029198 0.31772164 0.37908706
0.58782220 0.37605703 0.30902925
0.72949195 0.44321460 0.24796981
0.84853888 0.51344490 0.19772077
0.93862581 0.57961965 0.15989843
0.99521041 0.63382626 0.13621214
1.00000000 0.81159282 0.08633477
1.00000000 0.97218782 0.01836971
0.51683336 0.40705463 0.31145930
0.68200171 0.46236783 0.25003478
0.82114196 0.52285385 0.19935898
0.92673635 0.58200806 0.16105075
0.99300432 0.63251632 0.13681006
1.00000000 0.80438054 0.08880980
1.00000000 0.96810085 0.02062948
0.97495520 0.98528975 0.00000000
0.91427845 0.93643886 0.00000000
0.79245353 0.53289568 0.20101392
0.91394228 0.58481824 0.16222209
0.99036938 0.63137412 0.13742986
1.00000000 0.79712564 0.09126135
1.00000000 0.96383160 0.02292633
0.97671664 0.98651242 0.00000000
0.91691726 0.93873435 0.00000000
0.83577788 0.86468297 0.00000000
0.73850811 0.77035224 0.00000000
0.98727703 0.63041437 0.13807136
1.00000000 0.78983337 0.09368721
1.00000000 0.95938522 0.02525803
0.97844219 0.98769152 0.00000000
0.91952723 0.94099426 0.00000000
0.83908063 0.86780328 0.00000000
0.74231195 0.77411240 0.00000000
0.63443106 0.66591543 0.00000000
0.52064753 0.54920620 0.00000000
1.00000000 0.95476687 0.02762235
0.98013151 0.98882657 0.00000000
0.92210811 0.94321835 0.00000000
0.84236127 0.87089586 0.00000000
0.74610078 0.77785295 0.00000000
0.63853639 0.67008346 0.00000000
0.52487773 0.55358118 0.00000000
0.41033456 0.43433994 0.00000000
0.30011660 0.31835362 0.00000000
0.92465955 0.94540626 0.00000000
0.84561962 0.87396038 0.00000000
0.74987435 0.78157353 0.00000000
0.64263350 0.67423964 0.00000000
0.52910674 0.55795246 0.00000000
0.41450378 0.43870577 0.00000000
0.30403441 0.32249349 0.00000000
0.20290828 0.21530944 0.00000000
0.11633513 0.12314740 0.00000000
0.75363231 0.78527391 0.00000000
0.64672208 0.67838371 0.00000000
0.53333426 0.56231970 0.00000000
0.41867861 0.44307572 0.00000000
0.30796486 0.32664561 0.00000000
0.20640269 0.21902320 0.00000000
0.11920185 0.12620232 0.00000000
0.05157203 0.05417678 0.00000000
0.00872296 0.00894042 0.00000000
0.02544529 0.01472698 0.84020227
0.15481797 0.03566135 0.75451893
0.28180751 0.07014166 0.66164392
0.40654117 0.11991317 0.56648725
0.52815890 0.18497746 0.47337309
0.64444745 0.26334402 0.38599586
0.75185668 0.35096723 0.30744964
0.84589696 0.44186878 0.24033073
0.92191845 0.52844566 0.18691334
0.11851295 0.14942528 0.66512954
0.26987553 0.18510476 0.56997639
0.41857600 0.23590790 0.47671777
0.56130981 0.30050203 0.38907123
0.69342792 0.37549847 0.31015149
0.80932057 0.45556802 0.24257061
0.90318233 0.53374207 0.18861058
0.97015929 0.60189927 0.15046968
1.00000000 0.69529444 0.12153268
0.30701649 0.28785998 0.48007017
0.47628593 0.33862779 0.39215848
0.63328624 0.40089804 0.31286874
0.77128828 0.46999112 0.24482885
0.88333285 0.53957355 0.19032915
0.96336281 0.60213792 0.15156573
1.00000000 0.68801135 0.12337548
1.00000000 0.88258529 0.05984331
0.99846703 0.99935156 0.00000000
0.57141966 0.42717254 0.31560126
0.73178363 0.48514706 0.24710548
0.86234856 0.54595131 0.19206905
0.95585668 0.60269278 0.15268628
1.00000000 0.68076700 0.12515959
1.00000000 0.87611663 0.06243037
0.99962968 0.99984848 0.00000000
0.95464694 0.97011876 0.00000000
0.88529241 0.91062772 0.00000000
0.84020865 0.55288672 0.19383010
0.94761503 0.60357761 0.15383120
1.00000000 0.67356658 0.12688278
1.00000000 0.86955220 0.06501704
1.00000000 0.99853796 0.00122286
0.95676553 0.97177649 0.00000000
0.88821536 0.91327417 0.00000000
0.80031139 0.83078390 0.00000000
0.69826341 0.73029947 0.00000000
1.00000000 0.66641510 0.12854283
1.00000000 0.86289710 0.06760111
1.00000000 0.99617660 0.00308533
0.95885092 0.97339368 0.00000000
0.89111209 0.91588813 0.00000000
0.80382782 0.83417416 0.00000000
0.70220786 0.73424554 0.00000000
0.59146202 0.62209612 0.00000000
0.47679985 0.50371969 0.00000000
1.00000000 0.99358994 0.00500351
0.96090275 0.97496992 0.00000000
0.89398235 0.91846937 0.00000000
0.80732483 0.83753979 0.00000000
0.70613998 0.73817509 0.00000000
0.59563756 0.62636906 0.00000000
0.48102716 0.50811553 0.00000000
0.36751857 0.38940829 0.00000000
0.26032150 0.27624124 0.00000000
0.89682591 0.92101753 0.00000000
0.81080222 0.84088045 0.00000000
0.71005952 0.74208778 0.00000000
0.59980756 0.63063323 0.00000000
0.48525596 0.51251072 0.00000000
0.37161455 0.39371401 0.00000000
0.26409298 0.28023693 0.00000000
0.16790098 0.17807335 0.00000000
0.08824828 0.09321706 0.00000000
0.71396613 0.74598336 0.00000000
0.60397172 0.63488841 0.00000000
0.48948601 0.51690501 0.00000000
0.37571880 0.39802688 0.00000000
0.26787978 0.28424793 0.00000000
0.17117868 0.18156193 0.00000000
0.09082520 0.09596272 0.00000000
0.03202907 0.03344413 0.00000000
0.00000000 0.00000000 0.00000000
