gm78.cube
#Created by: Our Conversion Website
#Tool Author: Viktor Fejes
#Website: https://google.com
TITLE "gm78"
#LUT size
LUT_3D_SIZE 64
#data domain
DOMAIN_MIN 0.0 0.0 0.0
DOMAIN_MAX 1.0 1.0 1.0
#LUT data points
0.141176 0.345098 0.341176
0.141176 0.345098 0.341176
0.141176 0.345098 0.341176
0.141176 0.345098 0.341176
0.141176 0.345098 0.341176
0.141176 0.345098 0.341176
0.141176 0.345098 0.341176
0.141176 0.345098 0.341176
0.141176 0.345098 0.341176
0.141176 0.345098 0.341176
0.141176 0.349020 0.341176
0.141176 0.349020 0.341176
0.141176 0.345098 0.341176
0.141176 0.345098 0.341176
0.141176 0.349020 0.341176
0.141176 0.349020 0.341176
0.141176 0.345098 0.341176
0.141176 0.345098 0.341176
0.141176 0.345098 0.341176
0.141176 0.345098 0.341176
0.141176 0.345098 0.341176
0.141176 0.345098 0.341176
0.141176 0.345098 0.341176
0.141176 0.345098 0.341176
0.141176 0.345098 0.341176
0.141176 0.345098 0.341176
0.141176 0.345098 0.341176
0.141176 0.345098 0.341176
0.141176 0.345098 0.341176
0.141176 0.345098 0.341176
0.141176 0.345098 0.341176
0.141176 0.345098 0.341176
0.141176 0.345098 0.341176
0.141176 0.345098 0.341176
0.141176 0.349020 0.341176
0.141176 0.345098 0.341176
0.141176 0.345098 0.341176
0.141176 0.345098 0.341176
0.141176 0.345098 0.341176
0.141176 0.345098 0.341176
0.141176 0.345098 0.341176
0.141176 0.345098 0.341176
0.141176 0.345098 0.341176
0.141176 0.345098 0.341176
0.141176 0.345098 0.341176
0.141176 0.345098 0.341176
0.141176 0.349020 0.341176
0.141176 0.345098 0.341176
0.141176 0.345098 0.341176
0.141176 0.345098 0.341176
0.141176 0.349020 0.341176
0.141176 0.345098 0.341176
0.141176 0.345098 0.341176
0.141176 0.349020 0.341176
0.141176 0.345098 0.341176
0.141176 0.345098 0.341176
0.141176 0.345098 0.341176
0.141176 0.345098 0.341176
0.141176 0.349020 0.341176
0.141176 0.345098 0.341176
0.141176 0.345098 0.341176
0.141176 0.345098 0.341176
0.141176 0.349020 0.341176
0.141176 0.349020 0.341176
0.141176 0.345098 0.341176
0.141176 0.349020 0.341176
0.141176 0.345098 0.341176
0.141176 0.345098 0.341176
0.141176 0.349020 0.341176
0.141176 0.349020 0.341176
0.141176 0.349020 0.341176
0.141176 0.345098 0.341176
0.141176 0.345098 0.341176
0.141176 0.349020 0.341176
0.141176 0.349020 0.341176
0.141176 0.349020 0.341176
0.141176 0.345098 0.341176
0.141176 0.349020 0.341176
0.141176 0.349020 0.341176
0.141176 0.349020 0.341176
0.141176 0.349020 0.341176
0.141176 0.349020 0.341176
0.141176 0.349020 0.341176
0.141176 0.349020 0.341176
0.141176 0.349020 0.341176
0.141176 0.349020 0.341176
0.141176 0.349020 0.341176
0.141176 0.345098 0.341176
0.141176 0.349020 0.341176
0.141176 0.349020 0.341176
0.141176 0.349020 0.341176
0.141176 0.349020 0.341176
0.141176 0.349020 0.341176
0.141176 0.349020 0.341176
0.141176 0.349020 0.341176
0.141176 0.345098 0.341176
0.141176 0.349020 0.341176
0.141176 0.349020 0.341176
0.141176 0.349020 0.341176
0.141176 0.349020 0.341176
0.141176 0.349020 0.341176
0.141176 0.349020 0.341176
0.141176 0.349020 0.341176
0.141176 0.349020 0.341176
0.141176 0.349020 0.341176
0.141176 0.349020 0.341176
0.141176 0.349020 0.341176
0.141176 0.345098 0.341176
0.141176 0.349020 0.341176
0.141176 0.349020 0.341176
0.141176 0.349020 0.341176
0.141176 0.349020 0.341176
0.141176 0.345098 0.341176
0.141176 0.345098 0.341176
0.141176 0.349020 0.341176
0.141176 0.349020 0.341176
0.141176 0.349020 0.341176
0.141176 0.345098 0.341176
0.141176 0.345098 0.341176
0.141176 0.349020 0.341176
0.141176 0.349020 0.341176
0.141176 0.349020 0.341176
0.141176 0.349020 0.341176
0.141176 0.345098 0.341176
0.141176 0.349020 0.341176
0.141176 0.349020 0.341176
0.141176 0.349020 0.341176
0.141176 0.341176 0.341176
0.141176 0.349020 0.341176
0.141176 0.349020 0.341176
0.141176 0.349020 0.341176
0.141176 0.349020 0.341176
0.141176 0.349020 0.341176
0.141176 0.349020 0.341176
0.141176 0.349020 0.341176
0.141176 0.349020 0.341176
0.141176 0.349020 0.341176
0.141176 0.349020 0.341176
0.141176 0.349020 0.341176
0.141176 0.349020 0.341176
0.141176 0.349020 0.341176
0.141176 0.349020 0.341176
0.141176 0.349020 0.341176
0.141176 0.349020 0.341176
0.141176 0.349020 0.341176
0.141176 0.349020 0.341176
0.141176 0.349020 0.341176
0.141176 0.349020 0.341176
0.141176 0.349020 0.341176
0.141176 0.349020 0.341176
0.141176 0.349020 0.341176
0.141176 0.349020 0.341176
0.141176 0.349020 0.341176
0.141176 0.349020 0.341176
0.141176 0.349020 0.341176
0.141176 0.349020 0.341176
0.141176 0.349020 0.341176
0.141176 0.349020 0.341176
0.141176 0.349020 0.341176
0.141176 0.349020 0.341176
0.141176 0.349020 0.341176
0.141176 0.349020 0.341176
0.141176 0.349020 0.341176
0.141176 0.349020 0.341176
0.141176 0.349020 0.341176
0.141176 0.349020 0.341176
0.141176 0.349020 0.341176
0.141176 0.349020 0.341176
0.141176 0.349020 0.341176
0.141176 0.349020 0.341176
0.141176 0.349020 0.341176
0.141176 0.349020 0.341176
0.141176 0.349020 0.341176
0.141176 0.349020 0.341176
0.141176 0.349020 0.341176
0.141176 0.349020 0.341176
0.141176 0.349020 0.341176
0.141176 0.349020 0.341176
0.141176 0.349020 0.341176
0.141176 0.349020 0.341176
0.141176 0.349020 0.341176
0.141176 0.349020 0.341176
0.141176 0.349020 0.341176
0.141176 0.349020 0.341176
0.141176 0.349020 0.341176
0.141176 0.349020 0.341176
0.141176 0.349020 0.341176
0.141176 0.349020 0.341176
0.141176 0.349020 0.341176
0.141176 0.349020 0.341176
0.141176 0.349020 0.341176
0.141176 0.345098 0.337255
0.141176 0.349020 0.341176
0.141176 0.349020 0.341176
0.141176 0.349020 0.341176
0.141176 0.349020 0.341176
0.141176 0.349020 0.341176
0.141176 0.349020 0.341176
0.141176 0.349020 0.341176
0.141176 0.349020 0.341176
0.141176 0.349020 0.341176
0.141176 0.349020 0.341176
0.141176 0.349020 0.341176
0.141176 0.349020 0.341176
0.141176 0.349020 0.341176
0.141176 0.349020 0.341176
0.141176 0.349020 0.341176
0.141176 0.349020 0.341176
0.141176 0.349020 0.341176
0.141176 0.349020 0.341176
0.141176 0.349020 0.341176
0.141176 0.349020 0.341176
0.141176 0.349020 0.341176
0.141176 0.349020 0.341176
0.141176 0.349020 0.341176
0.141176 0.349020 0.341176
0.141176 0.349020 0.341176
0.141176 0.349020 0.341176
0.141176 0.349020 0.341176
0.141176 0.349020 0.341176
0.141176 0.349020 0.341176
0.141176 0.349020 0.341176
0.141176 0.349020 0.341176
0.141176 0.349020 0.341176
0.141176 0.349020 0.341176
0.141176 0.349020 0.341176
0.141176 0.349020 0.341176
0.141176 0.349020 0.341176
0.141176 0.349020 0.341176
0.141176 0.349020 0.341176
0.141176 0.349020 0.341176
0.141176 0.349020 0.341176
0.141176 0.349020 0.341176
0.141176 0.349020 0.341176
0.141176 0.349020 0.341176
0.141176 0.349020 0.341176
0.141176 0.349020 0.341176
0.141176 0.349020 0.341176
0.141176 0.349020 0.341176
0.141176 0.349020 0.341176
0.141176 0.349020 0.341176
0.141176 0.349020 0.341176
0.141176 0.349020 0.341176
0.141176 0.349020 0.341176
0.141176 0.349020 0.341176
0.141176 0.349020 0.341176
0.141176 0.349020 0.341176
0.141176 0.349020 0.341176
0.141176 0.349020 0.341176
0.141176 0.349020 0.341176
0.141176 0.349020 0.341176
0.141176 0.349020 0.341176
0.141176 0.349020 0.341176
0.141176 0.349020 0.341176
0.141176 0.345098 0.341176
0.141176 0.325490 0.337255
0.141176 0.352941 0.345098
0.141176 0.349020 0.341176
0.141176 0.349020 0.341176
0.141176 0.349020 0.341176
0.141176 0.349020 0.341176
0.141176 0.349020 0.341176
0.141176 0.349020 0.341176
0.141176 0.349020 0.341176
0.141176 0.349020 0.341176
0.141176 0.349020 0.341176
0.141176 0.349020 0.341176
0.141176 0.349020 0.341176
0.141176 0.349020 0.341176
0.141176 0.349020 0.341176
0.141176 0.349020 0.345098
0.141176 0.349020 0.341176
0.141176 0.349020 0.341176
0.141176 0.349020 0.341176
0.141176 0.349020 0.341176
0.141176 0.349020 0.341176
0.141176 0.349020 0.341176
0.141176 0.349020 0.341176
0.141176 0.349020 0.341176
0.141176 0.349020 0.341176
0.141176 0.349020 0.341176
0.141176 0.349020 0.341176
0.141176 0.349020 0.341176
0.141176 0.349020 0.341176
0.141176 0.349020 0.341176
0.141176 0.349020 0.341176
0.141176 0.349020 0.341176
0.141176 0.349020 0.341176
0.141176 0.349020 0.341176
0.141176 0.349020 0.341176
0.141176 0.349020 0.341176
0.141176 0.349020 0.341176
0.141176 0.349020 0.341176
0.141176 0.349020 0.341176
0.141176 0.349020 0.341176
0.141176 0.349020 0.341176
0.141176 0.349020 0.341176
0.141176 0.349020 0.341176
0.141176 0.349020 0.341176
0.141176 0.349020 0.341176
0.141176 0.349020 0.341176
0.141176 0.349020 0.341176
0.141176 0.352941 0.341176
0.141176 0.349020 0.341176
0.141176 0.349020 0.341176
0.141176 0.349020 0.341176
0.141176 0.349020 0.341176
0.141176 0.352941 0.345098
0.141176 0.349020 0.341176
0.141176 0.349020 0.341176
0.141176 0.349020 0.341176
0.141176 0.349020 0.341176
0.141176 0.349020 0.341176
0.141176 0.349020 0.341176
0.141176 0.349020 0.341176
0.141176 0.349020 0.341176
0.141176 0.349020 0.341176
0.141176 0.352941 0.341176
0.141176 0.352941 0.341176
0.137255 0.305882 0.333333
0.141176 0.341176 0.341176
0.141176 0.352941 0.345098
0.141176 0.352941 0.345098
0.141176 0.352941 0.345098
0.141176 0.352941 0.341176
0.141176 0.352941 0.345098
0.141176 0.352941 0.345098
0.141176 0.352941 0.345098
0.141176 0.352941 0.345098
0.141176 0.352941 0.345098
0.141176 0.352941 0.345098
0.141176 0.352941 0.345098
0.141176 0.352941 0.345098
0.141176 0.352941 0.345098
0.141176 0.352941 0.345098
0.141176 0.352941 0.345098
0.141176 0.352941 0.345098
0.141176 0.352941 0.345098
0.141176 0.352941 0.345098
0.141176 0.352941 0.345098
0.141176 0.352941 0.345098
0.141176 0.352941 0.345098
0.141176 0.352941 0.345098
0.141176 0.352941 0.345098
0.141176 0.352941 0.345098
0.141176 0.352941 0.345098
0.141176 0.352941 0.345098
0.141176 0.352941 0.345098
0.141176 0.352941 0.345098
0.141176 0.352941 0.345098
0.141176 0.352941 0.345098
0.141176 0.352941 0.341176
0.141176 0.352941 0.345098
0.141176 0.352941 0.345098
0.141176 0.352941 0.345098
0.141176 0.352941 0.345098
0.141176 0.352941 0.345098
0.141176 0.352941 0.345098
0.141176 0.352941 0.345098
0.141176 0.352941 0.345098
0.141176 0.352941 0.341176
0.141176 0.352941 0.345098
0.141176 0.352941 0.345098
0.141176 0.352941 0.345098
0.141176 0.352941 0.345098
0.141176 0.352941 0.345098
0.141176 0.352941 0.345098
0.141176 0.352941 0.341176
0.141176 0.352941 0.345098
0.141176 0.352941 0.345098
0.141176 0.352941 0.345098
0.141176 0.352941 0.345098
0.141176 0.352941 0.345098
0.141176 0.352941 0.345098
0.141176 0.352941 0.345098
0.141176 0.352941 0.345098
0.141176 0.352941 0.345098
0.141176 0.352941 0.345098
0.141176 0.352941 0.345098
0.141176 0.352941 0.345098
0.141176 0.352941 0.345098
0.141176 0.352941 0.345098
0.141176 0.349020 0.341176
0.137255 0.286275 0.329412
0.141176 0.337255 0.341176
0.141176 0.356863 0.345098
0.141176 0.352941 0.345098
0.141176 0.352941 0.345098
0.141176 0.352941 0.345098
0.141176 0.352941 0.345098
0.141176 0.352941 0.345098
0.141176 0.352941 0.345098
0.141176 0.352941 0.345098
0.141176 0.352941 0.345098
0.141176 0.352941 0.345098
0.141176 0.352941 0.345098
0.141176 0.352941 0.345098
0.141176 0.352941 0.345098
0.141176 0.352941 0.345098
0.141176 0.352941 0.345098
0.141176 0.352941 0.345098
0.141176 0.352941 0.345098
0.141176 0.352941 0.345098
0.141176 0.352941 0.345098
0.141176 0.352941 0.345098
0.141176 0.352941 0.345098
0.141176 0.352941 0.345098
0.141176 0.352941 0.345098
0.141176 0.352941 0.345098
0.141176 0.352941 0.345098
0.141176 0.352941 0.345098
0.141176 0.352941 0.345098
0.141176 0.352941 0.345098
0.141176 0.352941 0.345098
0.141176 0.352941 0.345098
0.141176 0.352941 0.345098
0.141176 0.352941 0.345098
0.141176 0.352941 0.345098
0.141176 0.352941 0.345098
0.141176 0.352941 0.345098
0.141176 0.352941 0.345098
0.141176 0.352941 0.345098
0.141176 0.352941 0.345098
0.141176 0.352941 0.345098
0.141176 0.352941 0.345098
0.141176 0.352941 0.345098
0.141176 0.352941 0.345098
0.141176 0.352941 0.345098
0.141176 0.352941 0.345098
0.141176 0.352941 0.345098
0.141176 0.352941 0.345098
0.141176 0.352941 0.345098
0.141176 0.352941 0.345098
0.141176 0.352941 0.345098
0.141176 0.352941 0.341176
0.141176 0.352941 0.345098
0.141176 0.352941 0.345098
0.141176 0.352941 0.345098
0.141176 0.352941 0.345098
0.141176 0.352941 0.345098
0.141176 0.352941 0.345098
0.141176 0.352941 0.345098
0.141176 0.352941 0.345098
0.141176 0.352941 0.345098
0.141176 0.352941 0.345098
0.141176 0.352941 0.345098
0.141176 0.345098 0.341176
0.137255 0.270588 0.325490
0.141176 0.341176 0.341176
0.141176 0.349020 0.341176
0.141176 0.345098 0.341176
0.141176 0.345098 0.341176
0.141176 0.345098 0.341176
0.141176 0.345098 0.341176
0.141176 0.345098 0.341176
0.141176 0.345098 0.341176
0.141176 0.352941 0.341176
0.141176 0.345098 0.341176
0.141176 0.349020 0.341176
0.141176 0.345098 0.341176
0.141176 0.345098 0.341176
0.141176 0.349020 0.341176
0.141176 0.345098 0.341176
0.141176 0.349020 0.341176
0.141176 0.349020 0.341176
0.141176 0.349020 0.341176
0.141176 0.345098 0.341176
0.141176 0.349020 0.341176
0.141176 0.349020 0.341176
0.141176 0.345098 0.341176
0.141176 0.349020 0.341176
0.141176 0.345098 0.341176
0.141176 0.345098 0.341176
0.141176 0.345098 0.341176
0.141176 0.349020 0.341176
0.141176 0.345098 0.341176
0.141176 0.345098 0.341176
0.141176 0.345098 0.341176
0.141176 0.345098 0.341176
0.141176 0.345098 0.341176
0.141176 0.345098 0.341176
0.141176 0.345098 0.341176
0.141176 0.345098 0.341176
0.141176 0.345098 0.341176
0.141176 0.345098 0.341176
0.141176 0.345098 0.341176
0.141176 0.345098 0.341176
0.141176 0.345098 0.341176
0.141176 0.349020 0.341176
0.141176 0.349020 0.341176
0.141176 0.345098 0.341176
0.141176 0.345098 0.341176
0.141176 0.345098 0.341176
0.141176 0.345098 0.341176
0.141176 0.345098 0.341176
0.141176 0.345098 0.341176
0.141176 0.345098 0.341176
0.141176 0.345098 0.341176
0.141176 0.345098 0.341176
0.141176 0.345098 0.341176
0.141176 0.345098 0.341176
0.141176 0.345098 0.341176
0.141176 0.345098 0.341176
0.141176 0.345098 0.341176
0.141176 0.345098 0.341176
0.141176 0.345098 0.341176
0.141176 0.345098 0.341176
0.141176 0.345098 0.341176
0.141176 0.345098 0.341176
0.141176 0.345098 0.341176
0.141176 0.345098 0.341176
0.141176 0.349020 0.341176
0.141176 0.352941 0.341176
0.141176 0.352941 0.341176
0.141176 0.352941 0.341176
0.141176 0.352941 0.341176
0.141176 0.356863 0.341176
0.141176 0.349020 0.341176
0.141176 0.349020 0.341176
0.141176 0.352941 0.341176
0.141176 0.356863 0.341176
0.141176 0.349020 0.341176
0.141176 0.349020 0.341176
0.141176 0.349020 0.341176
0.141176 0.356863 0.341176
0.141176 0.352941 0.341176
0.141176 0.345098 0.337255
0.141176 0.345098 0.337255
0.141176 0.352941 0.341176
0.141176 0.349020 0.341176
0.141176 0.345098 0.337255
0.141176 0.345098 0.337255
0.141176 0.349020 0.337255
0.141176 0.352941 0.341176
0.141176 0.349020 0.341176
0.141176 0.349020 0.341176
0.141176 0.349020 0.341176
0.141176 0.349020 0.341176
0.141176 0.352941 0.341176
0.141176 0.356863 0.341176
0.141176 0.349020 0.341176
0.141176 0.349020 0.341176
0.141176 0.349020 0.341176
0.141176 0.356863 0.341176
0.141176 0.356863 0.341176
0.141176 0.352941 0.341176
0.141176 0.345098 0.337255
0.141176 0.352941 0.341176
0.141176 0.356863 0.341176
0.141176 0.349020 0.341176
0.141176 0.345098 0.337255
0.141176 0.345098 0.337255
0.141176 0.349020 0.337255
0.141176 0.352941 0.341176
0.141176 0.352941 0.341176
0.141176 0.349020 0.337255
0.141176 0.356863 0.341176
0.141176 0.352941 0.341176
0.141176 0.345098 0.337255
0.141176 0.349020 0.341176
0.141176 0.356863 0.341176
0.141176 0.352941 0.341176
0.141176 0.345098 0.337255
0.141176 0.352941 0.341176
0.141176 0.356863 0.341176
0.141176 0.349020 0.341176
0.141176 0.352941 0.341176
0.141176 0.349020 0.341176
0.141176 0.356863 0.341176
0.141176 0.352941 0.341176
0.141176 0.345098 0.337255
0.141176 0.352941 0.341176
0.141176 0.356863 0.341176
0.141176 0.352941 0.341176
0.141176 0.345098 0.341176
0.141176 0.278431 0.333333
0.141176 0.337255 0.337255
0.141176 0.352941 0.341176
0.141176 0.349020 0.337255
0.141176 0.352941 0.341176
0.141176 0.345098 0.337255
0.141176 0.349020 0.337255
0.141176 0.345098 0.337255
0.141176 0.352941 0.337255
0.141176 0.352941 0.341176
0.141176 0.341176 0.337255
0.141176 0.349020 0.337255
0.141176 0.345098 0.337255
0.141176 0.352941 0.341176
0.141176 0.345098 0.337255
0.141176 0.345098 0.337255
0.141176 0.345098 0.337255
0.141176 0.341176 0.337255
0.141176 0.349020 0.337255
0.141176 0.349020 0.337255
0.141176 0.345098 0.337255
0.141176 0.341176 0.337255
0.141176 0.341176 0.337255
0.141176 0.341176 0.337255
0.141176 0.349020 0.337255
0.141176 0.341176 0.337255
0.141176 0.341176 0.337255
0.141176 0.349020 0.337255
0.141176 0.349020 0.337255
0.141176 0.341176 0.341176
0.141176 0.341176 0.337255
0.141176 0.341176 0.337255
0.141176 0.349020 0.337255
0.141176 0.341176 0.337255
0.141176 0.349020 0.337255
0.141176 0.349020 0.337255
0.141176 0.349020 0.337255
0.141176 0.349020 0.337255
0.141176 0.349020 0.337255
0.141176 0.349020 0.337255
0.141176 0.349020 0.337255
0.141176 0.341176 0.337255
0.141176 0.349020 0.341176
0.141176 0.345098 0.337255
0.141176 0.352941 0.341176
0.141176 0.341176 0.337255
0.141176 0.349020 0.337255
0.141176 0.341176 0.337255
0.141176 0.349020 0.337255
0.141176 0.352941 0.337255
0.141176 0.349020 0.337255
0.141176 0.341176 0.337255
0.141176 0.349020 0.337255
0.141176 0.341176 0.337255
0.141176 0.352941 0.337255
0.141176 0.352941 0.337255
0.141176 0.349020 0.337255
0.141176 0.345098 0.337255
0.141176 0.349020 0.337255
0.141176 0.349020 0.337255
0.141176 0.352941 0.337255
0.141176 0.349020 0.337255
0.141176 0.341176 0.337255
0.141176 0.337255 0.337255
0.137255 0.266667 0.333333
0.141176 0.337255 0.337255
0.141176 0.341176 0.337255
0.141176 0.341176 0.337255
0.141176 0.341176 0.337255
0.141176 0.341176 0.337255
0.141176 0.341176 0.337255
0.141176 0.341176 0.337255
0.141176 0.341176 0.337255
0.141176 0.341176 0.337255
0.141176 0.341176 0.337255
0.141176 0.341176 0.337255
0.141176 0.341176 0.337255
0.141176 0.341176 0.337255
0.141176 0.341176 0.337255
0.141176 0.341176 0.337255
0.141176 0.341176 0.337255
0.141176 0.341176 0.337255
0.141176 0.341176 0.337255
0.141176 0.341176 0.337255
0.141176 0.341176 0.337255
0.141176 0.341176 0.337255
0.141176 0.341176 0.337255
0.141176 0.341176 0.337255
0.141176 0.341176 0.337255
0.141176 0.341176 0.337255
0.141176 0.341176 0.337255
0.141176 0.341176 0.337255
0.141176 0.341176 0.337255
0.141176 0.341176 0.337255
0.141176 0.341176 0.337255
0.141176 0.341176 0.337255
0.141176 0.341176 0.337255
0.141176 0.341176 0.337255
0.141176 0.341176 0.337255
0.141176 0.341176 0.337255
0.141176 0.341176 0.337255
0.141176 0.341176 0.337255
0.141176 0.341176 0.337255
0.141176 0.341176 0.337255
0.141176 0.341176 0.337255
0.141176 0.341176 0.337255
0.141176 0.341176 0.337255
0.141176 0.341176 0.337255
0.141176 0.341176 0.337255
0.141176 0.341176 0.337255
0.141176 0.341176 0.337255
0.141176 0.341176 0.337255
0.141176 0.341176 0.337255
0.141176 0.341176 0.337255
0.141176 0.341176 0.337255
0.141176 0.341176 0.337255
0.141176 0.341176 0.337255
0.141176 0.341176 0.337255
0.141176 0.341176 0.337255
0.141176 0.341176 0.337255
0.141176 0.341176 0.337255
0.141176 0.341176 0.337255
0.141176 0.341176 0.337255
0.141176 0.341176 0.337255
0.141176 0.341176 0.337255
0.141176 0.341176 0.337255
0.141176 0.345098 0.337255
0.141176 0.321569 0.337255
0.137255 0.243137 0.337255
0.141176 0.317647 0.333333
0.141176 0.349020 0.337255
0.141176 0.341176 0.337255
0.141176 0.341176 0.337255
0.141176 0.341176 0.337255
0.141176 0.341176 0.337255
0.141176 0.341176 0.337255
0.141176 0.341176 0.337255
0.141176 0.341176 0.337255
0.141176 0.341176 0.337255
0.141176 0.341176 0.337255
0.141176 0.341176 0.337255
0.141176 0.341176 0.337255
0.141176 0.341176 0.337255
0.141176 0.341176 0.337255
0.141176 0.341176 0.337255
0.141176 0.341176 0.337255
0.141176 0.341176 0.337255
0.141176 0.341176 0.337255
0.141176 0.341176 0.337255
0.141176 0.341176 0.337255
0.141176 0.345098 0.337255
0.141176 0.341176 0.337255
0.141176 0.341176 0.337255
0.141176 0.341176 0.337255
0.141176 0.341176 0.337255
0.141176 0.341176 0.337255
0.141176 0.341176 0.337255
0.141176 0.341176 0.337255
0.141176 0.341176 0.337255
0.141176 0.341176 0.337255
0.141176 0.341176 0.337255
0.141176 0.341176 0.337255
0.141176 0.341176 0.337255
0.141176 0.341176 0.337255
0.141176 0.341176 0.337255
0.141176 0.341176 0.337255
0.141176 0.341176 0.337255
0.141176 0.341176 0.337255
0.141176 0.341176 0.337255
0.141176 0.341176 0.337255
0.141176 0.341176 0.337255
0.141176 0.341176 0.337255
0.141176 0.341176 0.337255
0.141176 0.341176 0.337255
0.141176 0.341176 0.337255
0.141176 0.341176 0.337255
0.141176 0.341176 0.337255
0.141176 0.341176 0.337255
0.141176 0.341176 0.337255
0.141176 0.341176 0.337255
0.141176 0.341176 0.337255
0.141176 0.341176 0.337255
0.141176 0.345098 0.337255
0.141176 0.325490 0.337255
0.141176 0.329412 0.333333
0.141176 0.329412 0.333333
0.141176 0.345098 0.337255
0.141176 0.341176 0.337255
0.141176 0.341176 0.337255
0.141176 0.341176 0.337255
0.141176 0.349020 0.337255
0.141176 0.321569 0.333333
0.137255 0.243137 0.333333
0.137255 0.305882 0.329412
0.141176 0.325490 0.333333
0.137255 0.321569 0.333333
0.137255 0.321569 0.333333
0.137255 0.321569 0.333333
0.137255 0.321569 0.333333
0.137255 0.321569 0.333333
0.137255 0.321569 0.333333
0.137255 0.321569 0.333333
0.137255 0.321569 0.333333
0.137255 0.321569 0.333333
0.137255 0.321569 0.333333
0.137255 0.321569 0.333333
0.137255 0.321569 0.333333
0.137255 0.321569 0.333333
0.137255 0.321569 0.333333
0.137255 0.321569 0.337255
0.137255 0.321569 0.333333
0.137255 0.321569 0.333333
0.137255 0.321569 0.333333
0.137255 0.321569 0.333333
0.141176 0.321569 0.337255
0.137255 0.321569 0.333333
0.137255 0.321569 0.333333
0.137255 0.321569 0.333333
0.137255 0.321569 0.333333
0.141176 0.321569 0.337255
0.137255 0.321569 0.333333
0.137255 0.321569 0.333333
0.137255 0.321569 0.333333
0.137255 0.321569 0.333333
0.137255 0.321569 0.333333
0.137255 0.321569 0.333333
0.137255 0.321569 0.333333
0.137255 0.321569 0.333333
0.137255 0.321569 0.333333
0.137255 0.321569 0.333333
0.137255 0.321569 0.333333
0.137255 0.321569 0.333333
0.137255 0.321569 0.333333
0.137255 0.321569 0.333333
0.137255 0.321569 0.333333
0.137255 0.321569 0.333333
0.137255 0.321569 0.333333
0.137255 0.321569 0.333333
0.137255 0.321569 0.333333
0.137255 0.321569 0.333333
0.137255 0.321569 0.333333
0.137255 0.321569 0.333333
0.137255 0.321569 0.337255
0.137255 0.321569 0.333333
0.137255 0.321569 0.333333
0.137255 0.321569 0.333333
0.137255 0.321569 0.337255
0.137255 0.321569 0.333333
0.137255 0.321569 0.333333
0.137255 0.321569 0.333333
0.137255 0.321569 0.333333
0.137255 0.321569 0.333333
0.137255 0.321569 0.333333
0.137255 0.321569 0.333333
0.141176 0.325490 0.333333
0.137255 0.298039 0.337255
0.137255 0.219608 0.345098
0.137255 0.305882 0.329412
0.137255 0.309804 0.329412
0.137255 0.298039 0.329412
0.137255 0.301961 0.329412
0.137255 0.298039 0.329412
0.137255 0.301961 0.329412
0.137255 0.301961 0.329412
0.137255 0.301961 0.329412
0.137255 0.301961 0.329412
0.137255 0.301961 0.329412
0.137255 0.301961 0.329412
0.137255 0.301961 0.329412
0.137255 0.301961 0.329412
0.137255 0.301961 0.329412
0.137255 0.301961 0.329412
0.137255 0.301961 0.329412
0.137255 0.301961 0.329412
0.137255 0.301961 0.329412
0.137255 0.301961 0.329412
0.137255 0.301961 0.329412
0.137255 0.301961 0.329412
0.137255 0.301961 0.329412
0.137255 0.301961 0.329412
0.137255 0.301961 0.329412
0.137255 0.301961 0.329412
0.137255 0.301961 0.329412
0.137255 0.301961 0.329412
0.137255 0.301961 0.329412
0.137255 0.301961 0.329412
0.137255 0.301961 0.329412
0.137255 0.301961 0.329412
0.137255 0.298039 0.329412
0.137255 0.301961 0.329412
0.137255 0.301961 0.329412
0.137255 0.301961 0.329412
0.137255 0.301961 0.329412
0.137255 0.301961 0.329412
0.137255 0.301961 0.329412
0.137255 0.301961 0.329412
0.137255 0.301961 0.329412
0.137255 0.298039 0.329412
0.137255 0.301961 0.329412
0.137255 0.301961 0.329412
0.137255 0.301961 0.329412
0.137255 0.301961 0.329412
0.137255 0.301961 0.329412
0.137255 0.301961 0.329412
0.137255 0.298039 0.329412
0.137255 0.301961 0.329412
