gm78.cube
#Created by: Our Conversion Website
#Tool Author: Viktor Fejes
#Website: https://google.com
TITLE "gm78"
#LUT size
LUT_3D_SIZE 8
#data domain
DOMAIN_MIN 0.0 0.0 0.0
DOMAIN_MAX 1.0 1.0 1.0
#LUT data points
0.141176 0.345098 0.341176
0.141176 0.345098 0.341176
0.141176 0.345098 0.341176
0.141176 0.345098 0.341176
0.141176 0.345098 0.341176
0.141176 0.345098 0.341176
0.141176 0.345098 0.341176
0.141176 0.349020 0.341176
0.141176 0.337255 0.337255
0.141176 0.341176 0.337255
0.141176 0.349020 0.337255
0.141176 0.349020 0.337255
0.141176 0.349020 0.337255
0.141176 0.349020 0.337255
0.141176 0.352941 0.337255
0.137255 0.266667 0.333333
0.137255 0.215686 0.349020
0.137255 0.235294 0.337255
0.137255 0.235294 0.337255
0.137255 0.235294 0.337255
0.137255 0.235294 0.337255
0.137255 0.235294 0.337255
0.137255 0.235294 0.337255
0.141176 0.164706 0.380392
0.141176 0.149020 0.388235
0.141176 0.152941 0.384314
0.141176 0.152941 0.384314
0.141176 0.152941 0.384314
0.141176 0.152941 0.384314
0.141176 0.152941 0.384314
0.141176 0.152941 0.384314
0.145098 0.070588 0.388235
0.145098 0.047059 0.388235
0.145098 0.047059 0.388235
0.145098 0.043137 0.388235
0.145098 0.043137 0.388235
0.145098 0.050980 0.388235
0.145098 0.050980 0.388235
0.145098 0.050980 0.388235
0.145098 0.015686 0.388235
0.145098 0.027451 0.388235
0.145098 0.027451 0.388235
0.145098 0.027451 0.388235
0.145098 0.027451 0.388235
0.145098 0.027451 0.388235
0.145098 0.027451 0.388235
0.145098 0.027451 0.388235
0.145098 0.031373 0.392157
0.145098 0.019608 0.384314
0.141176 0.019608 0.384314
0.141176 0.019608 0.384314
0.141176 0.019608 0.384314
0.141176 0.019608 0.380392
0.149020 0.019608 0.384314
0.145098 0.019608 0.384314
0.133333 0.019608 0.349020
0.129412 0.058824 0.298039
0.117647 0.047059 0.301961
0.117647 0.047059 0.301961
0.117647 0.047059 0.301961
0.117647 0.047059 0.305882
0.149020 0.050980 0.313725
0.149020 0.050980 0.305882
0.137255 0.054902 0.309804
0.137255 0.337255 0.337255
0.141176 0.333333 0.329412
0.145098 0.333333 0.333333
0.145098 0.337255 0.329412
0.145098 0.333333 0.329412
0.137255 0.333333 0.337255
0.137255 0.333333 0.333333
0.141176 0.286275 0.317647
0.137255 0.317647 0.333333
0.141176 0.341176 0.341176
0.141176 0.341176 0.341176
0.141176 0.345098 0.345098
0.137255 0.345098 0.345098
0.141176 0.341176 0.341176
0.141176 0.341176 0.341176
0.137255 0.266667 0.337255
0.137255 0.231373 0.329412
0.137255 0.243137 0.337255
0.137255 0.243137 0.337255
0.137255 0.243137 0.337255
0.137255 0.243137 0.337255
0.137255 0.243137 0.337255
0.137255 0.243137 0.337255
0.141176 0.156863 0.262745
0.137255 0.152941 0.372549
0.141176 0.149020 0.384314
0.141176 0.160784 0.384314
0.137255 0.152941 0.376471
0.137255 0.149020 0.372549
0.141176 0.152941 0.388235
0.141176 0.149020 0.384314
0.117647 0.070588 0.266667
0.141176 0.043137 0.380392
0.145098 0.047059 0.384314
0.137255 0.043137 0.352941
0.129412 0.047059 0.337255
0.133333 0.043137 0.352941
0.145098 0.043137 0.384314
0.145098 0.047059 0.384314
0.109804 0.019608 0.274510
0.145098 0.031373 0.388235
0.145098 0.027451 0.396078
0.137255 0.027451 0.364706
0.137255 0.027451 0.364706
0.137255 0.027451 0.368627
0.141176 0.027451 0.388235
0.141176 0.031373 0.403922
0.113725 0.023529 0.286275
0.141176 0.019608 0.325490
0.145098 0.019608 0.333333
0.125490 0.019608 0.337255
0.125490 0.015686 0.325490
0.129412 0.019608 0.333333
0.164706 0.019608 0.313725
0.160784 0.019608 0.321569
0.113725 0.015686 0.250980
0.129412 0.058824 0.160784
0.121569 0.062745 0.235294
0.105882 0.062745 0.215686
0.129412 0.058824 0.231373
0.133333 0.058824 0.227451
0.168627 0.062745 0.188235
0.168627 0.062745 0.184314
0.156863 0.062745 0.203922
0.137255 0.341176 0.262745
0.141176 0.345098 0.231373
0.145098 0.341176 0.247059
0.145098 0.345098 0.247059
0.141176 0.345098 0.219608
0.137255 0.349020 0.215686
0.137255 0.341176 0.254902
0.141176 0.301961 0.149020
0.137255 0.333333 0.278431
0.141176 0.349020 0.270588
0.141176 0.341176 0.274510
0.141176 0.345098 0.294118
0.141176 0.352941 0.266667
0.141176 0.356863 0.274510
0.141176 0.352941 0.270588
0.137255 0.262745 0.172549
0.137255 0.215686 0.247059
0.137255 0.243137 0.301961
0.137255 0.235294 0.247059
0.137255 0.243137 0.321569
0.137255 0.231373 0.262745
0.137255 0.239216 0.274510
0.137255 0.239216 0.270588
0.133333 0.152941 0.211765
0.137255 0.145098 0.243137
0.137255 0.149020 0.231373
0.137255 0.156863 0.250980
0.137255 0.145098 0.231373
0.137255 0.149020 0.231373
0.137255 0.156863 0.243137
0.137255 0.149020 0.243137
0.133333 0.090196 0.172549
0.152941 0.043137 0.223529
0.168627 0.047059 0.239216
0.109804 0.047059 0.254902
0.105882 0.023529 0.258824
0.109804 0.047059 0.258824
0.149020 0.047059 0.258824
0.164706 0.047059 0.278431
0.125490 0.015686 0.239216
0.152941 0.027451 0.247059
0.164706 0.027451 0.282353
0.117647 0.027451 0.290196
0.105882 0.027451 0.266667
0.105882 0.027451 0.258824
0.152941 0.027451 0.270588
0.168627 0.023529 0.243137
0.129412 0.023529 0.243137
0.160784 0.015686 0.211765
0.168627 0.015686 0.247059
0.098039 0.015686 0.243137
0.098039 0.011765 0.235294
0.101961 0.015686 0.247059
0.160784 0.015686 0.235294
0.176471 0.015686 0.231373
0.101961 0.015686 0.188235
0.113725 0.054902 0.094118
0.109804 0.050980 0.125490
0.094118 0.054902 0.129412
0.113725 0.050980 0.098039
0.145098 0.050980 0.125490
0.168627 0.047059 0.121569
0.164706 0.054902 0.121569
0.168627 0.050980 0.121569
0.137255 0.360784 0.074510
0.141176 0.349020 0.098039
0.145098 0.349020 0.090196
0.145098 0.349020 0.105882
0.141176 0.352941 0.113725
0.137255 0.352941 0.101961
0.137255 0.349020 0.082353
0.145098 0.305882 0.082353
0.137255 0.345098 0.078431
0.141176 0.356863 0.188235
0.141176 0.352941 0.172549
0.141176 0.360784 0.141176
0.141176 0.364706 0.172549
0.141176 0.360784 0.180392
0.141176 0.349020 0.184314
0.137255 0.270588 0.050980
0.137255 0.239216 0.133333
0.137255 0.243137 0.160784
0.137255 0.239216 0.152941
0.137255 0.247059 0.145098
0.137255 0.247059 0.160784
0.137255 0.247059 0.180392
0.137255 0.250980 0.149020
0.137255 0.172549 0.094118
0.133333 0.129412 0.184314
0.137255 0.145098 0.203922
0.137255 0.145098 0.184314
0.133333 0.141176 0.227451
0.133333 0.145098 0.192157
0.137255 0.149020 0.192157
0.137255 0.145098 0.180392
0.125490 0.074510 0.062745
0.164706 0.023529 0.160784
0.180392 0.023529 0.172549
0.113725 0.054902 0.164706
0.086275 0.031373 0.149020
0.101961 0.043137 0.141176
0.172549 0.043137 0.188235
0.168627 0.043137 0.149020
0.117647 0.023529 0.101961
0.172549 0.023529 0.176471
0.184314 0.023529 0.188235
0.109804 0.019608 0.192157
0.086275 0.023529 0.160784
0.082353 0.019608 0.176471
0.180392 0.027451 0.192157
0.180392 0.027451 0.188235
0.098039 0.019608 0.090196
0.160784 0.015686 0.145098
0.168627 0.015686 0.156863
0.074510 0.011765 0.137255
0.074510 0.015686 0.141176
0.086275 0.015686 0.133333
0.176471 0.015686 0.156863
0.180392 0.015686 0.152941
0.109804 0.015686 0.086275
0.098039 0.047059 0.031373
0.101961 0.047059 0.031373
0.082353 0.047059 0.035294
0.113725 0.047059 0.035294
0.137255 0.047059 0.039216
0.152941 0.047059 0.035294
0.164706 0.047059 0.027451
0.164706 0.043137 0.019608
0.137255 0.352941 0.078431
0.137255 0.352941 0.078431
0.145098 0.352941 0.078431
0.145098 0.352941 0.078431
0.141176 0.352941 0.074510
0.137255 0.352941 0.078431
0.137255 0.352941 0.078431
0.141176 0.305882 0.066667
0.137255 0.337255 0.074510
0.141176 0.360784 0.074510
0.141176 0.352941 0.074510
0.141176 0.352941 0.070588
0.141176 0.352941 0.074510
0.141176 0.352941 0.074510
0.141176 0.356863 0.074510
0.137255 0.270588 0.070588
0.137255 0.235294 0.066667
0.137255 0.247059 0.062745
0.137255 0.250980 0.058824
0.137255 0.247059 0.066667
0.137255 0.243137 0.062745
0.137255 0.247059 0.062745
0.137255 0.250980 0.062745
0.137255 0.168627 0.047059
0.129412 0.141176 0.054902
0.137255 0.152941 0.050980
0.137255 0.160784 0.082353
0.137255 0.156863 0.047059
0.141176 0.152941 0.039216
0.133333 0.160784 0.062745
0.137255 0.152941 0.043137
0.125490 0.082353 0.043137
0.152941 0.039216 0.054902
0.164706 0.043137 0.105882
0.101961 0.047059 0.078431
0.070588 0.019608 0.047059
0.090196 0.039216 0.050980
0.160784 0.050980 0.082353
0.164706 0.047059 0.090196
0.101961 0.023529 0.031373
0.168627 0.019608 0.074510
0.184314 0.019608 0.074510
0.094118 0.019608 0.094118
0.058824 0.019608 0.047059
0.066667 0.023529 0.082353
0.180392 0.019608 0.094118
0.176471 0.015686 0.082353
0.101961 0.015686 0.023529
0.160784 0.011765 0.050980
0.172549 0.011765 0.066667
0.082353 0.007843 0.070588
0.054902 0.007843 0.047059
0.074510 0.007843 0.043137
0.180392 0.011765 0.074510
0.180392 0.011765 0.047059
0.098039 0.011765 0.035294
0.098039 0.039216 0.039216
0.090196 0.039216 0.039216
0.074510 0.039216 0.047059
0.121569 0.039216 0.043137
0.168627 0.039216 0.027451
0.168627 0.039216 0.027451
0.168627 0.039216 0.027451
0.168627 0.039216 0.027451
0.137255 0.349020 0.078431
0.137255 0.345098 0.078431
0.141176 0.352941 0.074510
0.145098 0.349020 0.074510
0.141176 0.352941 0.078431
0.137255 0.352941 0.078431
0.137255 0.349020 0.078431
0.141176 0.313725 0.070588
0.141176 0.341176 0.074510
0.141176 0.360784 0.074510
0.141176 0.356863 0.074510
0.141176 0.356863 0.074510
0.141176 0.360784 0.078431
0.141176 0.364706 0.074510
0.141176 0.352941 0.074510
0.137255 0.278431 0.074510
0.137255 0.235294 0.066667
0.137255 0.239216 0.066667
0.137255 0.250980 0.070588
0.137255 0.250980 0.070588
0.137255 0.243137 0.066667
0.137255 0.243137 0.070588
0.137255 0.250980 0.066667
0.137255 0.172549 0.047059
0.133333 0.141176 0.047059
0.133333 0.152941 0.047059
0.137255 0.156863 0.047059
0.137255 0.156863 0.047059
0.141176 0.152941 0.047059
0.133333 0.160784 0.050980
0.137255 0.160784 0.047059
0.129412 0.086275 0.047059
0.160784 0.019608 0.031373
0.160784 0.039216 0.031373
0.090196 0.043137 0.047059
0.062745 0.019608 0.047059
0.090196 0.039216 0.047059
0.164706 0.039216 0.031373
0.164706 0.039216 0.031373
0.105882 0.019608 0.039216
0.164706 0.015686 0.027451
0.180392 0.015686 0.027451
0.094118 0.015686 0.039216
0.062745 0.015686 0.047059
0.054902 0.015686 0.047059
0.176471 0.011765 0.027451
0.176471 0.015686 0.027451
0.101961 0.015686 0.039216
0.160784 0.011765 0.027451
0.168627 0.011765 0.027451
0.066667 0.011765 0.043137
0.054902 0.011765 0.047059
0.082353 0.011765 0.043137
0.176471 0.011765 0.027451
0.176471 0.011765 0.027451
0.098039 0.011765 0.039216
0.109804 0.035294 0.043137
0.090196 0.031373 0.047059
0.066667 0.031373 0.050980
0.129412 0.031373 0.039216
0.152941 0.031373 0.035294
0.172549 0.031373 0.031373
0.172549 0.031373 0.031373
0.172549 0.035294 0.031373
0.137255 0.352941 0.078431
0.133333 0.349020 0.078431
0.141176 0.349020 0.078431
0.149020 0.349020 0.074510
0.137255 0.352941 0.078431
0.137255 0.352941 0.078431
0.137255 0.349020 0.078431
0.141176 0.301961 0.070588
0.141176 0.341176 0.074510
0.141176 0.352941 0.074510
0.141176 0.345098 0.074510
0.141176 0.345098 0.074510
0.141176 0.349020 0.074510
0.141176 0.352941 0.074510
0.141176 0.352941 0.074510
0.137255 0.282353 0.070588
0.137255 0.231373 0.062745
0.137255 0.254902 0.070588
0.137255 0.247059 0.066667
0.137255 0.254902 0.070588
0.137255 0.247059 0.070588
0.137255 0.250980 0.066667
0.137255 0.239216 0.070588
0.137255 0.172549 0.047059
0.133333 0.145098 0.047059
0.133333 0.160784 0.050980
0.141176 0.156863 0.047059
0.137255 0.152941 0.050980
0.137255 0.156863 0.050980
0.133333 0.160784 0.050980
0.133333 0.160784 0.050980
0.129412 0.082353 0.047059
0.156863 0.023529 0.031373
0.164706 0.039216 0.035294
0.094118 0.050980 0.047059
0.078431 0.031373 0.047059
0.086275 0.039216 0.047059
0.156863 0.050980 0.035294
0.160784 0.043137 0.035294
0.105882 0.023529 0.039216
0.164706 0.015686 0.031373
0.180392 0.015686 0.027451
0.094118 0.023529 0.043137
0.066667 0.015686 0.047059
0.058824 0.015686 0.047059
0.172549 0.023529 0.031373
0.172549 0.019608 0.027451
0.101961 0.011765 0.039216
0.164706 0.007843 0.027451
0.168627 0.007843 0.027451
0.066667 0.007843 0.047059
0.054902 0.007843 0.047059
0.094118 0.007843 0.039216
0.180392 0.007843 0.027451
0.176471 0.007843 0.027451
0.098039 0.011765 0.039216
0.105882 0.050980 0.043137
0.086275 0.047059 0.047059
0.066667 0.039216 0.050980
0.113725 0.050980 0.043137
0.164706 0.050980 0.035294
0.164706 0.047059 0.035294
0.172549 0.039216 0.031373
0.164706 0.047059 0.035294
0.137255 0.345098 0.078431
0.141176 0.349020 0.074510
0.141176 0.349020 0.074510
0.145098 0.341176 0.074510
0.133333 0.345098 0.078431
0.137255 0.349020 0.078431
0.137255 0.349020 0.078431
0.141176 0.294118 0.066667
0.141176 0.337255 0.074510
0.141176 0.352941 0.074510
0.141176 0.356863 0.074510
0.141176 0.345098 0.074510
0.141176 0.352941 0.074510
0.141176 0.352941 0.074510
0.141176 0.352941 0.074510
0.137255 0.278431 0.070588
0.137255 0.231373 0.066667
0.137255 0.247059 0.066667
0.137255 0.250980 0.070588
0.137255 0.247059 0.066667
0.137255 0.243137 0.066667
0.137255 0.247059 0.066667
0.137255 0.247059 0.066667
0.137255 0.168627 0.050980
0.133333 0.145098 0.047059
0.133333 0.152941 0.047059
0.141176 0.152941 0.047059
0.129412 0.149020 0.047059
0.141176 0.156863 0.047059
0.133333 0.156863 0.047059
0.133333 0.152941 0.047059
0.113725 0.070588 0.047059
0.156863 0.027451 0.031373
0.168627 0.035294 0.031373
0.094118 0.054902 0.047059
0.070588 0.023529 0.047059
0.086275 0.039216 0.047059
0.160784 0.050980 0.035294
0.164706 0.043137 0.035294
0.101961 0.011765 0.039216
0.164706 0.015686 0.031373
0.176471 0.011765 0.027451
0.098039 0.023529 0.043137
0.062745 0.015686 0.047059
0.058824 0.011765 0.047059
0.172549 0.019608 0.027451
0.172549 0.019608 0.027451
0.105882 0.015686 0.039216
0.164706 0.015686 0.027451
0.176471 0.015686 0.027451
0.094118 0.015686 0.043137
0.062745 0.015686 0.047059
0.070588 0.015686 0.043137
0.176471 0.015686 0.027451
0.176471 0.015686 0.027451
0.101961 0.015686 0.039216
0.160784 0.015686 0.031373
0.176471 0.015686 0.027451
0.062745 0.015686 0.047059
0.062745 0.015686 0.047059
0.117647 0.015686 0.039216
0.176471 0.015686 0.027451
0.176471 0.015686 0.027451
0.176471 0.015686 0.027451
