gm78.cube
#Created by: Our Conversion Website
#Tool Author: Viktor Fejes
#Website: https://google.com
TITLE "gm78"
#LUT size
LUT_3D_SIZE 4
#data domain
DOMAIN_MIN 0.0 0.0 0.0
DOMAIN_MAX 1.0 1.0 1.0
#LUT data points
0.141176 0.345098 0.341176
0.141176 0.345098 0.341176
0.141176 0.345098 0.341176
0.141176 0.349020 0.341176
0.141176 0.188235 0.364706
0.141176 0.184314 0.364706
0.141176 0.200000 0.356863
0.141176 0.149020 0.392157
0.145098 0.023529 0.388235
0.145098 0.023529 0.392157
0.145098 0.023529 0.388235
0.145098 0.031373 0.392157
0.129412 0.058824 0.298039
0.117647 0.050980 0.301961
0.133333 0.050980 0.325490
0.137255 0.054902 0.309804
0.137255 0.333333 0.192157
0.141176 0.337255 0.196078
0.137255 0.333333 0.176471
0.141176 0.309804 0.133333
0.137255 0.196078 0.266667
0.137255 0.207843 0.243137
0.137255 0.203922 0.215686
0.133333 0.137255 0.164706
0.172549 0.023529 0.172549
0.109804 0.023529 0.282353
0.125490 0.019608 0.243137
0.105882 0.023529 0.164706
0.098039 0.035294 0.070588
0.074510 0.039216 0.058824
0.176471 0.035294 0.054902
0.176471 0.035294 0.086275
0.137255 0.368627 0.074510
0.145098 0.368627 0.074510
0.137255 0.360784 0.074510
0.141176 0.301961 0.066667
0.137255 0.203922 0.058824
0.137255 0.207843 0.062745
0.137255 0.211765 0.062745
0.137255 0.137255 0.047059
0.164706 0.015686 0.031373
0.058824 0.011765 0.047059
0.129412 0.015686 0.035294
0.101961 0.019608 0.039216
0.109804 0.043137 0.043137
0.086275 0.054902 0.043137
0.149020 0.054902 0.031373
0.164706 0.050980 0.031373
0.137255 0.345098 0.078431
0.141176 0.341176 0.074510
0.141176 0.349020 0.074510
0.141176 0.294118 0.066667
0.137255 0.200000 0.054902
0.137255 0.223529 0.062745
0.137255 0.215686 0.058824
0.141176 0.137255 0.043137
0.164706 0.011765 0.031373
0.058824 0.011765 0.047059
0.137255 0.011765 0.035294
0.101961 0.011765 0.039216
0.160784 0.015686 0.031373
0.062745 0.015686 0.047059
0.176471 0.015686 0.027451
0.176471 0.015686 0.027451
