j95ea6.cube
# VEGAS Pro LUT
TITLE "Heat Map"
LUT_3D_SIZE 9
0.40282685 0.00000000 0.15217900
0.70337445 0.00290266 0.44245848
0.63211530 0.00000000 0.70072013
0.20241538 0.00000000 0.76542586
0.00000000 0.33927679 0.82007432
0.00000000 0.79934597 0.76503456
0.33878121 0.87765706 0.34381235
0.54271233 0.77185845 0.07475965
0.48099071 0.67363703 0.05359798
0.42242488 0.00018775 0.17058226
0.74742258 0.00338714 0.50528425
0.56856537 0.00000000 0.71636146
0.14354131 0.00000000 0.77520722
0.00000000 0.41797939 0.82447588
0.01856313 0.84798318 0.72196370
0.40222111 0.86032015 0.27235985
0.53594428 0.75720024 0.06880057
0.48099071 0.67363703 0.05359798
0.46089593 0.00054767 0.20374751
0.77471715 0.00374677 0.56461996
0.49995649 0.00000000 0.72871482
0.10356363 0.04510407 0.78325170
0.00000000 0.49698856 0.82524276
0.06535995 0.87747711 0.66026777
0.45853469 0.84096664 0.20779130
0.53594428 0.75720024 0.06880057
0.48099071 0.67363703 0.05359798
0.51255125 0.00103235 0.24876033
0.77736557 0.00386059 0.61591852
0.42849502 0.00000000 0.73867422
0.06991417 0.10435733 0.79226869
0.00000000 0.57468688 0.82140517
0.12232228 0.89338815 0.59077048
0.49687141 0.82523078 0.16220550
0.53594428 0.75720024 0.06880057
0.48099071 0.67363703 0.05359798
0.57170224 0.00159435 0.30270633
0.74566382 0.00000000 0.64850360
0.35638720 0.00000000 0.74713355
0.04101455 0.17081192 0.80178505
0.00000000 0.64945692 0.81199330
0.18616441 0.89791417 0.51626235
0.49687141 0.82523078 0.16220550
0.53594428 0.75720024 0.06880057
0.48099071 0.67363703 0.05359798
0.63266009 0.00218625 0.36267111
0.70170474 0.00000000 0.67488414
0.28583938 0.00000000 0.75498676
0.01689442 0.24285036 0.81083095
0.00000000 0.71968114 0.79603732
0.24099118 0.89470887 0.45378292
0.49687141 0.82523078 0.16220550
0.53594428 0.75720024 0.06880057
0.48099071 0.67363703 0.05359798
0.68973625 0.00276062 0.42574030
0.64769447 0.00000000 0.69595414
0.21905783 0.00000000 0.76312774
0.00000000 0.31885523 0.81843656
0.00000000 0.78374207 0.77256745
0.24099118 0.89470887 0.45378292
0.49687141 0.82523078 0.16220550
0.53594428 0.75720024 0.06880057
0.48099071 0.67363703 0.05359798
0.73724198 0.00327003 0.48899949
0.58583939 0.00000000 0.71260738
0.15824889 0.00000000 0.77245039
0.00000000 0.39720905 0.82363206
0.00176917 0.82978797 0.74632823
0.24099118 0.89470887 0.45378292
0.49687141 0.82523078 0.16220550
0.53594428 0.75720024 0.06880057
0.48099071 0.67363703 0.05359798
0.76948851 0.00366704 0.54953426
0.51834583 0.00000000 0.72573793
0.11318719 0.03093528 0.78108716
0.00000000 0.47629434 0.82544768
0.00176917 0.82978797 0.74632823
0.24099118 0.89470887 0.45378292
0.49687141 0.82523078 0.16220550
0.53594428 0.75720024 0.06880057
0.48099071 0.67363703 0.05359798
0.40850815 0.00005593 0.15803169
0.67274255 0.00258671 0.40596664
0.66543752 0.00000000 0.68991566
0.23929276 0.00000000 0.76051080
0.00307276 0.29488751 0.81628370
0.00000000 0.76457465 0.78073108
0.30043918 0.88584214 0.38683388
0.54615045 0.78138030 0.07972949
0.47319701 0.66339827 0.05295096
0.40850815 0.00005593 0.15803169
0.72383451 0.00312140 0.46947899
0.60578609 0.00000000 0.70784694
0.17638971 0.00000000 0.76937014
0.00000000 0.37268400 0.82233280
0.00000000 0.82344830 0.75152010
0.36648434 0.87065446 0.31269157
0.53942525 0.76433611 0.07148811
0.47319701 0.66339827 0.05295096
0.43684679 0.00032288 0.18308391
0.76143676 0.00355846 0.53117341
0.53980988 0.00000000 0.72197741
0.12500221 0.01498611 0.77867943
0.00000000 0.45171508 0.82530361
0.03705734 0.86235744 0.69679761
0.42728829 0.85218918 0.24383226
0.53005487 0.74625611 0.06531011
0.47319701 0.66339827 0.05295096
0.48163351 0.00074178 0.22165579
0.77986062 0.00385045 0.58813554
0.46971524 0.00000000 0.73320103
0.08864099 0.06937755 0.78697211
0.00000000 0.53036332 0.82422632
0.08858918 0.88579267 0.63143498
0.47956529 0.83264416 0.18304640
0.53005487 0.74625611 0.06531011
0.47319701 0.66339827 0.05295096
0.53717965 0.00126522 0.27083293
0.76549250 0.00289232 0.63062453
0.39770845 0.00000000 0.74241167
0.05701262 0.13189830 0.79632056
0.00000000 0.60701114 0.81813121
0.14888595 0.89658189 0.55946052
0.51877993 0.81485403 0.13474710
0.53005487 0.74625611 0.06531011
0.47319701 0.66339827 0.05295096
0.59779644 0.00184576 0.32770091
0.72829604 0.00000000 0.66045552
0.32599583 0.00000000 0.75050330
0.03014672 0.20093091 0.80575490
0.00000000 0.68004119 0.80604839
0.21466188 0.89692283 0.48366460
0.51877993 0.81485403 0.13474710
0.53005487 0.74625611 0.06531011
0.47319701 0.66339827 0.05295096
0.65779531 0.00243599 0.38934541
0.67978263 0.00000000 0.68446302
0.25678366 0.00000000 0.75836986
0.00807293 0.27485791 0.81430548
0.00000000 0.74783599 0.78700805
0.28011310 0.88942778 0.40966904
0.51877993 0.81485403 0.13474710
0.53005487 0.74625611 0.06531011
0.47319701 0.66339827 0.05295096
0.71148747 0.00298847 0.45285195
0.62215859 0.00000000 0.70354104
0.19227825 0.00000000 0.76690519
0.00000000 0.35206184 0.82100230
0.00000000 0.80877811 0.76004040
0.28011310 0.88942778 0.40966904
0.51877993 0.81485403 0.13474710
0.53005487 0.74625611 0.06531011
0.47319701 0.66339827 0.05295096
0.75318432 0.00345576 0.51530617
0.55763018 0.00000000 0.71858335
0.13533530 0.00224840 0.77679741
0.00000000 0.43092522 0.82487571
0.02380958 0.85254180 0.71468419
0.28011310 0.88942778 0.40966904
0.51877993 0.81485403 0.13474710
0.53005487 0.74625611 0.06531011
0.47319701 0.66339827 0.05295096
0.41821185 0.00014810 0.16687052
0.63954282 0.00225423 0.36983573
0.69595152 0.00000000 0.67756587
0.27791014 0.00000000 0.75589323
0.01442345 0.25143704 0.81179911
0.00000000 0.72740775 0.79373431
0.26145345 0.89222491 0.43067589
0.54831707 0.79008502 0.08539224
0.48046994 0.67294663 0.05354887
0.41821185 0.00014810 0.16687052
0.69580615 0.00282353 0.43307537
0.64092487 0.00000000 0.69808131
0.21170437 0.00000000 0.76412481
0.00000000 0.32779503 0.81917644
0.00000000 0.79065460 0.76933622
0.32902232 0.87990987 0.35476232
0.54370892 0.77437615 0.07597345
0.46718782 0.65562588 0.05256635
0.41821185 0.00014810 0.16687052
0.74184346 0.00332240 0.49616918
0.57830757 0.00000000 0.71428311
0.15172543 0.00000000 0.77364111
0.00000000 0.40631557 0.82403195
0.01272141 0.84235168 0.73023248
0.39323509 0.86305630 0.28253075
0.53558356 0.75649494 0.06855403
0.46579337 0.65383530 0.05248930
0.45425743 0.00048562 0.19804214
0.77196616 0.00370342 0.55620277
0.51030600 0.00000000 0.72706515
0.10892566 0.03707373 0.78202301
0.00000000 0.48538125 0.82539576
0.05774121 0.87403452 0.66992307
0.45080608 0.84386200 0.21677168
0.52475131 0.73716903 0.06288608
0.46579337 0.65383530 0.05248930
0.50432616 0.00095488 0.24149109
0.78048551 0.00391916 0.61026168
0.43912649 0.00000000 0.73732138
0.07457830 0.09512824 0.79088432
0.00000000 0.56337452 0.82229817
0.11341105 0.89181036 0.60140079
0.49844947 0.82452482 0.16027553
0.52341580 0.73496413 0.06235366
0.46579337 0.65383530 0.05248930
0.56272942 0.00150846 0.29430300
0.75116217 0.00086074 0.64411002
0.36697531 0.00000000 0.74594575
0.04497640 0.16062258 0.80038798
0.00000000 0.63867801 0.81376922
0.17644520 0.89787710 0.52745610
0.53287959 0.80724239 0.11583278
0.52341580 0.73496413 0.06235366
0.46579337 0.65383530 0.05248930
0.62377840 0.00209893 0.35356343
0.70887184 0.00000000 0.67134935
0.29605877 0.00000000 0.75383210
0.02014961 0.23193930 0.80956423
0.00000000 0.70967424 0.79883921
0.24355792 0.89443237 0.45087954
0.53574675 0.80554450 0.11175997
0.52341580 0.73496413 0.06235366
0.46579337 0.65383530 0.05248930
0.68178457 0.00267887 0.41635802
0.65620506 0.00000000 0.69314623
0.22858316 0.00000000 0.76187444
0.00012757 0.30746093 0.81744319
0.00000000 0.77474570 0.77653831
0.31146345 0.88367409 0.37446153
0.53574675 0.80554450 0.11175997
0.52341580 0.73496413 0.06235366
0.46579337 0.65383530 0.05248930
0.73105907 0.00320083 0.47977239
0.59536809 0.00000000 0.71039462
0.16675480 0.00000000 0.77096665
0.00000000 0.38557005 0.82305503
0.00307234 0.83144742 0.74436420
0.31891468 0.88212270 0.36610168
0.53574675 0.80554450 0.11175997
0.52341580 0.73496413 0.06235366
0.46579337 0.65383530 0.05248930
0.43149728 0.00027282 0.17846978
0.66441166 0.00250248 0.39662370
0.72324079 0.00000000 0.66350192
0.31785104 0.00000000 0.75140429
0.02735823 0.20923090 0.80680364
0.00000000 0.68815094 0.80422735
0.22244459 0.89639032 0.47481138
0.54719943 0.79767716 0.09368144
0.48847958 0.68367910 0.05441032
0.43149728 0.00027282 0.17846978
0.66441166 0.00250248 0.39662370
0.67356509 0.00000000 0.68689579
0.24906878 0.00000000 0.75930238
0.00583856 0.28361797 0.81519002
0.00000000 0.75523853 0.78432298
0.29045558 0.88767135 0.39804503
0.54683483 0.78370118 0.08111691
0.47466972 0.66531831 0.05305950
0.43149728 0.00027282 0.17846978
0.71701157 0.00304755 0.46015757
0.61503297 0.00000000 0.70546317
0.18524751 0.00000000 0.76797223
0.00000000 0.36109558 0.82161099
0.00000000 0.81528705 0.75637949
0.35699564 0.87315291 0.32335976
0.54062831 0.76697731 0.07258071
0.46195242 0.64892542 0.05229778
0.43149728 0.00027282 0.17846978
0.75696063 0.00350199 0.52230328
0.54985076 0.00000000 0.72009790
0.13076268 0.00775122 0.77760464
0.00000000 0.44004628 0.82509667
0.03039897 0.85769874 0.70570755
0.41877902 0.85503286 0.25354600
0.53125000 0.74839121 0.06593820
0.45893332 0.64508611 0.05216599
0.47421613 0.00067230 0.21523122
0.77857012 0.00381836 0.58014643
0.48022473 0.00000000 0.73169398
0.09370606 0.06080706 0.78565955
0.00000000 0.51885259 0.82467729
0.08036037 0.88318467 0.64155602
0.47251996 0.83550888 0.19139421
0.51951015 0.72867078 0.06094149
0.45893332 0.64508611 0.05216599
0.52853322 0.00118330 0.26302770
0.76988649 0.00335507 0.62567884
0.40836123 0.00000000 0.74114525
0.06137792 0.12223072 0.79491329
0.00000000 0.59589714 0.81938308
0.13957119 0.89570051 0.57038110
0.51493275 0.81677884 0.13969482
0.51618063 0.72346234 0.05988423
0.45893332 0.64508611 0.05216599
0.58875990 0.00175841 0.31894478
0.73454547 0.00000000 0.65644413
0.33646655 0.00000000 0.74934572
0.03380788 0.19040474 0.80439597
0.00000000 0.66956234 0.80824417
0.20474571 0.89744401 0.49497336
0.54273158 0.80104047 0.10123833
0.51618063 0.72346234 0.05988423
0.45893332 0.64508611 0.05216599
0.64920747 0.00235019 0.38006812
0.68756217 0.00000000 0.68125421
0.26674697 0.00000000 0.75718927
0.01102558 0.26371169 0.81313777
0.00000000 0.73823076 0.79029071
0.27259818 0.89061296 0.41812316
0.54714924 0.79771864 0.09377290
0.51618063 0.72346234 0.05988423
0.45893332 0.64508611 0.05216599
0.70418721 0.00291121 0.44348326
0.63114291 0.00000000 0.70100290
0.20140882 0.00000000 0.76556981
0.00000000 0.34053406 0.82016897
0.00000000 0.80028504 0.76455301
0.33984283 0.87740517 0.34262097
0.54714924 0.79771864 0.09377290
0.51618063 0.72346234 0.05988423
0.45893332 0.64508611 0.05216599
0.44792384 0.00042642 0.19260374
0.68801546 0.00274287 0.42368907
0.74688852 0.00014818 0.64755499
0.35869870 0.00000000 0.74687517
0.04187157 0.16857441 0.80148047
0.00000000 0.64710939 0.81239349
0.18403324 0.89792335 0.51871318
0.53584915 0.80548251 0.11161246
0.49658215 0.69481981 0.05554729
0.44792384 0.00042642 0.19260374
0.68801546 0.00274287 0.42368907
0.70329005 0.00000000 0.67412156
0.28806618 0.00000000 0.75473398
0.01759694 0.24045813 0.81055665
0.00000000 0.71750534 0.79666352
0.25140482 0.89352381 0.44201261
0.54864997 0.79217356 0.08696532
0.48251125 0.67565852 0.05374657
0.44792384 0.00042642 0.19260374
0.68801546 0.00274287 0.42368907
0.64956933 0.00000000 0.69534874
0.22112885 0.00000000 0.76285172
0.00000000 0.31636038 0.81822377
0.00000000 0.78179014 0.77345097
0.31919059 0.88206393 0.36579216
0.54462904 0.77684671 0.07723073
0.46906802 0.65804762 0.05267718
0.44792384 0.00042642 0.19260374
0.73591834 0.00325511 0.48698756
0.58793265 0.00000000 0.71213043
0.16009299 0.00000000 0.77212232
0.00000000 0.39466372 0.82351214
0.00718280 0.83637011 0.73826188
0.38410479 0.86574149 0.29284224
0.53697139 0.75924003 0.06953206
0.45706278 0.64271480 0.05209121
0.44792384 0.00042642 0.19260374
0.76874542 0.00365649 0.54765558
0.52058637 0.00000000 0.72536057
0.11439029 0.02924029 0.78082943
0.00000000 0.47375065 0.82545179
0.05035416 0.87028956 0.67939961
0.44286168 0.84675425 0.22595334
0.52648735 0.74008143 0.06362142
0.45277047 0.63728863 0.05193406
0.49628231 0.00087924 0.23442544
0.78080803 0.00389958 0.60277873
0.44973680 0.00000000 0.73593307
0.07934565 0.08606086 0.78951395
0.00000000 0.55200374 0.82307303
0.10466009 0.88997799 0.61191297
0.49217555 0.82729995 0.16791588
0.51398718 0.72009861 0.05925090
0.45277047 0.63728863 0.05193406
0.55381411 0.00142337 0.28603986
0.75638682 0.00167461 0.63957870
0.37759024 0.00000000 0.74474186
0.04904211 0.15055978 0.79898387
0.00000000 0.62780559 0.81540596
0.16681483 0.89763319 0.53859252
0.52876061 0.80957639 0.12152034
0.50850296 0.71188861 0.05785483
0.45277047 0.63728863 0.05193406
0.61483055 0.00201138 0.34453261
0.71581334 0.00000000 0.66769618
0.30635294 0.00000000 0.75268090
0.02350932 0.22111960 0.80826932
0.00000000 0.69953859 0.80148083
0.23353265 0.89545292 0.46222866
0.54900169 0.79573071 0.08989118
0.50850296 0.71188861 0.05785483
0.45277047 0.63728863 0.05193406
0.67364299 0.00259585 0.40698925
0.66453797 0.00000000 0.69023943
0.23823124 0.00000000 0.76064402
0.00277689 0.29612285 0.81640053
0.00000000 0.76558542 0.78032780
0.30152783 0.88563490 0.38561183
0.54832417 0.79012448 0.08542109
0.50850296 0.71188861 0.05785483
0.45277047 0.63728863 0.05193406
0.46705094 0.00060524 0.20904663
0.70991361 0.00297173 0.45080599
0.72968316 0.00000000 0.65958971
0.40003636 0.00000000 0.74213707
0.05795785 0.12977310 0.79601270
0.00000000 0.60458863 0.81841582
0.14683965 0.89640892 0.56185460
0.51894337 0.81477106 0.13453534
0.50462461 0.70623124 0.05700658
0.46705094 0.00060524 0.20904663
0.70991361 0.00297173 0.45080599
0.72968316 0.00000000 0.65958971
0.32827985 0.00000000 0.75025082
0.03093800 0.19862106 0.80545944
0.00000000 0.67776048 0.80654109
0.21249025 0.89705229 0.48613837
0.54484707 0.79951864 0.09778418
0.49055940 0.68650901 0.05467437
0.46705094 0.00060524 0.20904663
0.70991361 0.00297173 0.45080599
0.68150008 0.00000000 0.68377101
0.25895268 0.00000000 0.75811070
0.00870931 0.27241555 0.81405360
0.00000000 0.74574924 0.78774011
0.28044015 0.88937443 0.40930125
0.54743266 0.78596562 0.08255088
0.47665694 0.66791964 0.05321571
0.46705094 0.00060524 0.20904663
0.70991361 0.00297173 0.45080599
0.62413526 0.00000000 0.70299387
0.19426118 0.00000000 0.76661056
0.00000000 0.34953907 0.82082534
0.00000000 0.80693740 0.76104307
0.34740365 0.87557304 0.33413371
0.54176241 0.76957792 0.07371446
0.46372762 0.65119082 0.05238270
0.46705094 0.00060524 0.20904663
0.75208575 0.00344252 0.51333958
0.55979496 0.00000000 0.71815234
0.13662532 0.00073345 0.77657700
0.00000000 0.42837423 0.82480478
0.02401309 0.85271007 0.71440428
0.41009498 0.85784590 0.26342621
0.53280085 0.75122076 0.06680829
0.45258170 0.63705033 0.05192745
0.46705094 0.00060524 0.20904663
0.77675718 0.00378222 0.57200038
0.49068555 0.00000000 0.73014033
0.09887396 0.05241852 0.78437310
0.00000000 0.50730354 0.82502222
0.07233255 0.88029456 0.65152448
0.46522838 0.83839083 0.19996917
0.52135831 0.73162180 0.06158447
0.44745839 0.63058084 0.05174651
0.52001536 0.00110278 0.25539905
0.77397931 0.00368446 0.62058413
0.41901329 0.00000000 0.73985171
0.06584668 0.11270992 0.79351103
0.00000000 0.58470953 0.82050782
0.13038598 0.89458483 0.58120990
0.50951815 0.81940556 0.14655308
0.50824505 0.71150893 0.05779511
0.44745839 0.63058084 0.05174651
0.57972813 0.00167141 0.31030187
0.74054176 0.00000000 0.65230328
0.34698454 0.00000000 0.74818039
0.03757315 0.17999022 0.80302089
0.00000000 0.65897471 0.81029177
0.19488761 0.89777875 0.50625092
0.53967851 0.80308789 0.10596839
0.50053632 0.70038092 0.05621850
0.44745839 0.63058084 0.05174651
0.64050072 0.00226372 0.37084067
0.69513655 0.00000000 0.67793536
0.27680552 0.00000000 0.75602043
0.01408298 0.25264192 0.81193292
0.00000000 0.72848165 0.79340416
0.26255170 0.89207399 0.42943799
0.54827493 0.78985292 0.08522330
0.50053632 0.70038092 0.05621850
0.44745839 0.63058084 0.05174651
0.48843792 0.00080559 0.22757274
0.72966540 0.00318540 0.47774878
0.71040845 0.00000000 0.67056113
0.44144753 0.00000000 0.73702109
0.07561146 0.09313244 0.79058349
0.00000000 0.56089419 0.82247746
0.11148448 0.89143193 0.60370862
0.49710247 0.82512772 0.16192327
0.51245391 0.71777594 0.05883500
0.48843792 0.00080559 0.22757274
0.72966540 0.00318540 0.47774878
0.71040845 0.00000000 0.67056113
0.36929324 0.00000000 0.74568409
0.04585616 0.15841223 0.80008161
0.00000000 0.63630956 0.81413871
0.17433253 0.89784169 0.52989519
0.53200966 0.80774486 0.11704856
0.49866107 0.69773239 0.05588970
0.48843792 0.00080559 0.22757274
0.72966540 0.00318540 0.47774878
0.71040845 0.00000000 0.67056113
0.29830250 0.00000000 0.75358033
0.02087501 0.22956651 0.80928349
0.00000000 0.70746982 0.79943013
0.24136505 0.89466923 0.45335993
0.54888612 0.79419672 0.08858803
0.48456615 0.67840409 0.05396017
0.48843792 0.00080559 0.22757274
0.72966540 0.00318540 0.47774878
0.65804172 0.00000000 0.69251949
0.23068158 0.00000000 0.76160371
0.00069764 0.30497786 0.81721938
0.00000000 0.77275747 0.77738190
0.30929625 0.88411236 0.37689328
0.54547006 0.77926761 0.07853226
0.47097945 0.66051883 0.05279852
0.48843792 0.00080559 0.22757274
0.72966540 0.00318540 0.47774878
0.59743369 0.00000000 0.70990050
0.16863680 0.00000000 0.77064812
0.00000000 0.38302881 0.82291949
0.00195767 0.83003116 0.74604321
0.37484044 0.86836880 0.30328569
0.53829771 0.76195139 0.07054895
0.45871124 0.64480430 0.05215686
0.48843792 0.00080559 0.22757274
0.76507318 0.00360611 0.53898787
0.53079069 0.00000000 0.72359818
0.11995732 0.02160904 0.77967393
0.00000000 0.46210185 0.82541388
0.04320912 0.86623514 0.68868876
0.43471184 0.84963632 0.23532762
0.52817953 0.74297583 0.06439023
0.44857186 0.63198841 0.05178728
0.48843792 0.00080559 0.22757274
0.78055525 0.00387552 0.59511191
0.46031901 0.00000000 0.73450637
0.08421606 0.07716051 0.78816062
0.00000000 0.54057962 0.82373291
0.09607966 0.88788396 0.62229848
0.48562473 0.83011276 0.17580950
0.51592571 0.72306883 0.05980819
0.44315064 0.62510055 0.05155638
0.54497457 0.00133923 0.27792633
0.76133084 0.00237280 0.63490677
0.38822499 0.00000000 0.74351907
0.05321154 0.14062884 0.79757565
0.00000000 0.61684453 0.81690663
0.15728354 0.89717543 0.54966289
0.52429336 0.81199586 0.12752181
0.50234663 0.70295811 0.05655494
0.44315064 0.62510055 0.05155638
0.60583478 0.00192376 0.33558795
0.72252208 0.00000000 0.66392183
0.31671494 0.00000000 0.75153017
0.02697338 0.21039659 0.80694932
0.00000000 0.68927926 0.80396527
0.22353503 0.89630735 0.47357240
0.54743195 0.79748338 0.09325501
0.49243435 0.68907720 0.05492824
0.44315064 0.62510055 0.05155638
0.51164418 0.00102380 0.24795634
0.74683028 0.00338019 0.50429165
0.68923539 0.00000000 0.68053836
0.41068962 0.00000000 0.74086499
0.09482673 0.05895802 0.78537607
0.00000000 0.51633149 0.82476163
0.07858824 0.88257730 0.64374810
0.47094703 0.83613747 0.19324918
0.51991707 0.72931653 0.06107939
0.51164418 0.00102380 0.24795634
0.74683028 0.00338019 0.50429165
0.68923539 0.00000000 0.68053836
0.41068962 0.00000000 0.74086499
0.06234574 0.12013724 0.79460627
0.00000000 0.59345800 0.81963962
0.13755220 0.89547688 0.57275605
0.51377612 0.81734759 0.14116944
0.50666338 0.70919120 0.05743940
0.51164418 0.00102380 0.24795634
0.74683028 0.00338019 0.50429165
0.68923539 0.00000000 0.68053836
0.33876154 0.00000000 0.74909180
0.03462189 0.18811893 0.80409670
0.00000000 0.66725737 0.80870420
0.20258574 0.89753336 0.49744120
0.54209721 0.80147851 0.10224263
0.49264270 0.68936354 0.05495740
0.51164418 0.00102380 0.24795634
0.74683028 0.00338019 0.50429165
0.68923539 0.00000000 0.68053836
0.26893747 0.00000000 0.75693291
0.01168484 0.26128566 0.81287754
0.00000000 0.73611212 0.79098558
0.27040315 0.89094436 0.42059398
0.54794127 0.78817147 0.08403224
0.47866532 0.67056137 0.05338551
0.51164418 0.00102380 0.24795634
0.74683028 0.00338019 0.50429165
0.63308579 0.00000000 0.70043623
0.20342369 0.00000000 0.76528221
0.00000000 0.33802000 0.81997895
0.00000000 0.79840475 0.76551384
0.33771864 0.87790781 0.34500483
0.54282492 0.77213579 0.07489020
0.46554154 0.65351242 0.05247583
0.51164418 0.00102380 0.24795634
0.74683028 0.00338019 0.50429165
0.56963545 0.00000000 0.71613783
0.14442654 0.00000000 0.77503365
0.00000000 0.41670442 0.82443112
0.01791031 0.84738457 0.72287869
0.40124646 0.86062145 0.27346420
0.53429776 0.75402325 0.06771498
0.45408171 0.63894457 0.05198046
0.51164418 0.00102380 0.24795634
0.77443993 0.00374221 0.56370676
0.50109065 0.00000000 0.72853714
0.10414461 0.04421706 0.78311580
0.00000000 0.49572149 0.82526428
0.06451641 0.87711543 0.66133130
0.45770091 0.84128302 0.20876260
0.52317017 0.73456168 0.06225866
0.44509611 0.62758547 0.05165150
0.51164418 0.00102380 0.24795634
0.77776390 0.00387437 0.61533767
0.42965761 0.00000000 0.73852807
0.07041886 0.10334104 0.79211682
0.00000000 0.57345378 0.82150859
0.12134098 0.89322793 0.59193766
0.50379622 0.82209033 0.15369046
0.51025236 0.71447885 0.05827336
0.44000083 0.62098587 0.05131667
0.57071942 0.00158493 0.30178148
0.74627781 0.00004337 0.64803004
0.35754272 0.00000000 0.74700445
0.04144246 0.16969240 0.80163282
0.00000000 0.64828378 0.81219423
0.18509828 0.89791995 0.51748812
0.53624672 0.80524111 0.11103822
0.49635467 0.69450253 0.05551117
0.44000083 0.62098587 0.05131667
0.53622907 0.00125620 0.26997167
0.76096761 0.00355244 0.53020895
0.66633481 0.00000000 0.68959069
0.37991309 0.00000000 0.74447632
0.11559822 0.02755503 0.78057355
0.00000000 0.47120619 0.82545143
0.04877147 0.86943007 0.68144619
0.44109759 0.84738529 0.22798608
0.52686101 0.74071562 0.06378655
0.53622907 0.00125620 0.26997167
0.76096761 0.00355244 0.53020895
0.66633481 0.00000000 0.68959069
0.37991309 0.00000000 0.74447632
0.08040128 0.08410124 0.78921658
0.00000000 0.54951137 0.82322693
0.10276978 0.88954294 0.61419404
0.49076706 0.82791173 0.16961983
0.51441318 0.72074801 0.05937027
0.53622907 0.00125620 0.26997167
0.76096761 0.00355244 0.53020895
0.66633481 0.00000000 0.68959069
0.37991309 0.00000000 0.74447632
0.04994449 0.14837794 0.79867631
0.00000000 0.62541741 0.81574547
0.16472280 0.89755166 0.54101807
0.52781361 0.81009817 0.12280556
0.50073349 0.70066059 0.05625421
0.53622907 0.00125620 0.26997167
0.76096761 0.00355244 0.53020895
0.66633481 0.00000000 0.68959069
0.30861208 0.00000000 0.75242943
0.02425748 0.21876764 0.80798286
0.00000000 0.69730681 0.80203712
0.23134480 0.89565408 0.46470878
0.54895157 0.79614228 0.09033371
0.48663217 0.68118107 0.05419048
0.53622907 0.00125620 0.26997167
0.76096761 0.00355244 0.53020895
0.66633481 0.00000000 0.68959069
0.24035557 0.00000000 0.76037788
0.00336989 0.29365292 0.81616640
0.00000000 0.76356208 0.78113216
0.29935002 0.88604796 0.38805658
0.54622936 0.78163660 0.07987887
0.47291958 0.66303724 0.05293118
0.53622907 0.00125620 0.26997167
0.76096761 0.00355244 0.53020895
0.60680336 0.00000000 0.70759052
0.17734984 0.00000000 0.76921552
0.00000000 0.37141627 0.82225710
0.00000000 0.82256585 0.75206071
0.36545277 0.87093109 0.31385198
0.53956002 0.76462662 0.07160553
0.46040601 0.64695692 0.05222842
0.53622907 0.00125620 0.26997167
0.76096761 0.00355244 0.53020895
0.54091161 0.00000000 0.72177511
0.12562670 0.01418511 0.77855980
0.00000000 0.45044029 0.82528520
0.03631685 0.86186421 0.69778126
0.42636722 0.85250121 0.24488541
0.52982527 0.74585009 0.06519334
0.44990176 0.63366783 0.05183429
0.53622907 0.00125620 0.26997167
0.77974558 0.00384715 0.58727044
0.47086585 0.00000000 0.73303849
0.08918947 0.06843231 0.78682750
0.00000000 0.52910751 0.82428086
0.08768057 0.88552123 0.63254803
0.47880769 0.83295614 0.18394732
0.51783550 0.72603470 0.06039438
0.44221717 0.62389779 0.05150092
0.53622907 0.00125620 0.26997167
0.76598710 0.00294919 0.63009125
0.39887241 0.00000000 0.74227452
0.05748460 0.13083489 0.79616660
0.00000000 0.60580039 0.81827426
0.14786215 0.89649677 0.56065798
0.51948839 0.81449366 0.13382818
0.50440091 0.70590824 0.05696077
0.43816254 0.61837459 0.05098039
