j95ea6.cube
# VEGAS Pro LUT
TITLE "Heat Map"
LUT_3D_SIZE 5
0.40282685 0.00000000 0.15217900
0.63211530 0.00000000 0.70072013
0.00000000 0.33927679 0.82007432
0.33878121 0.87765706 0.34381235
0.48099071 0.67363703 0.05359798
0.46089593 0.00054767 0.20374751
0.49995649 0.00000000 0.72871482
0.00000000 0.49698856 0.82524276
0.45853469 0.84096664 0.20779130
0.48099071 0.67363703 0.05359798
0.57170224 0.00159435 0.30270633
0.35638720 0.00000000 0.74713355
0.00000000 0.64945692 0.81199330
0.49687141 0.82523078 0.16220550
0.48099071 0.67363703 0.05359798
0.68973625 0.00276062 0.42574030
0.21905783 0.00000000 0.76312774
0.00000000 0.78374207 0.77256745
0.49687141 0.82523078 0.16220550
0.48099071 0.67363703 0.05359798
0.76948851 0.00366704 0.54953426
0.11318719 0.03093528 0.78108716
0.00176917 0.82978797 0.74632823
0.49687141 0.82523078 0.16220550
0.48099071 0.67363703 0.05359798
0.41821185 0.00014810 0.16687052
0.69595152 0.00000000 0.67756587
0.01442345 0.25143704 0.81179911
0.26145345 0.89222491 0.43067589
0.48046994 0.67294663 0.05354887
0.41821185 0.00014810 0.16687052
0.57830757 0.00000000 0.71428311
0.00000000 0.40631557 0.82403195
0.39323509 0.86305630 0.28253075
0.46579337 0.65383530 0.05248930
0.50432616 0.00095488 0.24149109
0.43912649 0.00000000 0.73732138
0.00000000 0.56337452 0.82229817
0.49844947 0.82452482 0.16027553
0.46579337 0.65383530 0.05248930
0.62377840 0.00209893 0.35356343
0.29605877 0.00000000 0.75383210
0.00000000 0.70967424 0.79883921
0.53574675 0.80554450 0.11175997
0.46579337 0.65383530 0.05248930
0.73105907 0.00320083 0.47977239
0.16675480 0.00000000 0.77096665
0.00307234 0.83144742 0.74436420
0.53574675 0.80554450 0.11175997
0.46579337 0.65383530 0.05248930
0.44792384 0.00042642 0.19260374
0.74688852 0.00014818 0.64755499
0.04187157 0.16857441 0.80148047
0.18403324 0.89792335 0.51871318
0.49658215 0.69481981 0.05554729
0.44792384 0.00042642 0.19260374
0.64956933 0.00000000 0.69534874
0.00000000 0.31636038 0.81822377
0.31919059 0.88206393 0.36579216
0.46906802 0.65804762 0.05267718
0.44792384 0.00042642 0.19260374
0.52058637 0.00000000 0.72536057
0.00000000 0.47375065 0.82545179
0.44286168 0.84675425 0.22595334
0.45277047 0.63728863 0.05193406
0.55381411 0.00142337 0.28603986
0.37759024 0.00000000 0.74474186
0.00000000 0.62780559 0.81540596
0.52876061 0.80957639 0.12152034
0.45277047 0.63728863 0.05193406
0.67364299 0.00259585 0.40698925
0.23823124 0.00000000 0.76064402
0.00000000 0.76558542 0.78032780
0.54832417 0.79012448 0.08542109
0.45277047 0.63728863 0.05193406
0.48843792 0.00080559 0.22757274
0.71040845 0.00000000 0.67056113
0.07561146 0.09313244 0.79058349
0.11148448 0.89143193 0.60370862
0.51245391 0.71777594 0.05883500
0.48843792 0.00080559 0.22757274
0.71040845 0.00000000 0.67056113
0.02087501 0.22956651 0.80928349
0.24136505 0.89466923 0.45335993
0.48456615 0.67840409 0.05396017
0.48843792 0.00080559 0.22757274
0.59743369 0.00000000 0.70990050
0.00000000 0.38302881 0.82291949
0.37484044 0.86836880 0.30328569
0.45871124 0.64480430 0.05215686
0.48843792 0.00080559 0.22757274
0.46031901 0.00000000 0.73450637
0.00000000 0.54057962 0.82373291
0.48562473 0.83011276 0.17580950
0.44315064 0.62510055 0.05155638
0.60583478 0.00192376 0.33558795
0.31671494 0.00000000 0.75153017
0.00000000 0.68927926 0.80396527
0.54743195 0.79748338 0.09325501
0.44315064 0.62510055 0.05155638
0.53622907 0.00125620 0.26997167
0.66633481 0.00000000 0.68959069
0.11559822 0.02755503 0.78057355
0.04877147 0.86943007 0.68144619
0.52686101 0.74071562 0.06378655
0.53622907 0.00125620 0.26997167
0.66633481 0.00000000 0.68959069
0.04994449 0.14837794 0.79867631
0.16472280 0.89755166 0.54101807
0.50073349 0.70066059 0.05625421
0.53622907 0.00125620 0.26997167
0.66633481 0.00000000 0.68959069
0.00336989 0.29365292 0.81616640
0.29935002 0.88604796 0.38805658
0.47291958 0.66303724 0.05293118
0.53622907 0.00125620 0.26997167
0.54091161 0.00000000 0.72177511
0.00000000 0.45044029 0.82528520
0.42636722 0.85250121 0.24488541
0.44990176 0.63366783 0.05183429
0.53622907 0.00125620 0.26997167
0.39887241 0.00000000 0.74227452
0.00000000 0.60580039 0.81827426
0.51948839 0.81449366 0.13382818
0.43816254 0.61837459 0.05098039
