j95ea6.cube
# VEGAS Pro LUT
TITLE "Heat Map"
LUT_3D_SIZE 33
0.40282685 0.00000000 0.15217900
0.44223320 0.00037324 0.18771639
0.52001536 0.00110278 0.25539905
0.61434013 0.00200660 0.34404156
0.70337445 0.00290266 0.44245848
0.76528513 0.00360895 0.53946441
0.77397931 0.00368446 0.62058413
0.71618593 0.00000000 0.66749310
0.63211530 0.00000000 0.70072013
0.53023517 0.00000000 0.72369599
0.41901329 0.00000000 0.73985171
0.30691743 0.00000000 0.75261801
0.20241538 0.00000000 0.76542586
0.11965048 0.02202071 0.77973604
0.06584668 0.11270992 0.79351103
0.02369588 0.22053121 0.80819780
0.00000000 0.33927679 0.82007432
0.00000000 0.46273875 0.82541835
0.00000000 0.58470953 0.82050782
0.00000000 0.69898123 0.80162060
0.00000000 0.79934597 0.76503456
0.04359316 0.86646479 0.68818611
0.13038598 0.89458483 0.58120990
0.23298550 0.89550394 0.46284878
0.33878121 0.87765706 0.34381235
0.43516225 0.84947926 0.23481064
0.50951815 0.81940556 0.14655308
0.54900748 0.79583639 0.08998347
0.54271233 0.77185845 0.07475965
0.52808827 0.74281824 0.06434735
0.51076251 0.71523911 0.05839994
0.49596006 0.69395280 0.05544913
0.48099071 0.67363703 0.05359798
0.40564591 0.00002820 0.15523650
0.45264474 0.00047054 0.19665714
0.53453308 0.00124013 0.26843700
0.62947786 0.00215492 0.35939068
0.71564597 0.00303289 0.45833275
0.77120429 0.00369202 0.55407774
0.76686251 0.00304705 0.62913352
0.70430523 0.00000000 0.67362761
0.61682272 0.00000000 0.70498759
0.51288289 0.00000000 0.72664428
0.40095335 0.00000000 0.74202859
0.28950194 0.00000000 0.75457138
0.18699640 0.00000000 0.76770347
0.11028221 0.03509670 0.78172123
0.05833148 0.12893797 0.79589152
0.01805190 0.23892008 0.81037927
0.00000000 0.35883522 0.82146239
0.00000000 0.48247555 0.82541877
0.00000000 0.60363340 0.81852621
0.00000000 0.71610105 0.79706264
0.00000000 0.81367046 0.75730592
0.05587241 0.87312692 0.67230916
0.14603521 0.89633775 0.56279653
0.24999110 0.89369446 0.44360912
0.35512960 0.87363207 0.32545647
0.44883978 0.84458566 0.21904859
0.51851124 0.81499016 0.13509497
0.54868913 0.79246229 0.08719064
0.54085535 0.76748860 0.07279893
0.52518928 0.73789871 0.06306682
0.51076251 0.71523911 0.05839994
0.49596006 0.69395280 0.05544913
0.48099071 0.67363703 0.05359798
0.40991119 0.00006939 0.15935324
0.46394581 0.00057619 0.20637193
0.54938376 0.00138117 0.28196383
0.64439189 0.00230230 0.37494346
0.72713715 0.00315754 0.47412547
0.77578634 0.00376487 0.56832439
0.75889438 0.00203855 0.63726050
0.69178903 0.00000000 0.67942721
0.60111058 0.00000000 0.70900762
0.49532688 0.00000000 0.72943258
0.38290557 0.00000000 0.74413300
0.27231452 0.00000000 0.75653970
0.17202142 0.00000000 0.77008361
0.10120861 0.04874250 0.78380936
0.05111385 0.14557755 0.79828006
0.01270840 0.25756219 0.81247395
0.00000000 0.37848866 0.82266879
0.00000000 0.50214905 0.82514256
0.00000000 0.62233579 0.81617314
0.00000000 0.73284101 0.79203826
0.00000359 0.82745582 0.74901414
0.06882486 0.87891483 0.65591246
0.16203612 0.89743149 0.54413652
0.26702687 0.89144087 0.42439586
0.37118661 0.86937803 0.30740002
0.46190441 0.83967805 0.20385905
0.52656984 0.81077588 0.12448241
0.54809171 0.78889924 0.08454087
0.53879869 0.76300108 0.07095701
0.52441752 0.73661518 0.06275042
0.51076251 0.71523911 0.05839994
0.49596006 0.69395280 0.05544913
0.48099071 0.67363703 0.05359798
0.41553381 0.00012282 0.16448367
0.47604755 0.00068945 0.21681523
0.56447840 0.00152518 0.29593393
0.65899324 0.00244800 0.39065439
0.73775893 0.00327587 0.48979113
0.77894247 0.00382676 0.58215880
0.75010926 0.00068876 0.64497912
0.67867178 0.00000000 0.68490595
0.58501333 0.00000000 0.71279424
0.47760165 0.00000000 0.73207498
0.36490449 0.00000000 0.74617898
0.25538966 0.00000000 0.75853705
0.15752490 0.00000000 0.77258015
0.09243014 0.06293284 0.78598541
0.04419425 0.16260339 0.80066156
0.00766583 0.27643231 0.81446660
0.00000000 0.39821181 0.82367831
0.00000000 0.52173400 0.82457459
0.00000000 0.64079130 0.81343335
0.00000000 0.74917591 0.78653234
0.00883734 0.83822984 0.73584169
0.08239916 0.88386285 0.63903970
0.17833737 0.89790034 0.52527344
0.28404143 0.88877749 0.40525258
0.38690090 0.86492932 0.28968659
0.47430480 0.83479083 0.18928559
0.53364271 0.80679703 0.11475902
0.54722798 0.78515869 0.08203029
0.53655499 0.75840724 0.06923002
0.52441752 0.73661518 0.06275042
0.51076251 0.71523911 0.05839994
0.49596006 0.69395280 0.05544913
0.48099071 0.67363703 0.05359798
0.42242488 0.00018775 0.17058226
0.48886108 0.00080956 0.22794151
0.57972813 0.00167141 0.31030187
0.67319304 0.00259128 0.40647790
0.74742258 0.00338714 0.50528425
0.78058362 0.00387695 0.59553540
0.74054176 0.00000000 0.65230328
0.66498798 0.00000000 0.69007772
0.56856537 0.00000000 0.71636146
0.45974165 0.00000000 0.73458540
0.34698454 0.00000000 0.74818039
0.23876183 0.00000000 0.76057738
0.14354131 0.00000000 0.77520722
0.08394727 0.07764243 0.78823406
0.03757315 0.17999022 0.80302089
0.00292466 0.29550514 0.81634218
0.00000000 0.41797939 0.82447588
0.00000000 0.54120511 0.82369977
0.00000000 0.65897471 0.81029177
0.00000000 0.76508033 0.78052968
0.01856313 0.84798318 0.72196370
0.09654398 0.88800526 0.62173438
0.19488761 0.89777875 0.50625092
0.30098349 0.88573873 0.38622287
0.40222111 0.86032015 0.27235985
0.48598960 0.82995820 0.17537186
0.53967851 0.80308789 0.10596839
0.54611063 0.78125197 0.07965501
0.53594428 0.75720024 0.06880057
0.52441752 0.73661518 0.06275042
0.51076251 0.71523911 0.05839994
0.49596006 0.69395280 0.05544913
0.48099071 0.67363703 0.05359798
0.43049550 0.00026344 0.17760348
0.50229752 0.00093579 0.23970522
0.59504414 0.00181912 0.32502204
0.68690240 0.00273140 0.42236850
0.75603908 0.00349060 0.52055919
0.78062105 0.00391469 0.60840869
0.73022622 0.00000000 0.65924704
0.65077215 0.00000000 0.69495648
0.55180126 0.00000000 0.71972311
0.44178134 0.00000000 0.73697776
0.32918018 0.00000000 0.75015134
0.22246550 0.00000000 0.76267463
0.13189998 0.00636299 0.77740008
0.07576047 0.09284602 0.79054034
0.03125101 0.19771275 0.80534285
0.00000000 0.31475538 0.81808549
0.00000000 0.43776613 0.82504624
0.00000000 0.56053710 0.82250279
0.00000000 0.67686069 0.80673319
0.00000000 0.78052914 0.77401513
0.02912963 0.85675025 0.70742369
0.11120798 0.89137644 0.60404009
0.21163550 0.89710093 0.48711246
0.31780165 0.88235879 0.36735037
0.41709596 0.85558498 0.25546333
0.49690750 0.82521468 0.16216142
0.54462582 0.79968280 0.09815413
0.54475224 0.77719039 0.07741118
0.53594428 0.75720024 0.06880057
0.52441752 0.73661518 0.06275042
0.51076251 0.71523911 0.05839994
0.49596006 0.69395280 0.05544913
0.48099071 0.67363703 0.05359798
0.43965682 0.00034915 0.18550178
0.51626796 0.00106741 0.25206083
0.61033750 0.00196757 0.34004891
0.70003241 0.00286762 0.43828061
0.76351959 0.00358552 0.53557050
0.77570331 0.00378663 0.61826652
0.71919721 0.00000000 0.66582435
0.63605869 0.00000000 0.69955629
0.53475541 0.00000000 0.72289324
0.42375526 0.00000000 0.73926610
0.31152591 0.00000000 0.75210565
0.20653516 0.00000000 0.76484281
0.12216029 0.01868339 0.77923352
0.06787018 0.10851832 0.79288894
0.02522829 0.21574573 0.80761224
0.00000000 0.33415779 0.81968141
0.00000000 0.45754674 0.82537425
0.00000000 0.57970470 0.82096869
0.00000000 0.69442403 0.80274248
0.00000000 0.79549700 0.76697361
0.04048549 0.86456537 0.69226527
0.12633984 0.89401078 0.58600050
0.22852971 0.89590132 0.46790177
0.33444461 0.87867212 0.34867865
0.43147406 0.85075814 0.23904067
0.50700712 0.82059449 0.14969790
0.54843336 0.79661620 0.09135983
0.54436225 0.77611357 0.07685043
0.53594428 0.75720024 0.06880057
0.52441752 0.73661518 0.06275042
0.51076251 0.71523911 0.05839994
0.49596006 0.69395280 0.05544913
0.48099071 0.67363703 0.05359798
0.44981992 0.00044414 0.19423164
0.53068352 0.00120366 0.26496282
0.62551934 0.00211602 0.35533696
0.71249425 0.00299919 0.45416871
0.76977527 0.00367116 0.55027258
0.76881593 0.00325165 0.62692910
0.70748919 0.00000000 0.67204911
0.62088203 0.00000000 0.70389110
0.51746231 0.00000000 0.72588587
0.40569782 0.00000000 0.74146432
0.29405621 0.00000000 0.75405735
0.19100529 0.00000000 0.76709580
0.11271469 0.03160550 0.78118914
0.06027688 0.12463407 0.79526478
0.01950546 0.23406388 0.80981398
0.00000000 0.35368711 0.82111472
0.00000000 0.47729599 0.82544482
0.00000000 0.59868264 0.81908214
0.00000000 0.71163946 0.79830456
0.00000000 0.80995864 0.75938988
0.05257938 0.87146288 0.67653209
0.14188817 0.89594251 0.56765920
0.24551889 0.89421421 0.44866240
0.35086104 0.87471300 0.33025131
0.44530410 0.84587389 0.22313546
0.51623714 0.81613201 0.13802488
0.54880029 0.79336739 0.08791028
0.54436225 0.77611357 0.07685043
0.53594428 0.75720024 0.06880057
0.52441752 0.73661518 0.06275042
0.51076251 0.71523911 0.05839994
0.49596006 0.69395280 0.05544913
0.48099071 0.67363703 0.05359798
0.46089593 0.00054767 0.20374751
0.54545528 0.00134380 0.27836561
0.64050072 0.00226372 0.37084067
0.72419906 0.00312538 0.46998724
0.77471715 0.00374677 0.56461996
0.76106811 0.00233774 0.63516569
0.69513655 0.00000000 0.67793536
0.60527676 0.00000000 0.70797479
0.49995649 0.00000000 0.72871482
0.38764352 0.00000000 0.74358642
0.27680552 0.00000000 0.75602043
0.17591034 0.00000000 0.76944762
0.10356363 0.04510407 0.78325170
0.05298103 0.14116800 0.79765266
0.01408298 0.25264192 0.81193292
0.00000000 0.37331805 0.82237035
0.00000000 0.49698856 0.82524276
0.00000000 0.61744565 0.81682807
0.00000000 0.72848165 0.79340416
0.00000000 0.82388878 0.75124884
0.06535995 0.87747711 0.66026777
0.15780167 0.89720607 0.54905975
0.26255170 0.89207399 0.42943799
0.36699954 0.87051582 0.31211197
0.45853469 0.84096664 0.20779130
0.52454627 0.81186157 0.12718599
0.54869068 0.79247421 0.08719998
0.54436225 0.77611357 0.07685043
0.53594428 0.75720024 0.06880057
0.52441752 0.73661518 0.06275042
0.51076251 0.71523911 0.05839994
0.49596006 0.69395280 0.05544913
0.48099071 0.67363703 0.05359798
0.47279593 0.00065900 0.21400385
0.56049448 0.00148711 0.29222369
0.65519279 0.00240993 0.38651446
0.73505783 0.00324544 0.48569071
0.77825642 0.00381161 0.57856709
0.75249428 0.00107472 0.64299023
0.68217391 0.00000000 0.68349701
0.58927733 0.00000000 0.71182138
0.48227239 0.00000000 0.73139423
0.36962682 0.00000000 0.74564642
0.25980836 0.00000000 0.75800878
0.16128477 0.00000000 0.77191228
0.09470759 0.05915380 0.78540611
0.04598310 0.15809481 0.80003750
0.00896132 0.27145457 0.81395388
0.00000000 0.39302531 0.82343304
0.00000000 0.51659924 0.82475293
0.00000000 0.63596845 0.81419134
0.00000000 0.74492538 0.78802621
0.00642833 0.83549982 0.73937207
0.07877586 0.88264245 0.64351583
0.17402899 0.89783579 0.53024578
0.27957681 0.88951492 0.41027209
0.38280883 0.86611491 0.29430422
0.47111455 0.83607072 0.19305179
0.53188306 0.80781752 0.11722478
0.54869068 0.79247421 0.08719998
0.54436225 0.77611357 0.07685043
0.53594428 0.75720024 0.06880057
0.52441752 0.73661518 0.06275042
0.51076251 0.71523911 0.05839994
0.49596006 0.69395280 0.05544913
0.48099071 0.67363703 0.05359798
0.48543108 0.00077738 0.22495513
0.57571208 0.00163283 0.30649152
0.66950667 0.00255392 0.40231282
0.74498177 0.00335863 0.50123358
0.78030419 0.00386494 0.59206831
0.74312890 0.00000000 0.65041667
0.66863561 0.00000000 0.68874806
0.57291818 0.00000000 0.71544486
0.46444443 0.00000000 0.73393792
0.35168222 0.00000000 0.74765819
0.24309915 0.00000000 0.76003647
0.14716311 0.00000000 0.77450365
0.08614703 0.07372944 0.78763717
0.03928354 0.17538925 0.80240411
0.00414092 0.29047659 0.81586170
0.00000000 0.41278368 0.82428771
0.00000000 0.53610271 0.82396013
0.00000000 0.65422583 0.81115681
0.00000000 0.76094538 0.78215551
0.01592476 0.84551799 0.72567517
0.09277578 0.88699311 0.62631989
0.19051880 0.89786595 0.51126093
0.29654288 0.88657141 0.39120832
0.39823756 0.86154461 0.27687168
0.48299229 0.83122045 0.17896052
0.53362018 0.80681026 0.11479089
0.54869068 0.79247421 0.08719998
0.54436225 0.77611357 0.07685043
0.53594428 0.75720024 0.06880057
0.52441752 0.73661518 0.06275042
0.51076251 0.71523911 0.05839994
0.49596006 0.69395280 0.05544913
0.48099071 0.67363703 0.05359798
0.49871248 0.00090208 0.23655580
0.59101933 0.00178022 0.32112357
0.68335348 0.00269494 0.41819018
0.75388193 0.00346422 0.51657021
0.78077155 0.00390603 0.60507828
0.73300654 0.00000000 0.65745902
0.65455616 0.00000000 0.69370246
0.55623376 0.00000000 0.71885914
0.44650716 0.00000000 0.73635995
0.33384416 0.00000000 0.74963576
0.22671242 0.00000000 0.76211739
0.13450725 0.00322945 0.77694058
0.07788239 0.08880571 0.78992975
0.03288282 0.19302605 0.80473733
0.00000000 0.30968267 0.81764120
0.00000000 0.43256783 0.82491922
0.00000000 0.55547369 0.82284927
0.00000000 0.67219239 0.80770922
0.00000000 0.77651632 0.77577692
0.02627538 0.85454082 0.71130484
0.10730837 0.89056361 0.60872358
0.20721973 0.89733094 0.49214873
0.31339857 0.88327777 0.37229031
0.41323438 0.85683918 0.25985792
0.49411663 0.82645023 0.16556112
0.53362018 0.80681026 0.11479089
0.54869068 0.79247421 0.08719998
0.54436225 0.77611357 0.07685043
0.53594428 0.75720024 0.06880057
0.52441752 0.73661518 0.06275042
0.51076251 0.71523911 0.05839994
0.49596006 0.69395280 0.05544913
0.48099071 0.67363703 0.05359798
0.51255125 0.00103235 0.24876033
0.60632724 0.00192854 0.33607429
0.69664437 0.00283226 0.43410105
0.76166952 0.00356146 0.53165519
0.77736557 0.00386059 0.61591852
0.72216165 0.00000000 0.66413122
0.63997006 0.00000000 0.69837421
0.53925860 0.00000000 0.72207826
0.42849502 0.00000000 0.73867422
0.31614712 0.00000000 0.75159305
0.21068260 0.00000000 0.76426560
0.12469039 0.01538759 0.77873945
0.06991417 0.10435733 0.79226869
0.02678140 0.21097992 0.80702204
0.00000000 0.32904756 0.81927729
0.00000000 0.45235249 0.82531238
0.00000000 0.57468688 0.82140517
0.00000000 0.68984294 0.80383354
0.00000000 0.79161292 0.76887530
0.03742886 0.86260265 0.69630468
0.12232228 0.89338815 0.59077048
0.22408049 0.89626503 0.47295278
0.33009252 0.87966835 0.35356161
0.42774794 0.85203308 0.24330655
0.49687141 0.82523078 0.16220550
0.53362018 0.80681026 0.11479089
0.54869068 0.79247421 0.08719998
0.54436225 0.77611357 0.07685043
0.53594428 0.75720024 0.06880057
0.52441752 0.73661518 0.06275042
0.51076251 0.71523911 0.05839994
0.49596006 0.69395280 0.05544913
0.48099071 0.67363703 0.05359798
0.52685851 0.00116746 0.26152319
0.62154692 0.00207706 0.35129815
0.70929033 0.00296512 0.44999987
0.76825553 0.00364960 0.54644293
0.77070993 0.00343010 0.62469530
0.71062863 0.00000000 0.67044723
0.62491179 0.00000000 0.70277721
0.52202713 0.00000000 0.72511613
0.41044247 0.00000000 0.74089479
0.29862559 0.00000000 0.75354409
0.19504417 0.00000000 0.76649493
0.11516748 0.02815408 0.78066444
0.06224281 0.12035903 0.79463887
0.02097975 0.22922561 0.80924302
0.00000000 0.34854600 0.82075483
0.00000000 0.47211245 0.82545209
0.00000000 0.59371710 0.81961268
0.00000000 0.70715219 0.79951453
0.00000000 0.80621004 0.76143545
0.04933384 0.86973792 0.68071830
0.13776618 0.89550120 0.57250422
0.24104969 0.89470267 0.45371673
0.34657341 0.87577748 0.33506587
0.44172692 0.84716064 0.22726117
0.49687141 0.82523078 0.16220550
0.53362018 0.80681026 0.11479089
0.54869068 0.79247421 0.08719998
0.54436225 0.77611357 0.07685043
0.53594428 0.75720024 0.06880057
0.52441752 0.73661518 0.06275042
0.51076251 0.71523911 0.05839994
0.49596006 0.69395280 0.05544913
0.48099071 0.67363703 0.05359798
0.54154533 0.00130665 0.27479884
0.63658959 0.00222503 0.36674961
0.72120255 0.00309279 0.46584111
0.77355117 0.00372792 0.56088793
0.76318479 0.00261284 0.63304245
0.69844204 0.00000000 0.67642105
0.60941577 0.00000000 0.70692551
0.50457382 0.00000000 0.72798675
0.39238399 0.00000000 0.74303555
0.28131405 0.00000000 0.75550282
0.17983164 0.00000000 0.76881945
0.10593901 0.04150366 0.78270036
0.05486878 0.13678555 0.79702508
0.01547832 0.24773782 0.81138515
0.00000000 0.36815268 0.82205856
0.00000000 0.49182236 0.82532310
0.00000000 0.61253905 0.81745666
0.00000000 0.72409487 0.79473710
0.00000000 0.82028222 0.75344229
0.06193900 0.87598085 0.66458923
0.15358873 0.89693695 0.55396837
0.25807601 0.89267814 0.43448415
0.36278993 0.87163949 0.31684664
0.44525748 0.84589076 0.22318923
0.49687141 0.82523078 0.16220550
0.53362018 0.80681026 0.11479089
0.54869068 0.79247421 0.08719998
0.54436225 0.77611357 0.07685043
0.53594428 0.75720024 0.06880057
0.52441752 0.73661518 0.06275042
0.51076251 0.71523911 0.05839994
0.49596006 0.69395280 0.05544913
0.48099071 0.67363703 0.05359798
0.55652285 0.00144920 0.28854173
0.65136629 0.00237171 0.38238314
0.73229218 0.00321454 0.48157921
0.77746749 0.00379566 0.57494456
0.75482458 0.00143864 0.64097393
0.68563628 0.00000000 0.68206662
0.59351653 0.00000000 0.71083307
0.48693323 0.00000000 0.73070407
0.37435409 0.00000000 0.74511051
0.26424694 0.00000000 0.75748318
0.16507943 0.00000000 0.77125311
0.09700543 0.05541106 0.78483212
0.04779254 0.15361160 0.79941219
0.01027759 0.26649129 0.81343335
0.00000000 0.38784236 0.82317340
0.00000000 0.51145697 0.82491034
0.00000000 0.63112742 0.81492192
0.00000000 0.74064571 0.78948605
0.00408172 0.83269870 0.74285311
0.07519299 0.88136584 0.64796114
0.16973859 0.89772981 0.53520656
0.27510813 0.89022577 0.41529867
0.37869066 0.86728877 0.29894757
0.44525748 0.84589076 0.22318923
0.49687141 0.82523078 0.16220550
0.53362018 0.80681026 0.11479089
0.54869068 0.79247421 0.08719998
0.54436225 0.77611357 0.07685043
0.53594428 0.75720024 0.06880057
0.52441752 0.73661518 0.06275042
0.51076251 0.71523911 0.05839994
0.49596006 0.69395280 0.05544913
0.48099071 0.67363703 0.05359798
0.57170224 0.00159435 0.30270633
0.66578811 0.00251635 0.39815316
0.74247032 0.00332961 0.49716866
0.77991569 0.00385209 0.58856738
0.74566382 0.00000000 0.64850360
0.67224580 0.00000000 0.68739790
0.57724851 0.00000000 0.71451378
0.46913972 0.00000000 0.73328203
0.35638720 0.00000000 0.74713355
0.24745874 0.00000000 0.75949919
0.15082206 0.00000000 0.77380985
0.08836719 0.06985099 0.78704453
0.04101455 0.17081192 0.80178505
0.00537801 0.28546077 0.81537235
0.00000000 0.40758973 0.82408422
0.00000000 0.53099102 0.82419860
0.00000000 0.64945692 0.81199330
0.00000000 0.75677943 0.78374630
0.01334524 0.84298402 0.72934031
0.08904447 0.88592720 0.63087761
0.18616441 0.89791417 0.51626235
0.29209468 0.88737994 0.39620385
0.38275522 0.86613029 0.29436472
0.44525748 0.84589076 0.22318923
0.49687141 0.82523078 0.16220550
0.53362018 0.80681026 0.11479089
0.54869068 0.79247421 0.08719998
0.54436225 0.77611357 0.07685043
0.53594428 0.75720024 0.06880057
0.52441752 0.73661518 0.06275042
0.51076251 0.71523911 0.05839994
0.49596006 0.69395280 0.05544913
0.48099071 0.67363703 0.05359798
0.58699453 0.00174138 0.31724709
0.67976624 0.00265823 0.41401419
0.75164807 0.00343726 0.51256388
0.78080678 0.00389646 0.60171080
0.73573703 0.00000000 0.65564549
0.65830523 0.00000000 0.69242889
0.56064624 0.00000000 0.71798170
0.45122784 0.00000000 0.73573470
0.33851781 0.00000000 0.74911880
0.23098396 0.00000000 0.76156479
0.13713479 0.00013964 0.77649087
0.08002478 0.08479819 0.78932238
0.03453529 0.18836123 0.80412853
0.00078005 0.30462095 0.81718701
0.00000000 0.42736956 0.82477582
0.00000000 0.55039930 0.82317275
0.00000000 0.66750228 0.80865574
0.00000000 0.77247083 0.77750260
0.02347644 0.85226500 0.71514267
0.10344210 0.88969934 0.61338228
0.20281486 0.89752430 0.49717936
0.30898434 0.88417494 0.37724331
0.38275522 0.86613029 0.29436472
0.44525748 0.84589076 0.22318923
0.49687141 0.82523078 0.16220550
0.53362018 0.80681026 0.11479089
0.54869068 0.79247421 0.08719998
0.54436225 0.77611357 0.07685043
0.53594428 0.75720024 0.06880057
0.52441752 0.73661518 0.06275042
0.51076251 0.71523911 0.05839994
0.49596006 0.69395280 0.05544913
0.48099071 0.67363703 0.05359798
0.60231084 0.00188953 0.33211851
0.69321173 0.00279658 0.42992067
0.75973648 0.00353676 0.52771938
0.77896541 0.00390580 0.61353987
0.72507858 0.00000000 0.66241354
0.64384890 0.00000000 0.69717354
0.54374409 0.00000000 0.72125071
0.43323201 0.00000000 0.73807591
0.32078040 0.00000000 0.75108004
0.21485704 0.00000000 0.76369399
0.12724078 0.01213377 0.77825409
0.07197864 0.10022739 0.79165065
0.02835520 0.20623425 0.80642742
0.00000000 0.32394657 0.81886226
0.00000000 0.44715655 0.82523304
0.00000000 0.56965637 0.82181764
0.00000000 0.68523836 0.80489397
0.00000000 0.78769451 0.77073979
0.03442398 0.86057597 0.70030373
0.11833455 0.89271653 0.59551871
0.21963860 0.89659452 0.47800118
0.31334099 0.88328964 0.37235492
0.38275522 0.86613029 0.29436472
0.44525748 0.84589076 0.22318923
0.49687141 0.82523078 0.16220550
0.53362018 0.80681026 0.11479089
0.54869068 0.79247421 0.08719998
0.54436225 0.77611357 0.07685043
0.53594428 0.75720024 0.06880057
0.52441752 0.73661518 0.06275042
0.51076251 0.71523911 0.05839994
0.49596006 0.69395280 0.05544913
0.48099071 0.67363703 0.05359798
0.61756235 0.00203807 0.34727505
0.70603573 0.00293069 0.44582707
0.76664674 0.00362737 0.54258960
0.77254391 0.00358185 0.62243187
0.71372300 0.00000000 0.66882181
0.62891132 0.00000000 0.70164585
0.52657664 0.00000000 0.72433484
0.41518673 0.00000000 0.74031979
0.30320942 0.00000000 0.75303137
0.19911246 0.00000000 0.76590067
0.11764060 0.02474290 0.78014737
0.06422926 0.11611331 0.79401404
0.02247475 0.22440572 0.80866659
0.00000000 0.34341237 0.82038289
0.00000000 0.46692544 0.82544076
0.00000000 0.58873713 0.82011813
0.00000000 0.70263970 0.80069286
0.00000000 0.80242527 0.76344281
0.04613652 0.86795127 0.68486714
0.13367046 0.89501309 0.57733047
0.23658428 0.89515924 0.45877147
0.31334099 0.88328964 0.37235492
0.38275522 0.86613029 0.29436472
0.44525748 0.84589076 0.22318923
0.49687141 0.82523078 0.16220550
0.53362018 0.80681026 0.11479089
0.54869068 0.79247421 0.08719998
0.54436225 0.77611357 0.07685043
0.53594428 0.75720024 0.06880057
0.52441752 0.73661518 0.06275042
0.51076251 0.71523911 0.05839994
0.49596006 0.69395280 0.05544913
0.48099071 0.67363703 0.05359798
0.63266009 0.00218625 0.36267111
0.71814936 0.00305980 0.46168783
0.77228999 0.00370834 0.55712903
0.76524389 0.00286332 0.63089055
0.70170474 0.00000000 0.67488414
0.61352694 0.00000000 0.70585966
0.50917828 0.00000000 0.72724807
0.39712650 0.00000000 0.74248010
0.28583938 0.00000000 0.75498676
0.18378471 0.00000000 0.76819885
0.10833474 0.03794176 0.78215563
0.05677707 0.13243067 0.79639751
0.01689442 0.24285036 0.81083095
0.00000000 0.36299306 0.82173377
0.00000000 0.48665094 0.82538384
0.00000000 0.60761625 0.81805909
0.00000000 0.71968114 0.79603732
0.00000000 0.81663781 0.75559652
0.05856271 0.87442529 0.66887641
0.14939852 0.89662343 0.55886120
0.24099118 0.89470887 0.45378292
0.31334099 0.88328964 0.37235492
0.38275522 0.86613029 0.29436472
0.44525748 0.84589076 0.22318923
0.49687141 0.82523078 0.16220550
0.53362018 0.80681026 0.11479089
0.54869068 0.79247421 0.08719998
0.54436225 0.77611357 0.07685043
0.53594428 0.75720024 0.06880057
0.52441752 0.73661518 0.06275042
0.51076251 0.71523911 0.05839994
0.49596006 0.69395280 0.05544913
0.48099071 0.67363703 0.05359798
0.64751530 0.00233334 0.37826121
0.72946370 0.00318317 0.47745743
0.77657729 0.00377893 0.57129210
0.75709969 0.00178000 0.63892984
0.68905824 0.00000000 0.68061459
0.59773028 0.00000000 0.70982909
0.49158353 0.00000000 0.73000431
0.37908575 0.00000000 0.74457103
0.26870471 0.00000000 0.75696009
0.16890824 0.00000000 0.77060246
0.09932364 0.05170506 0.78426367
0.04962256 0.14915422 0.79878587
0.01161465 0.26154292 0.81290525
0.00000000 0.38266337 0.82289970
0.00000000 0.50630778 0.82504708
0.00000000 0.62626839 0.81562531
0.00000000 0.73633736 0.79091215
0.00179857 0.82982600 0.74628377
0.07165123 0.88003236 0.65237522
0.16546737 0.89758188 0.54015452
0.24099118 0.89470887 0.45378292
0.31334099 0.88328964 0.37235492
0.38275522 0.86613029 0.29436472
0.44525748 0.84589076 0.22318923
0.49687141 0.82523078 0.16220550
0.53362018 0.80681026 0.11479089
0.54869068 0.79247421 0.08719998
0.54436225 0.77611357 0.07685043
0.53594428 0.75720024 0.06880057
0.52441752 0.73661518 0.06275042
0.51076251 0.71523911 0.05839994
0.49596006 0.69395280 0.05544913
