lut.cube
#Created by: Our Conversion Website
#Tool Author: Viktor Fejes
#Website: https://google.com
TITLE "lut"
#LUT size
LUT_3D_SIZE 64
#data domain
DOMAIN_MIN 0.0 0.0 0.0
DOMAIN_MAX 1.0 1.0 1.0
#LUT data points
0.000000 0.000000 0.000000
0.011765 0.000000 0.015686
0.023529 0.000000 0.031373
0.035294 0.000000 0.047059
0.047059 0.000000 0.062745
0.054902 0.000000 0.078431
0.066667 0.000000 0.094118
0.078431 0.000000 0.109804
0.090196 0.000000 0.125490
0.101961 0.000000 0.141176
0.113725 0.000000 0.156863
0.125490 0.000000 0.172549
0.137255 0.000000 0.188235
0.145098 0.000000 0.203922
0.156863 0.000000 0.219608
0.168627 0.000000 0.235294
0.184314 0.000000 0.254902
0.196078 0.000000 0.270588
0.207843 0.000000 0.286275
0.215686 0.000000 0.301961
0.227451 0.000000 0.317647
0.239216 0.000000 0.333333
0.250980 0.000000 0.349020
0.262745 0.000000 0.364706
0.274510 0.000000 0.380392
0.286275 0.000000 0.396078
0.298039 0.000000 0.411765
0.305882 0.000000 0.427451
0.317647 0.000000 0.443137
0.329412 0.000000 0.458824
0.341176 0.000000 0.474510
0.352941 0.000000 0.490196
0.368627 0.000000 0.509804
0.376471 0.000000 0.525490
0.388235 0.000000 0.541176
0.400000 0.000000 0.556863
0.411765 0.000000 0.572549
0.423529 0.000000 0.588235
0.435294 0.000000 0.603922
0.447059 0.000000 0.619608
0.458824 0.000000 0.635294
0.470588 0.000000 0.650980
0.478431 0.000000 0.666667
0.490196 0.000000 0.682353
0.501961 0.000000 0.698039
0.513725 0.000000 0.713725
0.525490 0.000000 0.729412
0.537255 0.000000 0.745098
0.549020 0.000000 0.764706
0.560784 0.000000 0.780392
0.572549 0.000000 0.796078
0.584314 0.000000 0.811765
0.596078 0.000000 0.827451
0.607843 0.000000 0.843137
0.619608 0.000000 0.858824
0.631373 0.000000 0.874510
0.639216 0.000000 0.890196
0.650980 0.000000 0.905882
0.662745 0.000000 0.921569
0.674510 0.000000 0.937255
0.686275 0.000000 0.952941
0.698039 0.000000 0.968627
0.709804 0.000000 0.984314
0.721569 0.000000 1.000000
0.000000 0.015686 0.011765
0.000000 0.003922 0.015686
0.007843 0.000000 0.031373
0.019608 0.000000 0.047059
0.031373 0.000000 0.062745
0.039216 0.000000 0.078431
0.050980 0.000000 0.094118
0.062745 0.000000 0.109804
0.074510 0.000000 0.125490
0.086275 0.000000 0.141176
0.098039 0.000000 0.156863
0.109804 0.000000 0.172549
0.121569 0.000000 0.188235
0.129412 0.000000 0.203922
0.141176 0.000000 0.219608
0.152941 0.000000 0.235294
0.168627 0.000000 0.254902
0.180392 0.000000 0.270588
0.192157 0.000000 0.286275
0.200000 0.000000 0.301961
0.211765 0.000000 0.317647
0.223529 0.000000 0.333333
0.235294 0.000000 0.349020
0.247059 0.000000 0.364706
0.258824 0.000000 0.380392
0.270588 0.000000 0.396078
0.282353 0.000000 0.411765
0.290196 0.000000 0.427451
0.301961 0.000000 0.443137
0.313725 0.000000 0.458824
0.325490 0.000000 0.474510
0.337255 0.000000 0.490196
0.352941 0.000000 0.509804
0.360784 0.000000 0.525490
0.372549 0.000000 0.541176
0.384314 0.000000 0.556863
0.396078 0.000000 0.572549
0.407843 0.000000 0.588235
0.419608 0.000000 0.603922
0.431373 0.000000 0.619608
0.443137 0.000000 0.635294
0.454902 0.000000 0.650980
0.462745 0.000000 0.666667
0.474510 0.000000 0.682353
0.486275 0.000000 0.698039
0.498039 0.000000 0.713725
0.509804 0.000000 0.729412
0.521569 0.000000 0.745098
0.533333 0.000000 0.764706
0.545098 0.000000 0.780392
0.556863 0.000000 0.796078
0.568627 0.000000 0.811765
0.580392 0.000000 0.827451
0.592157 0.000000 0.843137
0.603922 0.000000 0.858824
0.615686 0.000000 0.874510
0.623529 0.000000 0.890196
0.635294 0.000000 0.905882
0.647059 0.000000 0.921569
0.658824 0.000000 0.937255
0.670588 0.000000 0.952941
0.682353 0.000000 0.968627
0.694118 0.000000 0.984314
0.705882 0.000000 1.000000
0.000000 0.031373 0.023529
0.000000 0.023529 0.031373
0.000000 0.007843 0.031373
0.003922 0.000000 0.047059
0.015686 0.000000 0.062745
0.023529 0.000000 0.078431
0.035294 0.000000 0.094118
0.047059 0.000000 0.109804
0.058824 0.000000 0.125490
0.070588 0.000000 0.141176
0.082353 0.000000 0.156863
0.094118 0.000000 0.172549
0.105882 0.000000 0.188235
0.113725 0.000000 0.203922
0.125490 0.000000 0.219608
0.137255 0.000000 0.235294
0.152941 0.000000 0.254902
0.164706 0.000000 0.270588
0.176471 0.000000 0.286275
0.184314 0.000000 0.301961
0.196078 0.000000 0.317647
0.207843 0.000000 0.333333
0.219608 0.000000 0.349020
0.231373 0.000000 0.364706
0.243137 0.000000 0.380392
0.254902 0.000000 0.396078
0.266667 0.000000 0.411765
0.274510 0.000000 0.427451
0.286275 0.000000 0.443137
0.298039 0.000000 0.458824
0.309804 0.000000 0.474510
0.321569 0.000000 0.490196
0.337255 0.000000 0.509804
0.345098 0.000000 0.525490
0.356863 0.000000 0.541176
0.368627 0.000000 0.556863
0.380392 0.000000 0.572549
0.392157 0.000000 0.588235
0.403922 0.000000 0.603922
0.415686 0.000000 0.619608
0.427451 0.000000 0.635294
0.439216 0.000000 0.650980
0.447059 0.000000 0.666667
0.458824 0.000000 0.682353
0.470588 0.000000 0.698039
0.482353 0.000000 0.713725
0.494118 0.000000 0.729412
0.505882 0.000000 0.745098
0.517647 0.000000 0.764706
0.529412 0.000000 0.780392
0.541176 0.000000 0.796078
0.552941 0.000000 0.811765
0.564706 0.000000 0.827451
0.576471 0.000000 0.843137
0.588235 0.000000 0.858824
0.600000 0.000000 0.874510
0.607843 0.000000 0.890196
0.619608 0.000000 0.905882
0.631373 0.000000 0.921569
0.643137 0.000000 0.937255
0.654902 0.000000 0.952941
0.666667 0.000000 0.968627
0.678431 0.000000 0.984314
0.690196 0.000000 1.000000
0.000000 0.047059 0.035294
0.000000 0.043137 0.047059
0.000000 0.027451 0.047059
0.000000 0.011765 0.047059
0.000000 0.000000 0.062745
0.007843 0.000000 0.078431
0.019608 0.000000 0.094118
0.031373 0.000000 0.109804
0.043137 0.000000 0.125490
0.054902 0.000000 0.141176
0.066667 0.000000 0.156863
0.078431 0.000000 0.172549
0.090196 0.000000 0.188235
0.098039 0.000000 0.203922
0.109804 0.000000 0.219608
0.121569 0.000000 0.235294
0.137255 0.000000 0.254902
0.149020 0.000000 0.270588
0.160784 0.000000 0.286275
0.168627 0.000000 0.301961
0.180392 0.000000 0.317647
0.192157 0.000000 0.333333
0.203922 0.000000 0.349020
0.215686 0.000000 0.364706
0.227451 0.000000 0.380392
0.239216 0.000000 0.396078
0.250980 0.000000 0.411765
0.258824 0.000000 0.427451
0.270588 0.000000 0.443137
0.282353 0.000000 0.458824
0.294118 0.000000 0.474510
0.305882 0.000000 0.490196
0.321569 0.000000 0.509804
0.329412 0.000000 0.525490
0.341176 0.000000 0.541176
0.352941 0.000000 0.556863
0.364706 0.000000 0.572549
0.376471 0.000000 0.588235
0.388235 0.000000 0.603922
0.400000 0.000000 0.619608
0.411765 0.000000 0.635294
0.423529 0.000000 0.650980
0.431373 0.000000 0.666667
0.443137 0.000000 0.682353
0.454902 0.000000 0.698039
0.466667 0.000000 0.713725
0.478431 0.000000 0.729412
0.490196 0.000000 0.745098
0.501961 0.000000 0.764706
0.513725 0.000000 0.780392
0.525490 0.000000 0.796078
0.537255 0.000000 0.811765
0.549020 0.000000 0.827451
0.560784 0.000000 0.843137
0.572549 0.000000 0.858824
0.584314 0.000000 0.874510
0.592157 0.000000 0.890196
0.603922 0.000000 0.905882
0.615686 0.000000 0.921569
0.627451 0.000000 0.937255
0.639216 0.000000 0.952941
0.650980 0.000000 0.968627
0.662745 0.000000 0.984314
0.674510 0.000000 1.000000
0.000000 0.062745 0.047059
0.000000 0.062745 0.062745
0.000000 0.047059 0.062745
0.000000 0.031373 0.062745
0.000000 0.015686 0.062745
0.000000 0.007843 0.078431
0.003922 0.000000 0.094118
0.015686 0.000000 0.109804
0.027451 0.000000 0.125490
0.039216 0.000000 0.141176
0.050980 0.000000 0.156863
0.062745 0.000000 0.172549
0.074510 0.000000 0.188235
0.082353 0.000000 0.203922
0.094118 0.000000 0.219608
0.105882 0.000000 0.235294
0.121569 0.000000 0.254902
0.133333 0.000000 0.270588
0.145098 0.000000 0.286275
0.152941 0.000000 0.301961
0.164706 0.000000 0.317647
0.176471 0.000000 0.333333
0.188235 0.000000 0.349020
0.200000 0.000000 0.364706
0.211765 0.000000 0.380392
0.223529 0.000000 0.396078
0.235294 0.000000 0.411765
0.243137 0.000000 0.427451
0.254902 0.000000 0.443137
0.266667 0.000000 0.458824
0.278431 0.000000 0.474510
0.290196 0.000000 0.490196
0.305882 0.000000 0.509804
0.313725 0.000000 0.525490
0.325490 0.000000 0.541176
0.337255 0.000000 0.556863
0.349020 0.000000 0.572549
0.360784 0.000000 0.588235
0.372549 0.000000 0.603922
0.384314 0.000000 0.619608
0.396078 0.000000 0.635294
0.407843 0.000000 0.650980
0.415686 0.000000 0.666667
0.427451 0.000000 0.682353
0.439216 0.000000 0.698039
0.450980 0.000000 0.713725
0.462745 0.000000 0.729412
0.474510 0.000000 0.745098
0.486275 0.000000 0.764706
0.498039 0.000000 0.780392
0.509804 0.000000 0.796078
0.521569 0.000000 0.811765
0.533333 0.000000 0.827451
0.545098 0.000000 0.843137
0.556863 0.000000 0.858824
0.568627 0.000000 0.874510
0.576471 0.000000 0.890196
0.588235 0.000000 0.905882
0.600000 0.000000 0.921569
0.611765 0.000000 0.937255
0.623529 0.000000 0.952941
0.635294 0.000000 0.968627
0.647059 0.000000 0.984314
0.658824 0.000000 1.000000
0.000000 0.078431 0.054902
0.000000 0.078431 0.070588
0.000000 0.070588 0.078431
0.000000 0.054902 0.078431
0.000000 0.039216 0.078431
0.000000 0.023529 0.078431
0.000000 0.011765 0.094118
0.000000 0.000000 0.109804
0.011765 0.000000 0.125490
0.023529 0.000000 0.141176
0.035294 0.000000 0.156863
0.047059 0.000000 0.172549
0.058824 0.000000 0.188235
0.066667 0.000000 0.203922
0.078431 0.000000 0.219608
0.090196 0.000000 0.235294
0.105882 0.000000 0.254902
0.117647 0.000000 0.270588
0.129412 0.000000 0.286275
0.137255 0.000000 0.301961
0.149020 0.000000 0.317647
0.160784 0.000000 0.333333
0.172549 0.000000 0.349020
0.184314 0.000000 0.364706
0.196078 0.000000 0.380392
0.207843 0.000000 0.396078
0.219608 0.000000 0.411765
0.227451 0.000000 0.427451
0.239216 0.000000 0.443137
0.250980 0.000000 0.458824
0.262745 0.000000 0.474510
0.274510 0.000000 0.490196
0.290196 0.000000 0.509804
0.298039 0.000000 0.525490
0.309804 0.000000 0.541176
0.321569 0.000000 0.556863
0.333333 0.000000 0.572549
0.345098 0.000000 0.588235
0.356863 0.000000 0.603922
0.368627 0.000000 0.619608
0.380392 0.000000 0.635294
0.392157 0.000000 0.650980
0.400000 0.000000 0.666667
0.411765 0.000000 0.682353
0.423529 0.000000 0.698039
0.435294 0.000000 0.713725
0.447059 0.000000 0.729412
0.458824 0.000000 0.745098
0.470588 0.000000 0.764706
0.482353 0.000000 0.780392
0.494118 0.000000 0.796078
0.505882 0.000000 0.811765
0.517647 0.000000 0.827451
0.529412 0.000000 0.843137
0.541176 0.000000 0.858824
0.552941 0.000000 0.874510
0.560784 0.000000 0.890196
0.572549 0.000000 0.905882
0.584314 0.000000 0.921569
0.596078 0.000000 0.937255
0.607843 0.000000 0.952941
0.619608 0.000000 0.968627
0.631373 0.000000 0.984314
0.643137 0.000000 1.000000
0.000000 0.094118 0.066667
0.000000 0.094118 0.082353
0.000000 0.090196 0.094118
0.000000 0.074510 0.094118
0.000000 0.058824 0.094118
0.000000 0.043137 0.094118
0.000000 0.027451 0.094118
0.000000 0.015686 0.109804
0.000000 0.003922 0.125490
0.007843 0.000000 0.141176
0.019608 0.000000 0.156863
0.031373 0.000000 0.172549
0.043137 0.000000 0.188235
0.050980 0.000000 0.203922
0.062745 0.000000 0.219608
0.074510 0.000000 0.235294
0.090196 0.000000 0.254902
0.101961 0.000000 0.270588
0.113725 0.000000 0.286275
0.121569 0.000000 0.301961
0.133333 0.000000 0.317647
0.145098 0.000000 0.333333
0.156863 0.000000 0.349020
0.168627 0.000000 0.364706
0.180392 0.000000 0.380392
0.192157 0.000000 0.396078
0.203922 0.000000 0.411765
0.211765 0.000000 0.427451
0.223529 0.000000 0.443137
0.235294 0.000000 0.458824
0.247059 0.000000 0.474510
0.258824 0.000000 0.490196
0.274510 0.000000 0.509804
0.282353 0.000000 0.525490
0.294118 0.000000 0.541176
0.305882 0.000000 0.556863
0.317647 0.000000 0.572549
0.329412 0.000000 0.588235
0.341176 0.000000 0.603922
0.352941 0.000000 0.619608
0.364706 0.000000 0.635294
0.376471 0.000000 0.650980
0.384314 0.000000 0.666667
0.396078 0.000000 0.682353
0.407843 0.000000 0.698039
0.419608 0.000000 0.713725
0.431373 0.000000 0.729412
0.443137 0.000000 0.745098
0.454902 0.000000 0.764706
0.466667 0.000000 0.780392
0.478431 0.000000 0.796078
0.490196 0.000000 0.811765
0.501961 0.000000 0.827451
0.513725 0.000000 0.843137
0.525490 0.000000 0.858824
0.537255 0.000000 0.874510
0.545098 0.000000 0.890196
0.556863 0.000000 0.905882
0.568627 0.000000 0.921569
0.580392 0.000000 0.937255
0.592157 0.000000 0.952941
0.603922 0.000000 0.968627
0.615686 0.000000 0.984314
0.627451 0.000000 1.000000
0.000000 0.109804 0.078431
0.000000 0.109804 0.094118
0.000000 0.109804 0.109804
0.000000 0.094118 0.109804
0.000000 0.078431 0.109804
0.000000 0.062745 0.109804
0.000000 0.047059 0.109804
0.000000 0.031373 0.109804
0.000000 0.019608 0.125490
0.000000 0.007843 0.141176
0.003922 0.000000 0.156863
0.015686 0.000000 0.172549
0.027451 0.000000 0.188235
0.035294 0.000000 0.203922
0.047059 0.000000 0.219608
0.058824 0.000000 0.235294
0.074510 0.000000 0.254902
0.086275 0.000000 0.270588
0.098039 0.000000 0.286275
0.105882 0.000000 0.301961
0.117647 0.000000 0.317647
0.129412 0.000000 0.333333
0.141176 0.000000 0.349020
0.152941 0.000000 0.364706
0.164706 0.000000 0.380392
0.176471 0.000000 0.396078
0.188235 0.000000 0.411765
0.196078 0.000000 0.427451
0.207843 0.000000 0.443137
0.219608 0.000000 0.458824
0.231373 0.000000 0.474510
0.243137 0.000000 0.490196
0.258824 0.000000 0.509804
0.266667 0.000000 0.525490
0.278431 0.000000 0.541176
0.290196 0.000000 0.556863
0.301961 0.000000 0.572549
0.313725 0.000000 0.588235
0.325490 0.000000 0.603922
0.337255 0.000000 0.619608
0.349020 0.000000 0.635294
0.360784 0.000000 0.650980
0.368627 0.000000 0.666667
0.380392 0.000000 0.682353
0.392157 0.000000 0.698039
0.403922 0.000000 0.713725
0.415686 0.000000 0.729412
0.427451 0.000000 0.745098
0.439216 0.000000 0.764706
0.450980 0.000000 0.780392
0.462745 0.000000 0.796078
0.474510 0.000000 0.811765
0.486275 0.000000 0.827451
0.498039 0.000000 0.843137
0.509804 0.000000 0.858824
0.521569 0.000000 0.874510
0.529412 0.000000 0.890196
0.541176 0.000000 0.905882
0.552941 0.000000 0.921569
0.564706 0.000000 0.937255
0.576471 0.000000 0.952941
0.588235 0.000000 0.968627
0.600000 0.000000 0.984314
0.611765 0.000000 1.000000
0.000000 0.125490 0.090196
0.000000 0.125490 0.105882
0.000000 0.125490 0.121569
0.000000 0.113725 0.125490
0.000000 0.098039 0.125490
0.000000 0.082353 0.125490
0.000000 0.066667 0.125490
0.000000 0.050980 0.125490
0.000000 0.035294 0.125490
0.000000 0.023529 0.141176
0.000000 0.011765 0.156863
0.000000 0.000000 0.172549
0.011765 0.000000 0.188235
0.019608 0.000000 0.203922
0.031373 0.000000 0.219608
0.043137 0.000000 0.235294
0.058824 0.000000 0.254902
0.070588 0.000000 0.270588
0.082353 0.000000 0.286275
0.090196 0.000000 0.301961
0.101961 0.000000 0.317647
0.113725 0.000000 0.333333
0.125490 0.000000 0.349020
0.137255 0.000000 0.364706
0.149020 0.000000 0.380392
0.160784 0.000000 0.396078
0.172549 0.000000 0.411765
0.180392 0.000000 0.427451
0.192157 0.000000 0.443137
0.203922 0.000000 0.458824
0.215686 0.000000 0.474510
0.227451 0.000000 0.490196
0.243137 0.000000 0.509804
0.250980 0.000000 0.525490
0.262745 0.000000 0.541176
0.274510 0.000000 0.556863
0.286275 0.000000 0.572549
0.298039 0.000000 0.588235
0.309804 0.000000 0.603922
0.321569 0.000000 0.619608
0.333333 0.000000 0.635294
0.345098 0.000000 0.650980
0.352941 0.000000 0.666667
0.364706 0.000000 0.682353
0.376471 0.000000 0.698039
0.388235 0.000000 0.713725
0.400000 0.000000 0.729412
0.411765 0.000000 0.745098
0.423529 0.000000 0.764706
0.435294 0.000000 0.780392
0.447059 0.000000 0.796078
0.458824 0.000000 0.811765
0.470588 0.000000 0.827451
0.482353 0.000000 0.843137
0.494118 0.000000 0.858824
0.505882 0.000000 0.874510
0.513725 0.000000 0.890196
0.525490 0.000000 0.905882
0.537255 0.000000 0.921569
0.549020 0.000000 0.937255
0.560784 0.000000 0.952941
0.572549 0.000000 0.968627
0.584314 0.000000 0.984314
0.596078 0.000000 1.000000
0.000000 0.141176 0.101961
0.000000 0.141176 0.117647
0.000000 0.141176 0.133333
0.000000 0.133333 0.141176
0.000000 0.117647 0.141176
0.000000 0.101961 0.141176
0.000000 0.086275 0.141176
0.000000 0.070588 0.141176
0.000000 0.054902 0.141176
0.000000 0.039216 0.141176
0.000000 0.027451 0.156863
0.000000 0.015686 0.172549
0.000000 0.003922 0.188235
0.003922 0.000000 0.203922
0.015686 0.000000 0.219608
0.027451 0.000000 0.235294
0.043137 0.000000 0.254902
0.054902 0.000000 0.270588
0.066667 0.000000 0.286275
0.074510 0.000000 0.301961
0.086275 0.000000 0.317647
0.098039 0.000000 0.333333
0.109804 0.000000 0.349020
0.121569 0.000000 0.364706
0.133333 0.000000 0.380392
0.145098 0.000000 0.396078
0.156863 0.000000 0.411765
0.164706 0.000000 0.427451
0.176471 0.000000 0.443137
0.188235 0.000000 0.458824
0.200000 0.000000 0.474510
0.211765 0.000000 0.490196
0.227451 0.000000 0.509804
0.235294 0.000000 0.525490
0.247059 0.000000 0.541176
0.258824 0.000000 0.556863
0.270588 0.000000 0.572549
0.282353 0.000000 0.588235
0.294118 0.000000 0.603922
0.305882 0.000000 0.619608
0.317647 0.000000 0.635294
0.329412 0.000000 0.650980
0.337255 0.000000 0.666667
0.349020 0.000000 0.682353
0.360784 0.000000 0.698039
0.372549 0.000000 0.713725
0.384314 0.000000 0.729412
0.396078 0.000000 0.745098
0.407843 0.000000 0.764706
0.419608 0.000000 0.780392
0.431373 0.000000 0.796078
0.443137 0.000000 0.811765
0.454902 0.000000 0.827451
0.466667 0.000000 0.843137
0.478431 0.000000 0.858824
0.490196 0.000000 0.874510
0.498039 0.000000 0.890196
0.509804 0.000000 0.905882
0.521569 0.000000 0.921569
0.533333 0.000000 0.937255
0.545098 0.000000 0.952941
0.556863 0.000000 0.968627
0.568627 0.000000 0.984314
0.580392 0.000000 1.000000
0.000000 0.156863 0.113725
0.000000 0.156863 0.129412
0.000000 0.156863 0.145098
0.000000 0.152941 0.156863
0.000000 0.137255 0.156863
0.000000 0.121569 0.156863
0.000000 0.105882 0.156863
0.000000 0.090196 0.156863
0.000000 0.074510 0.156863
0.000000 0.058824 0.156863
0.000000 0.043137 0.156863
0.000000 0.031373 0.172549
0.000000 0.019608 0.188235
0.000000 0.011765 0.203922
0.000000 0.000000 0.219608
0.011765 0.000000 0.235294
0.027451 0.000000 0.254902
0.039216 0.000000 0.270588
0.050980 0.000000 0.286275
0.058824 0.000000 0.301961
0.070588 0.000000 0.317647
0.082353 0.000000 0.333333
0.094118 0.000000 0.349020
0.105882 0.000000 0.364706
0.117647 0.000000 0.380392
0.129412 0.000000 0.396078
0.141176 0.000000 0.411765
0.149020 0.000000 0.427451
0.160784 0.000000 0.443137
0.172549 0.000000 0.458824
0.184314 0.000000 0.474510
0.196078 0.000000 0.490196
0.211765 0.000000 0.509804
0.219608 0.000000 0.525490
0.231373 0.000000 0.541176
0.243137 0.000000 0.556863
0.254902 0.000000 0.572549
0.266667 0.000000 0.588235
0.278431 0.000000 0.603922
0.290196 0.000000 0.619608
0.301961 0.000000 0.635294
0.313725 0.000000 0.650980
0.321569 0.000000 0.666667
0.333333 0.000000 0.682353
0.345098 0.000000 0.698039
0.356863 0.000000 0.713725
0.368627 0.000000 0.729412
0.380392 0.000000 0.745098
0.392157 0.000000 0.764706
0.403922 0.000000 0.780392
0.415686 0.000000 0.796078
0.427451 0.000000 0.811765
0.439216 0.000000 0.827451
0.450980 0.000000 0.843137
0.462745 0.000000 0.858824
0.474510 0.000000 0.874510
0.482353 0.000000 0.890196
0.494118 0.000000 0.905882
0.505882 0.000000 0.921569
0.517647 0.000000 0.937255
0.529412 0.000000 0.952941
0.541176 0.000000 0.968627
0.552941 0.000000 0.984314
0.564706 0.000000 1.000000
0.000000 0.172549 0.125490
0.000000 0.172549 0.141176
0.000000 0.172549 0.156863
0.000000 0.172549 0.172549
0.000000 0.156863 0.172549
0.000000 0.141176 0.172549
0.000000 0.125490 0.172549
0.000000 0.109804 0.172549
0.000000 0.094118 0.172549
0.000000 0.078431 0.172549
0.000000 0.062745 0.172549
0.000000 0.047059 0.172549
0.000000 0.035294 0.188235
0.000000 0.027451 0.203922
0.000000 0.015686 0.219608
0.000000 0.003922 0.235294
0.011765 0.000000 0.254902
0.023529 0.000000 0.270588
0.035294 0.000000 0.286275
0.043137 0.000000 0.301961
0.054902 0.000000 0.317647
0.066667 0.000000 0.333333
0.078431 0.000000 0.349020
0.090196 0.000000 0.364706
0.101961 0.000000 0.380392
0.113725 0.000000 0.396078
0.125490 0.000000 0.411765
0.133333 0.000000 0.427451
0.145098 0.000000 0.443137
0.156863 0.000000 0.458824
0.168627 0.000000 0.474510
0.180392 0.000000 0.490196
0.196078 0.000000 0.509804
0.203922 0.000000 0.525490
0.215686 0.000000 0.541176
0.227451 0.000000 0.556863
0.239216 0.000000 0.572549
0.250980 0.000000 0.588235
0.262745 0.000000 0.603922
0.274510 0.000000 0.619608
0.286275 0.000000 0.635294
0.298039 0.000000 0.650980
0.305882 0.000000 0.666667
0.317647 0.000000 0.682353
0.329412 0.000000 0.698039
0.341176 0.000000 0.713725
0.352941 0.000000 0.729412
0.364706 0.000000 0.745098
0.376471 0.000000 0.764706
0.388235 0.000000 0.780392
0.400000 0.000000 0.796078
0.411765 0.000000 0.811765
0.423529 0.000000 0.827451
0.435294 0.000000 0.843137
0.447059 0.000000 0.858824
0.458824 0.000000 0.874510
0.466667 0.000000 0.890196
0.478431 0.000000 0.905882
0.490196 0.000000 0.921569
0.501961 0.000000 0.937255
0.513725 0.000000 0.952941
0.525490 0.000000 0.968627
0.537255 0.000000 0.984314
0.549020 0.000000 1.000000
0.000000 0.188235 0.137255
0.000000 0.188235 0.152941
0.000000 0.188235 0.168627
0.000000 0.188235 0.184314
0.000000 0.176471 0.188235
0.000000 0.160784 0.188235
0.000000 0.145098 0.188235
0.000000 0.129412 0.188235
0.000000 0.113725 0.188235
0.000000 0.098039 0.188235
0.000000 0.082353 0.188235
0.000000 0.066667 0.188235
0.000000 0.050980 0.188235
0.000000 0.043137 0.203922
0.000000 0.031373 0.219608
0.000000 0.019608 0.235294
0.000000 0.003922 0.254902
0.007843 0.000000 0.270588
0.019608 0.000000 0.286275
0.027451 0.000000 0.301961
0.039216 0.000000 0.317647
0.050980 0.000000 0.333333
0.062745 0.000000 0.349020
0.074510 0.000000 0.364706
0.086275 0.000000 0.380392
0.098039 0.000000 0.396078
0.109804 0.000000 0.411765
0.117647 0.000000 0.427451
0.129412 0.000000 0.443137
0.141176 0.000000 0.458824
0.152941 0.000000 0.474510
0.164706 0.000000 0.490196
0.180392 0.000000 0.509804
0.188235 0.000000 0.525490
0.200000 0.000000 0.541176
0.211765 0.000000 0.556863
0.223529 0.000000 0.572549
0.235294 0.000000 0.588235
0.247059 0.000000 0.603922
0.258824 0.000000 0.619608
0.270588 0.000000 0.635294
0.282353 0.000000 0.650980
0.290196 0.000000 0.666667
0.301961 0.000000 0.682353
0.313725 0.000000 0.698039
0.325490 0.000000 0.713725
0.337255 0.000000 0.729412
0.349020 0.000000 0.745098
0.360784 0.000000 0.764706
0.372549 0.000000 0.780392
0.384314 0.000000 0.796078
0.396078 0.000000 0.811765
0.407843 0.000000 0.827451
0.419608 0.000000 0.843137
0.431373 0.000000 0.858824
0.443137 0.000000 0.874510
0.450980 0.000000 0.890196
0.462745 0.000000 0.905882
0.474510 0.000000 0.921569
0.486275 0.000000 0.937255
0.498039 0.000000 0.952941
0.509804 0.000000 0.968627
0.521569 0.000000 0.984314
0.533333 0.000000 1.000000
0.000000 0.203922 0.145098
0.000000 0.203922 0.160784
0.000000 0.203922 0.176471
0.000000 0.203922 0.192157
0.000000 0.200000 0.203922
0.000000 0.184314 0.203922
0.000000 0.168627 0.203922
0.000000 0.152941 0.203922
0.000000 0.137255 0.203922
0.000000 0.121569 0.203922
0.000000 0.105882 0.203922
0.000000 0.090196 0.203922
0.000000 0.074510 0.203922
0.000000 0.058824 0.203922
0.000000 0.047059 0.219608
0.000000 0.035294 0.235294
0.000000 0.019608 0.254902
0.000000 0.007843 0.270588
0.003922 0.000000 0.286275
0.011765 0.000000 0.301961
0.023529 0.000000 0.317647
0.035294 0.000000 0.333333
0.047059 0.000000 0.349020
0.058824 0.000000 0.364706
0.070588 0.000000 0.380392
0.082353 0.000000 0.396078
0.094118 0.000000 0.411765
0.101961 0.000000 0.427451
0.113725 0.000000 0.443137
0.125490 0.000000 0.458824
0.137255 0.000000 0.474510
0.149020 0.000000 0.490196
0.164706 0.000000 0.509804
0.172549 0.000000 0.525490
0.184314 0.000000 0.541176
0.196078 0.000000 0.556863
0.207843 0.000000 0.572549
0.219608 0.000000 0.588235
0.231373 0.000000 0.603922
0.243137 0.000000 0.619608
0.254902 0.000000 0.635294
0.266667 0.000000 0.650980
0.274510 0.000000 0.666667
0.286275 0.000000 0.682353
0.298039 0.000000 0.698039
0.309804 0.000000 0.713725
0.321569 0.000000 0.729412
0.333333 0.000000 0.745098
0.345098 0.000000 0.764706
