lut.cube
#Created by: Our Conversion Website
#Tool Author: Viktor Fejes
#Website: https://google.com
TITLE "lut"
#LUT size
LUT_3D_SIZE 4
#data domain
DOMAIN_MIN 0.0 0.0 0.0
DOMAIN_MAX 1.0 1.0 1.0
#LUT data points
0.000000 0.000000 0.000000
0.239216 0.000000 0.333333
0.478431 0.000000 0.666667
0.721569 0.000000 1.000000
0.000000 0.333333 0.239216
0.000000 0.094118 0.333333
0.145098 0.000000 0.666667
0.388235 0.000000 1.000000
0.000000 0.666667 0.478431
0.000000 0.521569 0.666667
0.000000 0.188235 0.666667
0.054902 0.000000 1.000000
0.000000 1.000000 0.721569
0.000000 0.945098 1.000000
0.000000 0.611765 1.000000
0.000000 0.278431 1.000000
0.333333 0.239216 0.000000
0.333333 0.000000 0.094118
0.666667 0.000000 0.521569
1.000000 0.000000 0.945098
0.094118 0.333333 0.000000
0.333333 0.333333 0.333333
0.572549 0.333333 0.666667
0.811765 0.333333 1.000000
0.000000 0.666667 0.145098
0.333333 0.666667 0.572549
0.333333 0.427451 0.666667
0.478431 0.333333 1.000000
0.000000 1.000000 0.388235
0.333333 1.000000 0.811765
0.333333 0.854902 1.000000
0.333333 0.521569 1.000000
0.666667 0.478431 0.000000
0.666667 0.145098 0.000000
0.666667 0.000000 0.188235
1.000000 0.000000 0.611765
0.521569 0.666667 0.000000
0.666667 0.572549 0.333333
0.666667 0.333333 0.427451
1.000000 0.333333 0.854902
0.188235 0.666667 0.000000
0.427451 0.666667 0.333333
0.666667 0.666667 0.666667
0.905882 0.666667 1.000000
0.000000 1.000000 0.054902
0.333333 1.000000 0.478431
0.666667 1.000000 0.905882
0.666667 0.760784 1.000000
1.000000 0.721569 0.000000
1.000000 0.388235 0.000000
1.000000 0.054902 0.000000
1.000000 0.000000 0.278431
0.945098 1.000000 0.000000
1.000000 0.811765 0.333333
1.000000 0.478431 0.333333
1.000000 0.333333 0.521569
0.611765 1.000000 0.000000
0.854902 1.000000 0.333333
1.000000 0.905882 0.666667
1.000000 0.666667 0.760784
0.278431 1.000000 0.000000
0.521569 1.000000 0.333333
0.760784 1.000000 0.666667
1.000000 1.000000 1.000000
