lut.cube
#Created by: Our Conversion Website
#Tool Author: Viktor Fejes
#Website: https://google.com
TITLE "lut"
#LUT size
LUT_3D_SIZE 8
#data domain
DOMAIN_MIN 0.0 0.0 0.0
DOMAIN_MAX 1.0 1.0 1.0
#LUT data points
0.000000 0.000000 0.000000
0.101961 0.000000 0.141176
0.207843 0.000000 0.286275
0.305882 0.000000 0.427451
0.411765 0.000000 0.572549
0.513725 0.000000 0.713725
0.619608 0.000000 0.858824
0.721569 0.000000 1.000000
0.000000 0.141176 0.101961
0.000000 0.039216 0.141176
0.066667 0.000000 0.286275
0.164706 0.000000 0.427451
0.270588 0.000000 0.572549
0.372549 0.000000 0.713725
0.478431 0.000000 0.858824
0.580392 0.000000 1.000000
0.000000 0.286275 0.207843
0.000000 0.223529 0.286275
0.000000 0.078431 0.286275
0.019608 0.000000 0.427451
0.125490 0.000000 0.572549
0.227451 0.000000 0.713725
0.333333 0.000000 0.858824
0.435294 0.000000 1.000000
0.000000 0.427451 0.305882
0.000000 0.407843 0.427451
0.000000 0.262745 0.427451
0.000000 0.121569 0.427451
0.000000 0.015686 0.572549
0.086275 0.000000 0.713725
0.192157 0.000000 0.858824
0.294118 0.000000 1.000000
0.000000 0.572549 0.411765
0.000000 0.572549 0.552941
0.000000 0.447059 0.572549
0.000000 0.305882 0.572549
0.000000 0.160784 0.572549
0.000000 0.058824 0.713725
0.047059 0.000000 0.858824
0.149020 0.000000 1.000000
0.000000 0.713725 0.513725
0.000000 0.713725 0.654902
0.000000 0.627451 0.713725
0.000000 0.486275 0.713725
0.000000 0.341176 0.713725
0.000000 0.200000 0.713725
0.000000 0.094118 0.858824
0.007843 0.000000 1.000000
0.000000 0.858824 0.619608
0.000000 0.858824 0.760784
0.000000 0.811765 0.858824
0.000000 0.670588 0.858824
0.000000 0.525490 0.858824
0.000000 0.384314 0.858824
0.000000 0.239216 0.858824
0.000000 0.137255 1.000000
0.000000 1.000000 0.721569
0.000000 1.000000 0.862745
0.000000 0.992157 1.000000
0.000000 0.850980 1.000000
0.000000 0.705882 1.000000
0.000000 0.564706 1.000000
0.000000 0.419608 1.000000
0.000000 0.278431 1.000000
0.141176 0.101961 0.000000
0.141176 0.000000 0.039216
0.286275 0.000000 0.223529
0.427451 0.000000 0.407843
0.552941 0.000000 0.572549
0.654902 0.000000 0.713725
0.760784 0.000000 0.858824
0.862745 0.000000 1.000000
0.039216 0.141176 0.000000
0.141176 0.141176 0.141176
0.247059 0.141176 0.286275
0.349020 0.141176 0.427451
0.450980 0.141176 0.572549
0.552941 0.141176 0.713725
0.658824 0.141176 0.858824
0.760784 0.141176 1.000000
0.000000 0.286275 0.066667
0.141176 0.286275 0.247059
0.141176 0.180392 0.286275
0.203922 0.141176 0.427451
0.305882 0.141176 0.572549
0.407843 0.141176 0.713725
0.513725 0.141176 0.858824
0.615686 0.141176 1.000000
0.000000 0.427451 0.164706
0.141176 0.427451 0.349020
0.141176 0.360784 0.427451
0.141176 0.219608 0.427451
0.164706 0.141176 0.572549
0.266667 0.141176 0.713725
0.372549 0.141176 0.858824
0.474510 0.141176 1.000000
0.000000 0.572549 0.270588
0.141176 0.572549 0.450980
0.141176 0.549020 0.572549
0.141176 0.407843 0.572549
0.141176 0.262745 0.572549
0.141176 0.160784 0.713725
0.227451 0.141176 0.858824
0.329412 0.141176 1.000000
0.000000 0.713725 0.372549
0.141176 0.713725 0.552941
0.141176 0.713725 0.698039
0.141176 0.588235 0.713725
0.141176 0.443137 0.713725
0.141176 0.301961 0.713725
0.141176 0.196078 0.858824
0.188235 0.141176 1.000000
0.000000 0.858824 0.478431
0.141176 0.858824 0.658824
0.141176 0.858824 0.803922
0.141176 0.772549 0.858824
0.141176 0.627451 0.858824
0.141176 0.486275 0.858824
0.141176 0.341176 0.858824
0.141176 0.239216 1.000000
0.000000 1.000000 0.580392
0.141176 1.000000 0.760784
0.141176 1.000000 0.905882
0.141176 0.952941 1.000000
0.141176 0.807843 1.000000
0.141176 0.666667 1.000000
0.141176 0.521569 1.000000
0.141176 0.380392 1.000000
0.286275 0.207843 0.000000
0.286275 0.066667 0.000000
0.286275 0.000000 0.078431
0.427451 0.000000 0.262745
0.572549 0.000000 0.447059
0.713725 0.000000 0.627451
0.858824 0.000000 0.811765
1.000000 0.000000 0.992157
0.223529 0.286275 0.000000
0.286275 0.247059 0.141176
0.286275 0.141176 0.180392
0.427451 0.141176 0.360784
0.572549 0.141176 0.549020
0.698039 0.141176 0.713725
0.803922 0.141176 0.858824
0.905882 0.141176 1.000000
0.078431 0.286275 0.000000
0.180392 0.286275 0.141176
0.286275 0.286275 0.286275
0.388235 0.286275 0.427451
0.494118 0.286275 0.572549
0.592157 0.286275 0.713725
0.698039 0.286275 0.858824
0.800000 0.286275 1.000000
0.000000 0.427451 0.019608
0.141176 0.427451 0.203922
0.286275 0.427451 0.388235
0.286275 0.325490 0.427451
0.352941 0.286275 0.572549
0.450980 0.286275 0.713725
0.556863 0.286275 0.858824
0.658824 0.286275 1.000000
0.000000 0.572549 0.125490
0.141176 0.572549 0.305882
0.286275 0.572549 0.494118
0.286275 0.509804 0.572549
0.286275 0.364706 0.572549
0.305882 0.286275 0.713725
0.411765 0.286275 0.858824
0.513725 0.286275 1.000000
0.000000 0.713725 0.227451
0.141176 0.713725 0.407843
0.286275 0.713725 0.592157
0.286275 0.694118 0.713725
0.286275 0.549020 0.713725
0.286275 0.407843 0.713725
0.286275 0.301961 0.858824
0.372549 0.286275 1.000000
0.000000 0.858824 0.333333
0.141176 0.858824 0.513725
0.286275 0.858824 0.698039
0.286275 0.858824 0.839216
0.286275 0.733333 0.858824
0.286275 0.592157 0.858824
0.286275 0.447059 0.858824
0.286275 0.345098 1.000000
0.000000 1.000000 0.435294
0.141176 1.000000 0.615686
0.286275 1.000000 0.800000
0.286275 1.000000 0.941176
0.286275 0.913725 1.000000
0.286275 0.772549 1.000000
0.286275 0.627451 1.000000
0.286275 0.486275 1.000000
0.427451 0.305882 0.000000
0.427451 0.164706 0.000000
0.427451 0.019608 0.000000
0.427451 0.000000 0.121569
0.572549 0.000000 0.305882
0.713725 0.000000 0.486275
0.858824 0.000000 0.670588
1.000000 0.000000 0.850980
0.407843 0.427451 0.000000
0.427451 0.349020 0.141176
0.427451 0.203922 0.141176
0.427451 0.141176 0.219608
0.572549 0.141176 0.407843
0.713725 0.141176 0.588235
0.858824 0.141176 0.772549
1.000000 0.141176 0.952941
0.262745 0.427451 0.000000
0.360784 0.427451 0.141176
0.427451 0.388235 0.286275
0.427451 0.286275 0.325490
0.572549 0.286275 0.509804
0.713725 0.286275 0.694118
0.839216 0.286275 0.858824
0.941176 0.286275 1.000000
0.121569 0.427451 0.000000
0.219608 0.427451 0.141176
0.325490 0.427451 0.286275
0.427451 0.427451 0.427451
0.533333 0.427451 0.572549
0.635294 0.427451 0.713725
0.737255 0.427451 0.858824
0.839216 0.427451 1.000000
0.015686 0.572549 0.000000
0.141176 0.572549 0.164706
0.286275 0.572549 0.352941
0.427451 0.572549 0.533333
0.427451 0.466667 0.572549
0.490196 0.427451 0.713725
0.592157 0.427451 0.858824
0.694118 0.427451 1.000000
0.000000 0.713725 0.086275
0.141176 0.713725 0.266667
0.286275 0.713725 0.450980
0.427451 0.713725 0.635294
0.427451 0.647059 0.713725
0.427451 0.505882 0.713725
0.450980 0.427451 0.858824
0.552941 0.427451 1.000000
0.000000 0.858824 0.192157
0.141176 0.858824 0.372549
0.286275 0.858824 0.556863
0.427451 0.858824 0.737255
0.427451 0.835294 0.858824
0.427451 0.694118 0.858824
0.427451 0.549020 0.858824
0.427451 0.447059 1.000000
0.000000 1.000000 0.294118
0.141176 1.000000 0.474510
0.286275 1.000000 0.658824
0.427451 1.000000 0.839216
0.427451 1.000000 0.984314
0.427451 0.874510 1.000000
0.427451 0.729412 1.000000
0.427451 0.588235 1.000000
0.572549 0.411765 0.000000
0.572549 0.270588 0.000000
0.572549 0.125490 0.000000
0.572549 0.000000 0.015686
0.572549 0.000000 0.160784
0.713725 0.000000 0.341176
0.858824 0.000000 0.525490
1.000000 0.000000 0.705882
0.572549 0.552941 0.000000
0.572549 0.450980 0.141176
0.572549 0.305882 0.141176
0.572549 0.164706 0.141176
0.572549 0.141176 0.262745
0.713725 0.141176 0.443137
0.858824 0.141176 0.627451
1.000000 0.141176 0.807843
0.447059 0.572549 0.000000
0.549020 0.572549 0.141176
0.572549 0.494118 0.286275
0.572549 0.352941 0.286275
0.572549 0.286275 0.364706
0.713725 0.286275 0.549020
0.858824 0.286275 0.733333
1.000000 0.286275 0.913725
0.305882 0.572549 0.000000
0.407843 0.572549 0.141176
0.509804 0.572549 0.286275
0.572549 0.533333 0.427451
0.572549 0.427451 0.466667
0.713725 0.427451 0.647059
0.858824 0.427451 0.835294
0.984314 0.427451 1.000000
0.160784 0.572549 0.000000
0.262745 0.572549 0.141176
0.364706 0.572549 0.286275
0.466667 0.572549 0.427451
0.572549 0.572549 0.572549
0.674510 0.572549 0.713725
0.780392 0.572549 0.858824
0.878431 0.572549 1.000000
0.058824 0.713725 0.000000
0.160784 0.713725 0.141176
0.286275 0.713725 0.305882
0.427451 0.713725 0.490196
0.572549 0.713725 0.674510
0.572549 0.611765 0.713725
0.639216 0.572549 0.858824
0.737255 0.572549 1.000000
0.000000 0.858824 0.047059
0.141176 0.858824 0.227451
0.286275 0.858824 0.411765
0.427451 0.858824 0.592157
0.572549 0.858824 0.780392
0.572549 0.796078 0.858824
0.572549 0.650980 0.858824
0.592157 0.572549 1.000000
0.000000 1.000000 0.149020
0.141176 1.000000 0.329412
0.286275 1.000000 0.513725
0.427451 1.000000 0.694118
0.572549 1.000000 0.878431
0.572549 0.980392 1.000000
0.572549 0.835294 1.000000
0.572549 0.694118 1.000000
0.713725 0.513725 0.000000
0.713725 0.372549 0.000000
0.713725 0.227451 0.000000
0.713725 0.086275 0.000000
0.713725 0.000000 0.058824
0.713725 0.000000 0.200000
0.858824 0.000000 0.384314
1.000000 0.000000 0.564706
0.713725 0.654902 0.000000
0.713725 0.552941 0.141176
0.713725 0.407843 0.141176
0.713725 0.266667 0.141176
0.713725 0.141176 0.160784
0.713725 0.141176 0.301961
0.858824 0.141176 0.486275
1.000000 0.141176 0.666667
0.627451 0.713725 0.000000
0.713725 0.698039 0.141176
0.713725 0.592157 0.286275
0.713725 0.450980 0.286275
0.713725 0.305882 0.286275
0.713725 0.286275 0.407843
0.858824 0.286275 0.592157
1.000000 0.286275 0.772549
0.486275 0.713725 0.000000
0.588235 0.713725 0.141176
0.694118 0.713725 0.286275
0.713725 0.635294 0.427451
0.713725 0.490196 0.427451
0.713725 0.427451 0.505882
0.858824 0.427451 0.694118
1.000000 0.427451 0.874510
0.341176 0.713725 0.000000
0.443137 0.713725 0.141176
0.549020 0.713725 0.286275
0.647059 0.713725 0.427451
0.713725 0.674510 0.572549
0.713725 0.572549 0.611765
0.858824 0.572549 0.796078
1.000000 0.572549 0.980392
0.200000 0.713725 0.000000
0.301961 0.713725 0.141176
0.407843 0.713725 0.286275
0.505882 0.713725 0.427451
0.611765 0.713725 0.572549
0.713725 0.713725 0.713725
0.819608 0.713725 0.858824
0.921569 0.713725 1.000000
0.094118 0.858824 0.000000
0.196078 0.858824 0.141176
0.301961 0.858824 0.286275
0.427451 0.858824 0.450980
0.572549 0.858824 0.639216
0.713725 0.858824 0.819608
0.713725 0.752941 0.858824
0.776471 0.713725 1.000000
0.000000 1.000000 0.007843
0.141176 1.000000 0.188235
0.286275 1.000000 0.372549
0.427451 1.000000 0.552941
0.572549 1.000000 0.737255
0.713725 1.000000 0.921569
0.713725 0.933333 1.000000
0.713725 0.792157 1.000000
0.858824 0.619608 0.000000
0.858824 0.478431 0.000000
0.858824 0.333333 0.000000
0.858824 0.192157 0.000000
0.858824 0.047059 0.000000
0.858824 0.000000 0.094118
0.858824 0.000000 0.239216
1.000000 0.000000 0.419608
0.858824 0.760784 0.000000
0.858824 0.658824 0.141176
0.858824 0.513725 0.141176
0.858824 0.372549 0.141176
0.858824 0.227451 0.141176
0.858824 0.141176 0.196078
0.858824 0.141176 0.341176
1.000000 0.141176 0.521569
0.811765 0.858824 0.000000
0.858824 0.803922 0.141176
0.858824 0.698039 0.286275
0.858824 0.556863 0.286275
0.858824 0.411765 0.286275
0.858824 0.286275 0.301961
0.858824 0.286275 0.447059
1.000000 0.286275 0.627451
0.670588 0.858824 0.000000
0.772549 0.858824 0.141176
0.858824 0.839216 0.286275
0.858824 0.737255 0.427451
0.858824 0.592157 0.427451
0.858824 0.450980 0.427451
0.858824 0.427451 0.549020
1.000000 0.427451 0.729412
0.525490 0.858824 0.000000
0.627451 0.858824 0.141176
0.733333 0.858824 0.286275
0.835294 0.858824 0.427451
0.858824 0.780392 0.572549
0.858824 0.639216 0.572549
0.858824 0.572549 0.650980
1.000000 0.572549 0.835294
0.384314 0.858824 0.000000
0.486275 0.858824 0.141176
0.592157 0.858824 0.286275
0.694118 0.858824 0.427451
0.796078 0.858824 0.572549
0.858824 0.819608 0.713725
0.858824 0.713725 0.752941
1.000000 0.713725 0.933333
0.239216 0.858824 0.000000
0.341176 0.858824 0.141176
0.447059 0.858824 0.286275
0.549020 0.858824 0.427451
0.650980 0.858824 0.572549
0.752941 0.858824 0.713725
0.858824 0.858824 0.858824
0.960784 0.858824 1.000000
0.137255 1.000000 0.000000
0.239216 1.000000 0.141176
0.345098 1.000000 0.286275
0.447059 1.000000 0.427451
0.572549 1.000000 0.592157
0.713725 1.000000 0.776471
0.858824 1.000000 0.960784
0.858824 0.898039 1.000000
1.000000 0.721569 0.000000
1.000000 0.580392 0.000000
1.000000 0.435294 0.000000
1.000000 0.294118 0.000000
1.000000 0.149020 0.000000
1.000000 0.007843 0.000000
1.000000 0.000000 0.137255
1.000000 0.000000 0.278431
1.000000 0.862745 0.000000
1.000000 0.760784 0.141176
1.000000 0.615686 0.141176
1.000000 0.474510 0.141176
1.000000 0.329412 0.141176
1.000000 0.188235 0.141176
1.000000 0.141176 0.239216
1.000000 0.141176 0.380392
0.992157 1.000000 0.000000
1.000000 0.905882 0.141176
1.000000 0.800000 0.286275
1.000000 0.658824 0.286275
1.000000 0.513725 0.286275
1.000000 0.372549 0.286275
1.000000 0.286275 0.345098
1.000000 0.286275 0.486275
0.850980 1.000000 0.000000
0.952941 1.000000 0.141176
1.000000 0.941176 0.286275
1.000000 0.839216 0.427451
1.000000 0.694118 0.427451
1.000000 0.552941 0.427451
1.000000 0.427451 0.447059
1.000000 0.427451 0.588235
0.705882 1.000000 0.000000
0.807843 1.000000 0.141176
0.913725 1.000000 0.286275
1.000000 0.984314 0.427451
1.000000 0.878431 0.572549
1.000000 0.737255 0.572549
1.000000 0.592157 0.572549
1.000000 0.572549 0.694118
0.564706 1.000000 0.000000
0.666667 1.000000 0.141176
0.772549 1.000000 0.286275
0.874510 1.000000 0.427451
0.980392 1.000000 0.572549
1.000000 0.921569 0.713725
1.000000 0.776471 0.713725
1.000000 0.713725 0.792157
0.419608 1.000000 0.000000
0.521569 1.000000 0.141176
0.627451 1.000000 0.286275
0.729412 1.000000 0.427451
0.835294 1.000000 0.572549
0.933333 1.000000 0.713725
1.000000 0.960784 0.858824
1.000000 0.858824 0.898039
0.278431 1.000000 0.000000
0.380392 1.000000 0.141176
0.486275 1.000000 0.286275
0.588235 1.000000 0.427451
0.694118 1.000000 0.572549
0.792157 1.000000 0.713725
0.898039 1.000000 0.858824
1.000000 1.000000 1.000000
