pitnvh (1).cube
# VEGAS Pro LUT
TITLE "Invert Luminosity"
LUT_3D_SIZE 9
0.95000118 0.95003200 0.94993091
1.02704012 0.88676643 0.88829237
1.09073019 0.75844622 0.73539656
1.07175183 0.63704550 0.56355226
1.04059303 0.52025962 0.41351506
1.00106061 0.40282908 0.28117877
0.95568615 0.27484649 0.16183287
0.90648419 0.08474469 0.02697149
0.85478121 -0.38452235 -0.08057259
0.74103457 0.88488144 0.74554718
0.83466244 0.82999724 0.69692647
0.92458242 0.73533124 0.60204095
0.96135670 0.62923819 0.48450500
0.96287644 0.52029920 0.36392495
0.94352561 0.40828627 0.24846962
0.91149348 0.28640446 0.13674645
0.87153625 0.12013522 -0.00280352
0.82658827 -0.31412798 -0.09772876
0.53850937 0.76098716 0.48239592
0.60461193 0.73395091 0.46296257
0.69746655 0.67720073 0.41794193
0.76931930 0.59921050 0.35014322
0.80830723 0.50920695 0.26830301
0.82013643 0.41111106 0.17643295
0.81227410 0.30294585 0.06624740
0.79048395 0.16805737 -0.05917972
0.76004624 -0.16888039 -0.14039244
0.34451568 0.64486271 0.27907306
0.39296770 0.63033271 0.26832914
0.47460693 0.59641856 0.24186669
0.55528915 0.54376024 0.19728602
0.61589116 0.47654435 0.13370696
0.65283835 0.39816493 0.03607918
0.66871893 0.30913907 -0.07042740
0.66830575 0.20266867 -0.13364482
0.65679848 0.00168884 -0.21276601
0.09363560 0.53598076 0.05897409
0.16300401 0.52735060 0.04577278
0.25672832 0.50628692 0.01002552
0.34523153 0.47139692 -0.04095053
0.41702336 0.42377973 -0.09210905
0.46924376 0.36506808 -0.12987736
0.50378931 0.29584786 -0.17550993
0.52310830 0.21346967 -0.23685123
0.52977169 0.09954920 -0.31362242
-0.40999088 0.43197572 -0.16923288
-0.33137950 0.42655510 -0.17241479
-0.14418320 0.41303739 -0.18073520
0.10933134 0.38983396 -0.19625680
0.21934846 0.35676202 -0.22091189
0.29030636 0.31420088 -0.25651437
0.34050176 0.26240242 -0.30444947
0.37483627 0.20024924 -0.36545593
0.39613670 0.12083081 -0.43957463
-0.44672719 0.33033770 -0.31287408
-0.41191572 0.32681206 -0.31677556
-0.32660398 0.31792355 -0.32673094
-0.18565841 0.30236551 -0.34455991
0.00172830 0.27960542 -0.37152547
0.13717662 0.24947047 -0.40866223
0.20223179 0.21184956 -0.45673341
0.24641238 0.16604939 -0.51615298
0.27712694 0.10871765 -0.58693177
-0.30301932 0.23584270 -0.49038041
-0.28397080 0.23326904 -0.49425742
-0.23734842 0.22678716 -0.50412160
-0.16029370 0.21545355 -0.52168989
-0.05713308 0.19886857 -0.54804134
0.06032024 0.17684829 -0.58395624
0.12756586 0.14921172 -0.62992764
0.17006636 0.11537145 -0.68615264
0.20107372 0.07163157 -0.75230139
-0.39406136 0.17798610 -0.69715631
-0.38160706 0.17620474 -0.70074409
-0.35078049 0.17166749 -0.70983899
-0.29869685 0.16354570 -0.72592521
-0.22648656 0.15116672 -0.74981046
-0.13757767 0.13361096 -0.78195286
-0.03659307 0.10909823 -0.82250595
0.06613781 0.07285580 -0.87135208
0.12399615 0.00817473 -0.92814916
0.92617458 0.92897642 1.06961226
1.01014352 0.86418951 1.00640178
1.05543375 0.74847746 0.85242677
1.04444110 0.63241822 0.68262315
1.02114105 0.51765287 0.52894342
0.98829585 0.40082419 0.38981885
0.94819665 0.27248514 0.26280537
0.90256870 0.07807515 0.14382817
0.85275000 -0.39303839 0.01520141
0.72810960 0.86538035 0.86206412
0.81470215 0.81472528 0.81465864
0.89777404 0.72713369 0.72016329
0.93847716 0.62473387 0.60049188
0.94611633 0.51746875 0.47489488
0.93252611 0.40600437 0.35211065
0.90507865 0.28386194 0.23472801
0.86818486 0.11500298 0.12020189
0.82466304 -0.32260436 -0.00682785
0.52160132 0.75203830 0.59369141
0.58572894 0.72635669 0.57323265
0.67875224 0.67159480 0.52571642
0.75374109 0.59522289 0.45356414
0.79701996 0.50617671 0.36546195
0.81277239 0.40849179 0.26915491
0.80794841 0.30024898 0.16840532
0.78829294 0.16414325 0.05536500
0.75829750 -0.17699046 -0.05823946
0.33195373 0.64018017 0.36645156
0.38148072 0.62592775 0.35520878
0.46486577 0.59254050 0.32776719
0.54762095 0.54046100 0.28249905
0.61037886 0.47370142 0.22127704
0.64930284 0.39557907 0.14582226
0.66679507 0.30655241 0.04671540
0.66691136 0.19977416 -0.05587232
0.65522027 -0.00542859 -0.14201581
0.08554021 0.53305680 0.15756799
0.15817113 0.52449220 0.14944401
0.25371733 0.50356954 0.12868957
0.34328744 0.46886399 0.09040397
0.41592351 0.42142075 0.02042773
0.46873921 0.36283869 -0.05433423
0.50280458 0.29379639 -0.10744660
0.52176213 0.21145788 -0.17315164
0.52821577 0.09678522 -0.25432405
-0.40142757 0.43003377 -0.10672352
-0.32385081 0.42463738 -0.11023039
-0.13914591 0.41117844 -0.11920631
0.10990871 0.38806820 -0.13584782
0.21863259 0.35511392 -0.16208290
0.28907025 0.31267896 -0.19967541
0.33896649 0.26099509 -0.24993204
0.37311795 0.19891073 -0.31349915
0.39430583 0.11937841 -0.39032370
-0.45416230 0.32923773 -0.26429322
-0.41955224 0.32571968 -0.26833025
-0.33474174 0.31685048 -0.27862597
-0.19464386 0.30132654 -0.29704720
-0.00839990 0.27861577 -0.32486925
0.13288715 0.24854361 -0.36311743
0.19907565 0.21099438 -0.41252896
0.24366185 0.16526666 -0.47347888
0.27457586 0.10798299 -0.54593247
-0.31308833 0.23514462 -0.45134652
-0.29418251 0.23258016 -0.45530209
-0.24789719 0.22612076 -0.46536487
-0.17136464 0.21482489 -0.48327976
-0.06883652 0.19829248 -0.51013607
0.05041042 0.17633870 -0.54671437
0.12233008 0.14878391 -0.59349912
0.16605231 0.11504699 -0.65067154
0.19768818 0.07135507 -0.71786541
-0.40355390 0.17758335 -0.66499013
-0.39116567 0.17580539 -0.66862440
-0.36049649 0.17127618 -0.67783648
-0.30865911 0.16316675 -0.69412899
-0.23675109 0.15080190 -0.71831721
-0.14815572 0.13325736 -0.75086337
-0.04745054 0.10874315 -0.79191917
0.05795714 0.07245404 -0.84136182
0.11934473 0.00770371 -0.89884132
0.94646907 0.86635655 1.19582891
0.99445343 0.81250173 1.12972689
1.00458765 0.72188407 0.98258626
1.00221252 0.61732030 0.82073772
0.98909962 0.50787944 0.66515291
0.96550381 0.39332309 0.51991647
0.93299991 0.26500890 0.38581753
0.89322841 0.05808648 0.26270491
0.84764808 -0.41438285 0.14992759
0.74575222 0.81800705 0.99007422
0.79826897 0.77929413 0.94622457
0.86319709 0.70474625 0.85570568
0.90434045 0.61062402 0.73643249
0.91860783 0.50781989 0.60733962
0.91246641 0.39843097 0.47874135
0.89158362 0.27644140 0.35543326
0.85991019 0.10095920 0.23944429
0.82021022 -0.34457710 0.13103256
0.51620317 0.72938710 0.72573125
0.57079500 0.70643234 0.70479459
0.65601730 0.65603364 0.65599275
0.73041070 0.58362806 0.58134633
0.77735311 0.49731547 0.48952061
0.79806769 0.40112728 0.38905889
0.79801834 0.29311442 0.28612414
0.78233528 0.15415545 0.18424113
0.75501597 -0.19922133 0.08320402
0.31821820 0.62802339 0.48621160
0.36689645 0.61442983 0.47451517
0.44986302 0.58233666 0.44603771
0.53378260 0.53175527 0.39931574
0.59902817 0.46626523 0.33696973
0.64099628 0.38895151 0.26312697
0.66145808 0.30008182 0.18151468
0.66402233 0.19208059 0.09265386
0.65251982 -0.02508343 -0.01078978
0.06807064 0.52567071 0.27307618
0.14787772 0.51727372 0.26559800
0.24667890 0.49671629 0.24700119
0.33805087 0.46249947 0.21523516
0.41225812 0.41553268 0.17013924
0.46661192 0.35728469 0.11129794
0.50163084 0.28836343 0.02909175
0.51974666 0.20596257 -0.05058911
0.52546757 0.08881075 -0.13769288
-0.38319936 0.42514673 0.05402928
-0.30559072 0.41978866 0.04556623
-0.12133303 0.40642458 0.02312036
0.11658096 0.38347974 -0.01020945
0.22010359 0.35077736 -0.04587560
0.28819019 0.30864295 -0.08633114
0.33679488 0.25721988 -0.13998005
0.37014982 0.19525394 -0.20736739
0.39082158 0.11527046 -0.28833318
-0.46276519 0.32632506 -0.16331020
-0.42872879 0.32282561 -0.16756155
-0.34534565 0.31400365 -0.17839688
-0.20765434 0.29856226 -0.19776115
-0.02467076 0.27596992 -0.22695656
0.12501867 0.24604551 -0.26700446
0.19300409 0.20865902 -0.31861192
0.23812881 0.16307980 -0.38210627
0.26925850 0.10583590 -0.45739254
-0.33234465 0.23327269 -0.36623588
-0.31381881 0.23073018 -0.37033027
-0.26843801 0.22432488 -0.38074258
-0.19332057 0.21311954 -0.39926928
-0.09254044 0.19671232 -0.42701992
0.02577876 0.17491525 -0.46477941
0.11051244 0.14754888 -0.51302153
0.15707393 0.11404143 -0.57190800
0.19009730 0.07037718 -0.64099896
-0.42351219 0.17646635 -0.59240472
-0.41130173 0.17469604 -0.59612608
-0.38105759 0.17018467 -0.60555822
-0.32989323 0.16210192 -0.62223828
-0.25882816 0.14976543 -0.64699870
-0.17113142 0.13223670 -0.68030959
-0.07126953 0.10769582 -0.72232294
0.03607516 0.07123155 -0.77291048
0.10826623 0.00622763 -0.83171046
0.94996595 0.78108841 1.25995207
0.95053071 0.74724030 1.19714904
0.95385742 0.67899919 1.07844186
0.95584524 0.58921593 0.93418777
0.95034581 0.48818812 0.78550559
0.93517011 0.37786302 0.64111948
0.91058671 0.24996088 0.50446224
0.87768918 0.00929299 0.37703800
0.83773232 -0.44926387 0.25982636
0.75795048 0.75642753 1.08476388
0.78672379 0.72783232 1.04713571
0.83114809 0.66749883 0.96611845
0.86713850 0.58465695 0.85411507
0.88492984 0.48897484 0.72810930
0.88525635 0.38340464 0.59905684
0.87122494 0.26202354 0.47290009
0.84576702 0.07108238 0.35285535
0.81124693 -0.38030940 0.24096200
0.52469003 0.69322234 0.84318119
0.56578505 0.67357779 0.82287323
0.63619781 0.62902194 0.77517694
0.70437914 0.56255072 0.70129156
0.75214005 0.48076317 0.60905534
0.77697766 0.38733822 0.50677705
0.78204030 0.27999794 0.40098292
0.77130663 0.13559434 0.29625386
0.74822718 -0.23589750 0.19584629
0.31151325 0.60705411 0.60456461
0.35596499 0.59444201 0.59269941
0.43414730 0.56435043 0.56377357
0.51620537 0.51621628 0.51619738
0.58255285 0.45293531 0.45252833
0.62737864 0.37715143 0.37708470
0.65137309 0.28872320 0.29447427
0.65742117 0.17855151 0.20873263
0.64876699 -0.06051103 0.12292870
0.03645862 0.51280671 0.38693917
0.13144079 0.50469220 0.37938455
0.23473044 0.48476031 0.36065450
0.32814988 0.45140371 0.32889956
0.40425104 0.40530860 0.28462037
0.46072802 0.34770927 0.22959507
0.49795321 0.27893975 0.16607863
0.51772004 0.19562303 0.09544570
0.52265167 0.07185069 0.01008383
-0.37623614 0.41674405 0.18898124
-0.29885337 0.41145605 0.18365271
-0.11476415 0.39825472 0.17026414
0.11972332 0.37555036 0.14692535
0.22234172 0.34310752 0.11268553
0.28961420 0.30123991 0.06549640
0.33605847 0.25012925 0.00260873
0.36750743 0.18822794 -0.06804669
0.38691631 0.10698691 -0.15261152
-0.45814434 0.32091677 -0.02839657
-0.42521477 0.31744879 -0.03284262
-0.34457675 0.30870587 -0.04416962
-0.21150456 0.29340133 -0.06439528
-0.03478430 0.27100152 -0.09485108
0.11776605 0.24131009 -0.13656132
0.18642271 0.20416351 -0.19021651
0.23145993 0.15875939 -0.25611278
0.26238033 0.10137433 -0.33411720
-0.35279292 0.22973973 -0.24642161
-0.33495572 0.22723293 -0.25065643
-0.29122245 0.22091538 -0.26142272
-0.21871290 0.20985617 -0.28056946
-0.12121534 0.19364896 -0.30922845
-0.00645927 0.17209814 -0.34819126
0.09298445 0.14501761 -0.39792898
0.14403516 0.11183562 -0.45859081
0.17905515 0.06796055 -0.52963102
-0.44895646 0.17425424 -0.48577246
-0.43707404 0.17249459 -0.48958731
-0.40762183 0.16800782 -0.49925643
-0.35772499 0.15995915 -0.51635408
-0.28827637 0.14765106 -0.54173374
-0.20235483 0.13011493 -0.57587677
-0.10423506 0.10546151 -0.61894107
0.00155343 0.06852315 -0.67079806
0.09030277 0.00290235 -0.73108065
0.89618307 0.70115215 1.28599083
0.89746791 0.67758620 1.24198675
0.90153021 0.62544155 1.14963925
0.90623266 0.54987115 1.02539444
0.90637320 0.45850942 0.88821405
0.89847159 0.35350490 0.74908179
0.88150108 0.22544572 0.61351287
0.85579342 -0.06511605 0.48433530
0.82221472 -0.49706903 0.36326760
0.75072551 0.68907297 1.15492642
0.76735926 0.66757715 1.12368417
0.79739553 0.61927980 1.05375957
0.82720089 0.54801291 0.95233893
0.84639060 0.46073315 0.83336508
0.85192549 0.36004409 0.70759052
0.84439516 0.23902810 0.58167309
0.82545918 0.00377212 0.45955208
0.79687411 -0.42902023 0.34376150
0.53212577 0.64699924 0.94218510
0.56170040 0.63048583 0.92319220
0.61686397 0.59195203 0.87814820
0.67616093 0.53226048 0.80727446
0.72240198 0.45612213 0.71718568
0.75012511 0.36637023 0.61552387
0.75999808 0.25980011 0.50869590
0.75456041 0.10422964 0.40144691
0.73650199 -0.28546256 0.29728639
0.30854815 0.57777989 0.71253514
0.34706724 0.56630540 0.70079899
0.41766745 0.53862071 0.67210758
0.49534708 0.49358594 0.62466961
0.56120545 0.43325752 0.56072396
0.60821235 0.35962215 0.48432246
0.63576704 0.27181989 0.39998153
0.64582533 0.15789075 0.31189445
0.64102757 -0.10837583 0.22375086
-0.01735018 0.49424079 0.49431852
0.10359119 0.48650292 0.48666233
0.21576507 0.46741828 0.46766734
0.31206840 0.43525776 0.43542594
0.39040950 0.39041546 0.39041564
0.44943529 0.33378759 0.33450237
0.48950201 0.26526982 0.27036265
0.51214105 0.18032710 0.20098098
0.51945609 0.03841492 0.12936191
-0.39798430 0.40461421 0.29504654
-0.32142985 0.39943159 0.28979376
-0.13874410 0.38647625 0.27665684
0.10893546 0.36413839 0.25402042
0.21742016 0.33209643 0.22171135
0.28710797 0.29052436 0.18041334
0.33530870 0.23939261 0.13130382
0.36635861 0.17697719 0.07526122
0.38371238 0.09280439 -0.00331382
-0.44476399 0.31274417 0.11161140
-0.41156301 0.30929834 0.10757992
-0.33078086 0.30061570 0.09735487
-0.19921485 0.28543103 0.07914994
-0.02835910 0.26324001 0.05120797
0.11576374 0.23384725 0.00899527
0.18197960 0.19698068 -0.04615744
0.22557336 0.15169181 -0.11381221
0.25546613 0.09371846 -0.19381578
-0.36607438 0.22420894 -0.10888340
-0.34923562 0.22174996 -0.11322764
-0.30790141 0.21554923 -0.12426914
-0.23922756 0.20468399 -0.14389695
-0.14662839 0.18873988 -0.17325842
-0.03729775 0.16750579 -0.21315138
0.07155680 0.14077707 -0.26404592
0.12870839 0.10795641 -0.32608736
0.16609159 0.06327356 -0.39857280
-0.47286856 0.17061430 -0.35875222
-0.46147504 0.16886559 -0.36264002
-0.43320531 0.16440223 -0.37249422
-0.38521922 0.15638004 -0.38991916
-0.31824422 0.14407493 -0.41578537
-0.23509879 0.12646271 -0.45058671
-0.13978590 0.10152023 -0.49449009
-0.03661487 0.06354818 -0.54737335
0.06527156 -0.00311573 -0.60887426
0.83851504 0.62417680 1.30990922
0.84062237 0.60656124 1.27728653
0.84586138 0.56547928 1.20439792
0.85287237 0.50173652 1.09884417
0.85749549 0.41962042 0.97504753
0.85587430 0.31980652 0.84396255
0.84602296 0.18887015 0.71227503
0.82749498 -0.15975508 0.58385903
0.80067307 -0.55591196 0.46108967
0.72548413 0.61961806 1.20880425
0.73633122 0.60291445 1.18305182
0.75805014 0.56378728 1.12361062
0.78315508 0.50271672 1.03370380
0.80296475 0.42372748 0.92391151
0.81276894 0.32796913 0.80399436
0.81125671 0.20550573 0.68085104
0.79884225 -0.09122736 0.55893278
0.77658290 -0.48874947 0.44115919
0.52836710 0.59397560 1.02460587
0.55001712 0.58009976 1.00726998
0.59317470 0.54697603 0.96573430
0.64398199 0.49391171 0.89929712
0.68776286 0.42371443 0.81319892
0.71749496 0.33790872 0.71416813
0.73177660 0.23136324 0.60826570
0.73170376 0.04463682 0.50021017
0.71911287 -0.34582466 0.39354020
0.30091417 0.54142535 0.80873805
0.33403972 0.53109598 0.79737425
0.39708453 0.50591111 0.76949561
0.46970230 0.46424195 0.72310781
0.53428882 0.40726081 0.66002834
0.58299643 0.33610192 0.58388531
0.61403412 0.24874835 0.49889311
0.62839395 0.12759817 0.40906969
0.62805367 -0.16628695 0.31796497
-0.10182656 0.47019500 0.59395063
0.03898695 0.46289212 0.58629054
0.18460475 0.44479957 0.56725740
0.28728735 0.41407096 0.53485733
0.36906350 0.37076581 0.48942924
0.43131790 0.31534570 0.43268219
0.47485727 0.24706441 0.36716390
0.50110519 0.15941817 0.29579437
0.51191896 -0.01211500 0.22160891
-0.46120319 0.38872457 0.39299357
-0.38623387 0.38368058 0.38766119
-0.20661972 0.37105009 0.37432018
0.07021578 0.34920046 0.35131854
0.20094235 0.31769875 0.31847653
0.27652764 0.27652919 0.27654588
0.32843387 0.22533627 0.22699307
0.36242965 0.16157305 0.17178617
0.38120598 0.06997120 0.11326646
-0.46411708 0.30210143 0.21032272
-0.42983201 0.29868051 0.20649917
-0.34636107 0.29005659 0.19689147
-0.21022213 0.27495858 0.18018655
-0.03298529 0.25284934 0.15602016
0.11605022 0.22350612 0.12458714
0.18098427 0.18670018 0.08641801
0.22165377 0.14132775 0.03340966
0.24950138 0.08188173 -0.04788567
-0.36791828 0.21647628 0.03496967
-0.35233912 0.21407412 0.03054985
-0.31404585 0.20801277 0.01931914
-0.25027415 0.19737819 -0.00063570
-0.16401483 0.18174380 -0.03047115
-0.06181647 0.16087398 -0.07098506
0.04734164 0.13452783 -0.12264637
0.11252178 0.10204095 -0.18559884
0.15248342 0.05537700 -0.25889578
-0.49042416 0.16528241 -0.22217259
-0.47966188 0.16354066 -0.22610556
-0.45292485 0.15908900 -0.23607416
-0.40743488 0.15106596 -0.25370178
-0.34372839 0.13870429 -0.27987090
-0.26430967 0.12088769 -0.31508520
-0.17284425 0.09535472 -0.35952178
-0.07335903 0.05536360 -0.41307032
0.03037120 -0.01246036 -0.47537872
0.77610421 0.54894394 1.33232725
0.77889186 0.53501213 1.30703533
0.78546268 0.50145096 1.24832630
0.79477912 0.44676530 1.15878010
0.80335838 0.37231913 1.04843223
0.80735344 0.27608460 0.92686874
0.80417520 0.13378793 0.80102241
0.79270327 -0.26928696 0.67541212
0.77281874 -0.62260175 0.55296063
0.68528956 0.54938430 1.25202084
0.69344532 0.53591573 1.23067379
0.71088684 0.50346041 1.18025410
0.73333955 0.45057157 1.10135889
0.75394696 0.37871364 1.00151992
0.76757759 0.28670335 0.88902318
0.77171856 0.15730031 0.77052820
0.76574236 -0.20092526 0.65074533
0.75001693 -0.55632401 0.53290570
0.50911778 0.53645861 1.09333122
0.52588671 0.52467686 1.07773733
0.56097096 0.49604207 1.04001772
0.60537148 0.44882265 0.97872841
0.64705849 0.38411158 0.89777523
0.67855901 0.30171773 0.80285001
0.69704264 0.19275269 0.69950300
0.70236355 -0.06247429 0.59230816
0.69553000 -0.41388118 0.48479605
0.28004616 0.49934670 0.89362830
0.30973575 0.49007416 0.88280797
0.36759284 0.46725002 0.85616249
0.43649000 0.42886728 0.81152594
0.50026590 0.37523991 0.75026286
0.55080223 0.30646893 0.67550737
0.58546072 0.21868595 0.59108776
0.60441065 0.08063607 0.50076926
0.60900325 -0.23131810 0.40791342
-0.23521462 0.44116691 0.68551069
-0.10836568 0.43431953 0.67795455
0.12729552 0.41727731 0.65914607
0.24906604 0.38808903 0.62702149
0.33770719 0.34645754 0.58175302
0.40471905 0.29231629 0.52483463
0.45268357 0.22399403 0.45859343
0.48334262 0.13143744 0.38574281
0.49848041 -0.06864675 0.30908743
-0.57518530 0.36920002 0.48499337
-0.50249624 0.36432061 0.47961053
-0.32756501 0.35207734 0.46612930
-0.04833291 0.33081323 0.44283864
0.16622829 0.29996228 0.40947819
0.25457776 0.25926560 0.36669889
0.31291988 0.20791183 0.31585887
0.35157377 0.14202571 0.25881547
0.37418166 0.03361835 0.19778055
-0.53002757 0.28908160 0.29954907
-0.49459925 0.28569832 0.29565316
-0.40820798 0.27716273 0.28586227
-0.26684010 0.26219475 0.26883620
-0.08174757 0.24021071 0.24421480
0.09814867 0.21088511 0.21226649
0.17377782 0.17377572 0.17380580
0.21816856 0.12733911 0.13011932
0.24494058 0.06428088 0.08273493
-0.36995554 0.20668334 0.13270313
-0.35444403 0.20431937 0.12985337
-0.31655777 0.19835448 0.12267213
-0.25432509 0.18789110 0.11011444
-0.17224702 0.17252187 0.09178648
-0.07812567 0.15202649 0.06625152
0.02269337 0.12605272 0.01973420
0.09656009 0.09362316 -0.04368995
0.13914180 0.04282961 -0.11722798
-0.49939966 0.15804082 -0.08281247
-0.48937759 0.15629691 -0.08676429
-0.46444368 0.15183145 -0.09678093
-0.42190906 0.14375380 -0.11449414
-0.36211199 0.13123021 -0.14079255
-0.28721073 0.11299553 -0.17618780
-0.20048551 0.08637200 -0.22086701
-0.10563023 0.04247827 -0.27473339
-0.00617945 -0.02550945 -0.33744976
0.70734239 0.47429106 1.35352981
0.71077681 0.46271017 1.33324206
0.71880925 0.43418300 1.28498518
0.73061150 0.38589889 1.20863557
0.74306476 0.31668776 1.11079860
0.75239712 0.22009699 0.99922359
0.75564510 0.02034956 0.88041979
0.75115055 -0.38666916 0.75912911
0.73832870 -0.69290918 0.63863993
0.63164085 0.47851405 1.28811622
0.63867432 0.46722627 1.27022660
0.65434092 0.43946233 1.22725558
0.67601341 0.39261940 1.15821183
0.69814336 0.32593927 1.06817627
0.71565682 0.23471336 0.96382242
0.72535241 0.07790337 0.85121059
0.72581220 -0.31849360 0.73503953
0.71679121 -0.62757701 0.61872834
0.47225377 0.47580624 1.15116882
0.48637339 0.46561968 1.13724422
0.51689643 0.44049793 1.10328114
0.55762136 0.39800501 1.04731119
0.59853804 0.33770019 0.97206706
0.63226819 0.25711510 0.88219130
0.65512133 0.13892232 0.78260911
0.66600794 -0.17758407 0.67764133
0.66521913 -0.48567322 0.57076073
0.23593357 0.45272386 0.96827090
0.26553473 0.44436669 0.95809537
0.32291904 0.42361754 0.93294477
0.39165390 0.38817492 0.89052898
0.45664415 0.33752912 0.83177322
0.51007736 0.27051145 0.75929773
0.54899168 0.18002939 0.67650050
0.57303393 -0.01112579 0.58685392
0.58307910 -0.29991761 0.49352619
-0.43394661 0.40777957 0.76911408
-0.32041320 0.40137517 0.76175249
-0.04997222 0.38536096 0.74339485
0.18603712 0.35769147 0.71193117
0.29174933 0.31769568 0.66736621
0.36709321 0.26466611 0.61096025
0.42128497 0.19554356 0.54479444
0.45752022 0.09271551 0.47135386
0.47792166 -0.12815945 0.39322141
-0.74690318 0.34630090 0.57132244
-0.67699164 0.34160197 0.56594580
-0.50794280 0.32978407 0.55246449
-0.23559102 0.30916357 0.52912199
0.09157655 0.27902073 0.49557182
0.21583840 0.23879386 0.45234299
0.28581697 0.18703133 0.40064502
0.33162698 0.11759914 0.34216273
0.35973099 -0.01207891 0.27888200
-0.65031230 0.27383584 0.38424855
-0.61383051 0.27050388 0.38028082
-0.52466589 0.26208889 0.37030089
-0.37807187 0.24729960 0.35291561
-0.18460296 0.22549087 0.32770470
0.03501650 0.19620119 0.29485962
0.15043835 0.15868768 0.25510016
0.20502439 0.11052992 0.20959353
0.23759210 0.03871891 0.15989847
-0.41409206 0.19569217 0.21340872
-0.39770821 0.19335759 0.21048062
-0.35756433 0.18745905 0.20310293
-0.29122800 0.17708561 0.19020884
-0.20293990 0.16178524 0.17142263
-0.10150083 0.14128019 0.14680919
0.00152191 0.11526757 0.11684742
0.08184022 0.08183388 0.08188060
0.12671098 0.02430932 0.02275019
-0.49942735 0.14866622 0.05384060
-0.49021444 0.14690372 0.05054053
-0.46725827 0.14237987 0.04145072
-0.42798591 0.13415600 0.02377680
-0.37254488 0.12129495 -0.00250282
-0.30273774 0.10228687 -0.03788070
-0.22143632 0.07368801 -0.08255430
-0.13196401 0.02362099 -0.13644065
-0.03757908 -0.04242869 -0.19922106
0.62970084 0.39876074 1.37372375
0.63386881 0.38862953 1.35701323
0.64364702 0.36321506 1.31661165
0.65836865 0.31867275 1.25099397
0.67504227 0.25097120 1.16430867
0.68988085 0.14332935 1.06251514
0.69964087 -0.16614570 0.95133275
0.70223910 -0.50419587 0.83537990
0.69668722 -0.76201016 0.71810371
0.56379485 0.40636188 1.31929708
0.57064921 0.39648828 1.30411792
0.58628649 0.37178889 1.26720476
0.60891604 0.32876846 1.20667481
0.63371104 0.26429436 1.12577569
0.65569204 0.16657668 1.02967179
0.67124248 -0.09598640 0.92362702
0.67837054 -0.43643257 0.81210035
0.67632967 -0.69777095 0.69855243
0.41454878 0.41254523 1.20049763
0.42782560 0.40351063 1.18809235
0.45704231 0.38094229 1.15762234
0.49728659 0.34183419 1.10679507
0.53962976 0.28417581 1.03738081
0.57685405 0.20182747 0.95304376
0.60480148 0.04327542 0.85803103
0.62175214 -0.29358503 0.75631827
0.62745410 -0.55672586 0.65125519
0.14239411 0.40241185 1.03393328
0.18234433 0.39479962 1.02444720
0.25145739 0.37574473 1.00091887
0.32828587 0.34268105 0.96098578
0.39922094 0.29424715 0.90517819
0.45818728 0.22752137 0.83561611
0.50289083 0.12842514 0.75525135
0.53302521 -0.11771104 0.66723567
0.54928976 -0.36812183 0.57453120
-0.70953339 0.37066552 0.84514624
-0.60791463 0.36466429 0.83804667
-0.36387050 0.34958610 0.82031113
0.02439541 0.32328796 0.78980947
0.22006552 0.28469384 0.74638766
0.31359434 0.23227166 0.69107252
0.37790355 0.16064128 0.62569106
0.42179331 0.02751011 0.55249417
0.44882116 -0.18738504 0.47385818
-0.98134363 0.32039490 0.65201038
-0.91445643 0.31588101 0.64669406
-0.75194383 0.30449837 0.63334924
-0.48765370 0.28453156 0.61019331
-0.14409612 0.25508291 0.57679993
0.14514963 0.21520875 0.53357631
0.24185632 0.16252133 0.48158222
0.29962224 0.08651689 0.42233491
0.33572152 -0.05728006 0.35762906
-0.82924587 0.25660744 0.46508476
-0.79188228 0.25333998 0.46108037
-0.70031387 0.24507669 0.45099887
-0.54892522 0.23051301 0.43340647
-0.34725657 0.20892848 0.40782371
-0.11506419 0.17968808 0.37435958
0.09619677 0.14163616 0.33362535
0.17606932 0.09094492 0.28664598
0.21932048 0.00913877 0.23477580
-0.51217479 0.18396693 0.29086667
-0.49459341 0.18166608 0.28785011
-0.45136687 0.17584425 0.28024253
-0.37944666 0.16557698 0.26692462
-0.28268790 0.15036170 0.24746633
-0.16979341 0.12981904 0.22186472
-0.05269451 0.10343591 0.19050808
0.05730280 0.06630749 0.15433177
0.11511827 0.00166999 0.11500328
-0.49873066 0.13709085 0.13317990
-0.48950148 0.13525876 0.13098088
-0.46668035 0.13054733 0.12544502
-0.42825207 0.12194587 0.11579377
-0.37545925 0.10838324 0.10181881
-0.31090817 0.08796258 0.08275821
-0.23548254 0.05556990 0.05192239
-0.15192959 0.00058688 -0.00054240
-0.06320366 -0.06322791 -0.06309993
