pitnvh (1).cube
# VEGAS Pro LUT
TITLE "Invert Luminosity"
LUT_3D_SIZE 33
0.95000118 0.95003200 0.94993091
0.96392798 0.93954086 0.93948388
0.97919577 0.92758965 0.92769039
1.00023663 0.91029698 0.91083193
1.02704012 0.88676643 0.88829237
1.05897593 0.85621607 0.85970527
1.08352470 0.82277542 0.82450259
1.09257436 0.79011917 0.78220850
1.09073019 0.75844622 0.73539656
1.08741426 0.72739905 0.69010615
1.08307958 0.69687057 0.64643514
1.07782912 0.66677827 0.60427964
1.07175183 0.63704550 0.56355226
1.06492519 0.60760033 0.52417731
1.05741704 0.57837099 0.48608676
1.04928815 0.54928350 0.44921875
1.04059303 0.52025962 0.41351506
1.03138018 0.49121171 0.37891865
1.02169418 0.46204072 0.34537214
1.01157522 0.43262860 0.31281465
1.00106061 0.40282908 0.28117877
0.99018407 0.37245616 0.25038543
0.97897643 0.34126163 0.22033742
0.96746695 0.30889755 0.19090663
0.95568615 0.27484649 0.16183287
0.94368339 0.23826829 0.13225952
0.93147475 0.19767310 0.10138115
0.91907156 0.14985621 0.06759421
0.90648419 0.08474469 0.02697149
0.89372295 -0.03800428 -0.00930733
0.88079941 -0.16474599 -0.03626991
0.86777902 -0.27998096 -0.05790365
0.85478121 -0.38452235 -0.08057259
0.91476303 0.93937290 0.91483134
0.92884845 0.92903447 0.90443820
0.94427270 0.91725928 0.89270574
0.96550000 0.90022618 0.87593532
0.99249518 0.87705785 0.85351455
1.02331066 0.84748703 0.82505125
1.04367065 0.81637120 0.78992504
1.05157626 0.78550762 0.74889088
1.05543602 0.75498676 0.70740432
1.05689585 0.72480875 0.66646504
1.05640054 0.69496101 0.62626439
1.05428278 0.66541415 0.58691895
1.05079544 0.63612849 0.54849708
1.04613519 0.60705769 0.51103526
1.04046047 0.57814801 0.47454876
1.03389704 0.54934019 0.43903732
1.02655065 0.52056611 0.40448940
1.01850963 0.49174750 0.37088394
1.00984907 0.46279231 0.33819094
1.00063264 0.43358955 0.30637109
0.99091816 0.40400013 0.27537352
0.98075408 0.37384653 0.24513173
0.97018450 0.34289020 0.21555705
0.95924896 0.31079873 0.18652652
0.94799370 0.27707547 0.15764374
0.93646938 0.24092644 0.12808476
0.92469382 0.20095885 0.09705231
0.91268384 0.15424159 0.06272159
0.90045470 0.09205136 0.02161653
0.88802177 -0.02496682 -0.01342555
0.87539864 -0.15184744 -0.03936722
0.86266869 -0.26728365 -0.06083981
0.84994066 -0.37205204 -0.08347883
0.87473816 0.92714012 0.87531269
0.88902825 0.91697252 0.86498004
0.90465403 0.90539473 0.85331649
0.92612278 0.88865197 0.83664483
0.95336705 0.86588836 0.81435740
0.98127282 0.83799905 0.78599268
0.99891341 0.80912536 0.75184172
1.01136410 0.77995753 0.71586013
1.02002931 0.75072485 0.67912179
1.02557504 0.72155225 0.64211035
1.02854371 0.69250363 0.60517192
1.02936697 0.66360343 0.56855112
1.02838743 0.63485086 0.53241968
1.02587736 0.60622692 0.49689564
1.02205598 0.57769966 0.46205872
1.01710069 0.54922503 0.42795983
1.01115823 0.52074784 0.39462772
1.00434923 0.49219981 0.36207321
0.99677569 0.46349791 0.33029172
0.98852426 0.43453884 0.29926398
0.97966945 0.40519196 0.26895472
0.97027564 0.37528828 0.23930945
0.96039879 0.34460115 0.21024780
0.95008898 0.31281358 0.18164288
0.93941259 0.27944988 0.15288691
0.92841220 0.24376689 0.12332203
0.91711205 0.20446962 0.09207201
0.90553546 0.15889190 0.05700528
0.89370185 0.09952062 0.01572505
0.88163126 -0.01062183 -0.01795031
0.86934137 -0.13762236 -0.04276207
0.85693538 -0.25325248 -0.06415548
0.84450752 -0.35824558 -0.08676034
0.81697798 0.90928221 0.81900942
0.83161724 0.89935607 0.80876225
0.84758723 0.88805705 0.79719549
0.86946923 0.87172425 0.78066313
0.89709538 0.84975553 0.75892299
0.92333663 0.82491350 0.73352879
0.94504279 0.79874897 0.70534313
0.96232861 0.77175480 0.67508656
0.97561049 0.74426436 0.64338392
0.98539251 0.71649683 0.61075050
0.99216449 0.68859172 0.57759553
0.99636376 0.66063273 0.54423767
0.99836469 0.63266480 0.51092082
0.99848151 0.60470492 0.47782868
0.99697649 0.57674813 0.44509825
0.99406809 0.54877186 0.41282886
0.98993880 0.52073836 0.38108984
0.98474169 0.49259371 0.34992585
0.97860587 0.46426713 0.31936008
0.97164154 0.43566689 0.28939572
0.96394265 0.40667391 0.26001510
0.95559102 0.37713140 0.23117755
0.94665682 0.34682798 0.20281130
0.93721098 0.31546524 0.17465357
0.92732882 0.28260079 0.14603114
0.91704923 0.24755374 0.11641153
0.90640587 0.20915078 0.08475640
0.89542872 0.16504677 0.04834510
0.88414460 0.10904848 0.00758149
0.87257832 0.00921341 -0.02419219
0.86075509 -0.11788897 -0.04754532
0.84880430 -0.23373811 -0.06889684
0.83679682 -0.33899558 -0.09145288
0.74103457 0.88488144 0.74554718
0.75830936 0.87539303 0.73662585
0.77773309 0.86461139 0.72693241
0.80506426 0.84910631 0.71370697
0.83466244 0.82999724 0.69692647
0.86230683 0.80850494 0.67689604
0.88675284 0.78525257 0.65407240
0.90751827 0.76073635 0.62895674
0.92458242 0.73533124 0.60204095
0.93816543 0.70931214 0.57377553
0.94859052 0.68287498 0.54455346
0.95620853 0.65615398 0.51470590
0.96135670 0.62923819 0.48450500
0.96434301 0.60218042 0.45417106
0.96543938 0.57500619 0.42387822
0.96488243 0.54771811 0.39376193
0.96287644 0.52029920 0.36392495
0.95959675 0.49271318 0.33444065
0.95519465 0.46490508 0.30535793
0.94980001 0.43679762 0.27670100
0.94352561 0.40828627 0.24846962
0.93646872 0.37923005 0.22063532
0.92871809 0.34943601 0.19307964
0.92037261 0.31862599 0.16525115
0.91149348 0.28640446 0.13674645
0.90212917 0.25215909 0.10695278
0.89232326 0.21485394 0.07453442
0.88211441 0.17248619 0.03562582
0.87153625 0.12013522 -0.00280352
0.86062068 0.03454810 -0.03212883
0.84940833 -0.09258394 -0.05394347
0.83804786 -0.20861210 -0.07523876
0.82658827 -0.31412798 -0.09772876
0.67723620 0.85549659 0.67246157
0.69870919 0.84655410 0.66584545
0.72047126 0.83679879 0.65854615
0.74635899 0.82381237 0.64837426
0.77408242 0.80786163 0.63523388
0.80146039 0.78943884 0.61926979
0.82699561 0.76903236 0.60073417
0.84982991 0.74707603 0.57994711
0.86958241 0.72393078 0.55725902
0.88618398 0.69988477 0.53302139
0.89974922 0.67516065 0.50756663
0.91048741 0.64992601 0.48119554
0.91864836 0.62430197 0.45417178
0.92448884 0.59837300 0.42672089
0.92825568 0.57219201 0.39903140
0.93017763 0.54578620 0.37125763
0.93045980 0.51916039 0.34352228
0.92928624 0.49229804 0.31591925
0.92681897 0.46516144 0.28851590
0.92320096 0.43769014 0.26135299
0.91855711 0.40979680 0.23444313
0.91300201 0.38135749 0.20771721
0.90665627 0.35219565 0.18073353
0.89960235 0.32206920 0.15320627
0.89190739 0.29062733 0.12473129
0.88363081 0.25733063 0.09450348
0.87482584 0.22128475 0.06059513
0.86553901 0.18082231 0.01972083
0.85581285 0.13213035 -0.01516622
0.84568536 0.06117691 -0.04153879
0.83522707 -0.06217954 -0.06206239
0.82458901 -0.17826873 -0.08328541
0.81380033 -0.28396213 -0.10569171
0.63064671 0.82321399 0.60463011
0.64913172 0.81595147 0.59948814
0.66755313 0.80810964 0.59376395
0.69031596 0.79746801 0.58572680
0.71573657 0.78412038 0.57524097
0.74194062 0.76837772 0.56234902
0.76743567 0.75059253 0.54717922
0.79119492 0.73111093 0.52992445
0.81260478 0.71024686 0.51081944
0.83136761 0.68826991 0.49012026
0.84740299 0.66540414 0.46808720
0.86076856 0.64182824 0.44497064
0.87160283 0.61768234 0.42100307
0.88008505 0.59307128 0.39639348
0.88641083 0.56806970 0.37132460
0.89077717 0.54272592 0.34595308
0.89337265 0.51706433 0.32040802
0.89437282 0.49108735 0.29479292
0.89393878 0.46477497 0.26918447
0.89221656 0.43808445 0.24363261
0.88934767 0.41094381 0.21802914
0.88546783 0.38324541 0.19205806
0.88067514 0.35484260 0.16555953
0.87505627 0.32552555 0.13824815
0.86868852 0.29498798 0.10957474
0.86163992 0.26276436 0.07835216
0.85397208 0.22809729 0.04123981
0.84573966 0.18962419 0.00175282
0.83699262 0.14443691 -0.02907987
0.82777554 0.08368469 -0.05206959
0.81821167 -0.02747063 -0.07198245
0.80841649 -0.14340149 -0.09311722
0.79841399 -0.24910268 -0.11542155
0.58485115 0.79167002 0.54138410
0.60034066 0.78580582 0.53727430
0.61616457 0.77939594 0.53268135
0.63625365 0.77057946 0.52620077
0.65939325 0.75934881 0.51768935
0.68404281 0.74588537 0.50713795
0.70883894 0.73042816 0.49460280
0.73272598 0.71323639 0.48019364
0.75497305 0.69456422 0.46406132
0.77513134 0.67464525 0.44638422
0.79296827 0.65368521 0.42735574
0.80840749 0.63185894 0.40717283
0.82147646 0.60931027 0.38602725
0.83226937 0.58615381 0.36409974
0.84091789 0.56247807 0.34155482
0.84757251 0.53834587 0.31853789
0.85238981 0.51379758 0.29517356
0.85552543 0.48885173 0.27156380
0.85713291 0.46350405 0.24773437
0.85737288 0.43772393 0.22348653
0.85637099 0.41145915 0.19875482
0.85424054 0.38462666 0.17343305
0.85108346 0.35710400 0.14730936
0.84699190 0.32871211 0.11997353
0.84204924 0.29918939 0.09057982
0.83633101 0.26813984 0.05703678
0.82990402 0.23493254 0.01664388
0.82283068 0.19846843 -0.01758631
0.81516588 0.15654834 -0.04397617
0.80697560 0.10337878 -0.06393289
0.79842675 0.01049267 -0.08376067
0.78958082 -0.10495473 -0.10479145
0.78046679 -0.21039821 -0.12697595
0.53850937 0.76098716 0.48239592
0.55180913 0.75616401 0.47904551
0.56563240 0.75084764 0.47529128
0.58352476 0.74346453 0.46997610
0.60461193 0.73395091 0.46296257
0.62764633 0.72240132 0.45421702
0.65143126 0.70896846 0.44375405
0.67496014 0.69383657 0.43163139
0.69746655 0.67720073 0.41794193
0.71841729 0.65925205 0.40280545
0.73747760 0.64016843 0.38636065
0.75446725 0.62010872 0.36875615
0.76931930 0.59921050 0.35014322
0.78204703 0.57758886 0.33066982
0.79271609 0.55533707 0.31047547
0.80142593 0.53252673 0.28968757
0.80830723 0.50920695 0.26830301
0.81349611 0.48540643 0.24628526
0.81711733 0.46113521 0.22365597
0.81929195 0.43638197 0.20039693
0.82013643 0.41111106 0.17643295
0.81975943 0.38525867 0.15159622
0.81826240 0.35872480 0.12555428
0.81573856 0.33136067 0.09762993
0.81227410 0.30294585 0.06624740
0.80794758 0.27314940 0.02745697
0.80283064 0.24145117 -0.00879352
0.79698920 0.20697458 -0.03747392
0.79048395 0.16805737 -0.05917972
0.78343976 0.12076710 -0.07770190
0.77599418 0.04967789 -0.09743247
0.76818526 -0.06405729 -0.11834467
0.76004624 -0.16888039 -0.14039244
0.49143130 0.73105603 0.42742029
0.50312054 0.72702932 0.42464426
0.51541805 0.72256428 0.42152774
0.53155851 0.71631968 0.41710466
0.55090499 0.70820326 0.41124833
0.57244295 0.69825357 0.40391433
0.59513831 0.68656069 0.39509416
0.61806512 0.67324948 0.38481277
0.64047092 0.65846306 0.37312442
0.66178828 0.64235097 0.36010662
0.68162256 0.62506002 0.34585583
0.69972128 0.60672742 0.33048028
0.71594942 0.58747661 0.31407011
0.73026562 0.56741452 0.29665095
0.74267608 0.54663247 0.27830017
0.75322866 0.52520466 0.25908759
0.76199794 0.50318742 0.23906539
0.76907527 0.48061949 0.21826062
0.77456129 0.45752129 0.19666530
0.77855819 0.43389365 0.17421779
0.78116989 0.40971518 0.15077208
0.78249663 0.38493904 0.12603045
0.78263348 0.35948619 0.09938505
0.78167129 0.33323514 0.06945133
0.77969515 0.30600363 0.03236412
0.77678341 0.27751863 -0.00432262
0.77301019 0.24735537 -0.03396794
0.76844287 0.21481825 -0.05701285
0.76316792 0.17863946 -0.07496626
0.75736105 0.13606241 -0.09338863
0.75108469 0.07890284 -0.11301145
0.74437994 -0.02195495 -0.13379230
0.73728436 -0.12570833 -0.15568821
0.44335762 0.70178682 0.37625536
0.45387706 0.69838315 0.37392321
0.46503642 0.69459236 0.37130129
0.47982821 0.68926322 0.36757368
0.49777657 0.68229139 0.36262026
0.51804364 0.67367905 0.35638532
0.53973395 0.66347319 0.34883934
0.56201059 0.65175331 0.33997706
0.58415908 0.63862026 0.32981315
0.60561234 0.62418622 0.31838030
0.62594676 0.60856712 0.30572417
0.64486802 0.59187645 0.29190010
0.66218573 0.57422143 0.27696750
0.67779422 0.55569857 0.26098514
0.69164997 0.53639370 0.24400544
0.70375699 0.51637870 0.22606866
0.71415228 0.49571186 0.20719382
0.72289503 0.47443601 0.18736756
0.73005939 0.45257851 0.16652597
0.73572791 0.43014935 0.14451982
0.73998743 0.40713874 0.12104645
0.74292630 0.38351411 0.09548528
0.74463034 0.35921520 0.06640852
0.74518454 0.33414459 0.03007158
0.74466914 0.30815399 -0.00541798
0.74316090 0.28102005 -0.03461059
0.74073237 0.25239924 -0.05778677
0.73745686 0.22173949 -0.07551917
0.73350531 0.18803909 -0.09264859
0.72897321 0.14935987 -0.11098529
0.72390848 0.10082158 -0.13049217
0.71835428 0.02006451 -0.15113108
0.71235186 -0.08209889 -0.17286238
0.39436850 0.67308378 0.32748386
0.40408614 0.67017615 0.32544076
0.41445151 0.66692710 0.32313934
0.42828000 0.66234154 0.31985867
0.44519868 0.65631205 0.31548885
0.46448982 0.64881921 0.30997291
0.48536405 0.63988090 0.30327386
0.50706029 0.62954348 0.29537287
0.52890909 0.61787456 0.28626698
0.55035853 0.60495561 0.27596706
0.57097834 0.59087539 0.26449379
0.59045190 0.57572496 0.25187540
0.60855711 0.55959326 0.23814173
0.62515253 0.54256433 0.22332020
0.64015794 0.52471459 0.20742817
0.65354216 0.50611067 0.19046442
0.66530955 0.48680922 0.17239557
0.67549092 0.46685401 0.15313457
0.68413532 0.44627634 0.13250013
0.69130462 0.42509201 0.11013246
0.69706798 0.40330046 0.08528618
0.70149994 0.38088083 0.05616410
0.70467538 0.35778832 0.02008122
0.70667040 0.33394665 -0.01270642
0.70755923 0.30923650 -0.04008785
0.70741439 0.28347686 -0.06219197
0.70630544 0.25639212 -0.07926713
0.70438921 0.22751701 -0.09514362
0.70178336 0.19608675 -0.11222067
0.69853902 0.16070960 -0.13046835
0.69470567 0.11826283 -0.14985351
0.69032800 0.05807459 -0.17034204
0.68544817 -0.03925415 -0.19189835
0.34451568 0.64486271 0.27907306
0.35372415 0.64235711 0.27724761
0.36357334 0.63955063 0.27518919
0.37675941 0.63557744 0.27225068
0.39296770 0.63033271 0.26832914
0.41155756 0.62378436 0.26336613
0.43181437 0.61593050 0.25731897
0.45303953 0.60679436 0.25015840
0.47460693 0.59641856 0.24186669
0.49598905 0.58485943 0.23243536
0.51676446 0.57218271 0.22186173
0.53660995 0.55845892 0.21014640
0.55528915 0.54376024 0.19728602
0.57263875 0.52815676 0.18326759
0.58855420 0.51171434 0.16805707
0.60297871 0.49449283 0.15158312
0.61589116 0.47654435 0.13370696
0.62729889 0.45791152 0.11416638
0.63722932 0.43862659 0.09244718
0.64572483 0.41870922 0.06742969
0.65283835 0.39816493 0.03607918
0.65862983 0.37698224 0.00283276
0.66316295 0.35512885 -0.02604282
0.66650379 0.33254606 -0.05046149
0.66871893 0.30913907 -0.07042740
0.66987550 0.28476280 -0.08606278
0.67012572 0.25917307 -0.10075154
0.66958469 0.23200141 -0.11661950
0.66830575 0.20266867 -0.13364482
0.66634089 0.17014855 -0.15180108
0.66373843 0.13234283 -0.17106032
0.66054320 0.08355721 -0.19139262
0.65679848 0.00168884 -0.21276601
0.29287693 0.61707866 0.23038419
0.30189413 0.61490393 0.22871594
0.31153664 0.61246341 0.22683243
0.32444802 0.60900015 0.22413972
0.34033036 0.60441422 0.22053833
0.35857728 0.59866685 0.21596782
0.37851530 0.59174389 0.21037853
0.39948869 0.58365190 0.20373015
0.42090896 0.57441491 0.19598882
0.44227684 0.56406993 0.18712363
0.46318868 0.55266380 0.17710377
0.48332846 0.54024953 0.16589087
0.50245845 0.52688348 0.15343075
0.52040696 0.51262283 0.13963820
0.53705704 0.49752271 0.12437089
0.55233574 0.48163486 0.10737950
0.56620485 0.46500576 0.08819863
0.57865399 0.44767511 0.06585788
0.58969384 0.42967409 0.03784178
0.59935081 0.41102397 0.00719888
0.60766309 0.39173454 -0.02032768
0.61467791 0.37180093 -0.04448837
0.62044740 0.35120088 -0.06511647
0.62502843 0.32988989 -0.08212463
0.62848532 0.30779254 -0.09571957
0.63097543 0.28477117 -0.10930758
0.63258755 0.26063475 -0.12403903
0.63337404 0.23510009 -0.13990013
0.63338602 0.20771573 -0.15687335
0.63267326 0.17771316 -0.17493731
0.63128251 0.14362888 -0.19406834
0.62925923 0.10204035 -0.21423982
0.62664545 0.03971284 -0.23542379
0.23778868 0.58969277 0.18027444
0.24706152 0.58779371 0.17869382
0.25693005 0.58565915 0.17690654
0.27008075 0.58262438 0.17434572
0.28617972 0.57859612 0.17091042
0.30460072 0.57353240 0.16653304
0.32467219 0.56741118 0.16115120
0.34576023 0.56022817 0.15470555
0.36730549 0.55199355 0.14713411
0.38884109 0.54272968 0.13836676
0.40998876 0.53246844 0.12831488
0.43045187 0.52124816 0.11685400
0.45000485 0.50911164 0.10379491
0.46848047 0.49610400 0.08882163
0.48576015 0.48227021 0.07134999
0.50176561 0.46765387 0.05012538
0.51645064 0.45229509 0.02378086
0.52979404 0.43622920 -0.00192808
0.54179507 0.41948554 -0.02574361
0.55246866 0.40208533 -0.04733498
0.56184191 0.38404045 -0.06643077
0.56995040 0.36535087 -0.08282417
0.57683772 0.34600204 -0.09637335
0.58258426 0.32595509 -0.10803165
0.58733088 0.30513397 -0.12062110
0.59113073 0.28343999 -0.13430542
0.59403330 0.26072469 -0.14907916
0.59608656 0.23676158 -0.16493325
0.59733868 0.21119654 -0.18185405
0.59783602 0.18344614 -0.19982478
0.59762430 0.15245837 -0.21882524
0.59674692 0.11602020 -0.23883268
0.59524512 0.06773615 -0.25982270
0.17555942 0.56267059 0.12615514
0.18599139 0.56100333 0.12454076
0.19692592 0.55912727 0.12270939
0.21127370 0.55645621 0.12007368
0.22855987 0.55290353 0.11651529
0.24804947 0.54842651 0.11194015
0.26902565 0.54299891 0.10624700
0.29085714 0.53660905 0.09931667
0.31301838 0.52925736 0.09099494
0.33508390 0.52095526 0.08106183
0.35671976 0.51172268 0.06916938
0.37766573 0.50158632 0.05469308
0.39772499 0.49057749 0.03635257
0.41675028 0.47873074 0.01603387
0.43463609 0.46608177 -0.00410354
0.45130974 0.45266637 -0.02369030
0.46672639 0.43851805 -0.04237000
0.48086315 0.42366767 -0.05981085
0.49371415 0.40814149 -0.07571360
0.50528848 0.39195955 -0.08981959
0.51560587 0.37513459 -0.10191600
0.52470553 0.35766828 -0.11212389
0.53271168 0.33953854 -0.12279680
0.53968215 0.32071429 -0.13449685
0.54565758 0.30114609 -0.14723253
0.55068070 0.28075552 -0.16100752
0.55479515 0.25942299 -0.17582028
0.55804557 0.23696695 -0.19166505
0.56047630 0.21310818 -0.20853196
0.56213081 0.18739760 -0.22640765
0.56305277 0.15906054 -0.24527529
0.56328321 0.12659106 -0.26511613
0.56286240 0.08632500 -0.28590849
0.09363560 0.53598076 0.05897409
0.10873985 0.53451085 0.05684504
0.12358849 0.53285515 0.05439370
0.14198759 0.53049487 0.05079187
0.16300401 0.52735060 0.04577278
0.18565403 0.52338028 0.03899333
0.20917772 0.51855546 0.03056235
0.23300958 0.51285970 0.02086523
0.25672832 0.50628692 0.01002552
0.28001979 0.49884024 -0.00179109
0.30264649 0.49053076 -0.01438415
0.32442889 0.48137558 -0.02752202
0.34523153 0.47139692 -0.04095053
0.36495367 0.46062016 -0.05439954
0.38352272 0.44907299 -0.06759140
0.40088955 0.43678352 -0.08025016
0.41702336 0.42377973 -0.09210905
0.43190953 0.41008705 -0.10291863
0.44554660 0.39572877 -0.11245392
0.45795831 0.38072148 -0.12085184
0.46924376 0.36506808 -0.12987736
0.47943878 0.34876943 -0.13983762
0.48857209 0.33181709 -0.15075360
0.49667674 0.31418961 -0.16264090
0.50378931 0.29584786 -0.17550993
0.50994807 0.27672878 -0.18936659
0.51519370 0.25673592 -0.20421153
0.51956677 0.23572357 -0.22004198
0.52310830 0.21346967 -0.23685123
0.52585965 0.18962476 -0.25462851
0.52786106 0.16360697 -0.27336070
0.52915215 0.13435072 -0.29303157
0.52977169 0.09954920 -0.31362242
-0.06396092 0.50959498 -0.03165279
-0.03905191 0.50829417 -0.03343622
-0.01117027 0.50682777 -0.03542973
0.02825108 0.50473523 -0.03824375
0.07193748 0.50194401 -0.04194010
0.10738446 0.49841377 -0.04652086
0.13899177 0.49411508 -0.05195586
0.16826068 0.48902893 -0.05818152
0.19577748 0.48314455 -0.06510409
0.22180285 0.47645965 -0.07260080
0.24645674 0.46897814 -0.08052407
0.26979506 0.46070999 -0.08870339
0.29184020 0.45166969 -0.09695266
0.31260028 0.44187552 -0.10507416
0.33207950 0.43134782 -0.11286426
0.35028043 0.42010841 -0.12012146
0.36721173 0.40817937 -0.12669024
0.38294646 0.39557663 -0.13354473
0.39752561 0.38231581 -0.14119530
0.41096747 0.36841086 -0.14967607
0.42329404 0.35387096 -0.15901686
0.43453243 0.33869883 -0.16924269
0.44471291 0.32288894 -0.18037385
0.45386809 0.30642462 -0.19242629
0.46203336 0.28927484 -0.20541129
0.46924511 0.27138895 -0.21933593
0.47554174 0.25268880 -0.23420286
0.48096156 0.23305690 -0.25001109
0.48554283 0.21231577 -0.26675647
0.48932499 0.19019024 -0.28443059
0.49234581 0.16623595 -0.30302292
0.49464294 0.13967533 -0.32252020
0.49625394 0.10896178 -0.34290555
-0.21070570 0.48348686 -0.09720812
-0.19045846 0.48233208 -0.09827456
-0.16776597 0.48102948 -0.09946423
-0.13562147 0.47916934 -0.10113854
-0.09317705 0.47668520 -0.10332955
-0.04019949 0.47353894 -0.10603020
0.02324502 0.46970171 -0.10921176
0.08231089 0.46515268 -0.11282325
0.12276375 0.45987844 -0.11679267
0.15608360 0.45387241 -0.12102823
0.18539201 0.44713390 -0.12542099
0.21192338 0.43966693 -0.12984662
0.23628002 0.43148020 -0.13417050
0.25883836 0.42258391 -0.13872358
0.27982950 0.41299018 -0.14388864
0.29938030 0.40271413 -0.14970635
0.31757855 0.39177135 -0.15621594
0.33449054 0.38017729 -0.16345364
0.35016891 0.36794588 -0.17145327
0.36465961 0.35508865 -0.18024519
0.37800401 0.34161338 -0.18985622
0.39024118 0.32752305 -0.20030956
0.40140948 0.31281361 -0.21162429
0.41154689 0.29747215 -0.22381574
0.42069092 0.28147382 -0.23689537
0.42887968 0.26477760 -0.25087067
0.43615079 0.24732009 -0.26574564
0.44254214 0.22900608 -0.28152075
0.44809097 0.20969222 -0.29819345
0.45283484 0.18916057 -0.31575745
0.45681047 0.16706581 -0.33420411
0.46005413 0.14282614 -0.35352218
0.46260110 0.11535604 -0.37369770
-0.32625079 0.45763153 -0.13920037
-0.30982623 0.45660371 -0.13973849
-0.29139537 0.45544383 -0.14033563
-0.26524884 0.45378619 -0.14117025
-0.23065153 0.45157072 -0.14225122
-0.18733770 0.44876131 -0.14359881
-0.13524225 0.44532973 -0.14527871
-0.07451539 0.44125423 -0.14732142
-0.00550351 0.43651944 -0.14975914
0.06585906 0.43111572 -0.15262499
0.11212007 0.42503789 -0.15595385
0.14726995 0.41828537 -0.15978073
0.17698057 0.41086146 -0.16414152
0.20321117 0.40277231 -0.16907267
0.22688271 0.39402673 -0.17460921
0.24849996 0.38463506 -0.18078594
0.26836905 0.37460855 -0.18763633
0.28669015 0.36395869 -0.19519168
0.30360305 0.35269630 -0.20348123
0.31921107 0.34083036 -0.21253161
0.33359420 0.32836726 -0.22236669
0.34681833 0.31530944 -0.23300725
0.35893962 0.30165371 -0.24447107
0.37000805 0.28738990 -0.25677213
0.38006938 0.27249783 -0.26992163
0.38916659 0.25694397 -0.28392738
0.39734048 0.24067658 -0.29879344
0.40463015 0.22361779 -0.31452173
0.41107407 0.20565160 -0.33111012
0.41670889 0.18660302 -0.34855473
0.42157131 0.16620010 -0.36684802
0.42569676 0.14399824 -0.38598034
0.42911926 0.11920738 -0.40594009
-0.40999088 0.43197572 -0.16923288
-0.39652997 0.43105748 -0.16976561
-0.38140100 0.43002069 -0.17037015
-0.35990071 0.42853823 -0.17124024
-0.33137950 0.42655510 -0.17241479
-0.29557014 0.42403764 -0.17392284
-0.25237122 0.42095903 -0.17579316
-0.20184007 0.41729772 -0.17805418
-0.14418320 0.41303739 -0.18073520
-0.07974585 0.40816644 -0.18386582
-0.00899829 0.40267748 -0.18747588
0.06313283 0.39656675 -0.19159606
0.10933134 0.38983396 -0.19625680
0.14362358 0.38248140 -0.20148923
0.17217174 0.37451413 -0.20732301
0.19708277 0.36593851 -0.21378772
0.21934846 0.35676202 -0.22091189
0.23951830 0.34699285 -0.22872268
0.25793055 0.33663884 -0.23724476
0.27480730 0.32570657 -0.24650183
0.29030636 0.31420088 -0.25651437
0.30454275 0.30212343 -0.26730126
0.31760755 0.28947163 -0.27887768
0.32957336 0.27623686 -0.29125699
0.34050176 0.26240242 -0.30444947
0.35044611 0.24794081 -0.31846240
0.35945457 0.23280914 -0.33330032
0.36757106 0.21694367 -0.34896514
0.37483627 0.20024924 -0.36545593
0.38128906 0.18258426 -0.38276944
0.38696676 0.16373135 -0.40089947
0.39190447 0.14334460 -0.41983804
0.39613670 0.12083081 -0.43957463
-0.45972466 0.40644482 -0.20164238
-0.44869682 0.40562269 -0.20222233
-0.43629399 0.40469405 -0.20288004
-0.41864461 0.40336540 -0.20382507
-0.39519459 0.40158707 -0.20509812
-0.36569121 0.39932775 -0.20672846
-0.33000702 0.39656198 -0.20874396
-0.28813976 0.39326885 -0.21117201
-0.24019991 0.38943180 -0.21403974
-0.18640687 0.38503805 -0.21737358
-0.12708206 0.38007864 -0.22120041
-0.06264100 0.37454754 -0.22554730
0.00642069 0.36844185 -0.23044032
0.07151291 0.36176106 -0.23590623
0.11254593 0.35450697 -0.24197081
0.14383414 0.34668270 -0.24865930
0.17002624 0.33829281 -0.25599584
0.19287978 0.32934257 -0.26400352
0.21326479 0.31983700 -0.27270421
0.23168062 0.30978078 -0.28211764
0.24844016 0.29917693 -0.29226202
