pitnvh (1).cube
# VEGAS Pro LUT
TITLE "Invert Luminosity"
LUT_3D_SIZE 5
0.95000118 0.95003200 0.94993091
1.09073019 0.75844622 0.73539656
1.04059303 0.52025962 0.41351506
0.95568615 0.27484649 0.16183287
0.85478121 -0.38452235 -0.08057259
0.53850937 0.76098716 0.48239592
0.69746655 0.67720073 0.41794193
0.80830723 0.50920695 0.26830301
0.81227410 0.30294585 0.06624740
0.76004624 -0.16888039 -0.14039244
0.09363560 0.53598076 0.05897409
0.25672832 0.50628692 0.01002552
0.41702336 0.42377973 -0.09210905
0.50378931 0.29584786 -0.17550993
0.52977169 0.09954920 -0.31362242
-0.44672719 0.33033770 -0.31287408
-0.32660398 0.31792355 -0.32673094
0.00172830 0.27960542 -0.37152547
0.20223179 0.21184956 -0.45673341
0.27712694 0.10871765 -0.58693177
-0.39406136 0.17798610 -0.69715631
-0.35078049 0.17166749 -0.70983899
-0.22648656 0.15116672 -0.74981046
-0.03659307 0.10909823 -0.82250595
0.12399615 0.00817473 -0.92814916
0.94646907 0.86635655 1.19582891
1.00458765 0.72188407 0.98258626
0.98909962 0.50787944 0.66515291
0.93299991 0.26500890 0.38581753
0.84764808 -0.41438285 0.14992759
0.51620317 0.72938710 0.72573125
0.65601730 0.65603364 0.65599275
0.77735311 0.49731547 0.48952061
0.79801834 0.29311442 0.28612414
0.75501597 -0.19922133 0.08320402
0.06807064 0.52567071 0.27307618
0.24667890 0.49671629 0.24700119
0.41225812 0.41553268 0.17013924
0.50163084 0.28836343 0.02909175
0.52546757 0.08881075 -0.13769288
-0.46276519 0.32632506 -0.16331020
-0.34534565 0.31400365 -0.17839688
-0.02467076 0.27596992 -0.22695656
0.19300409 0.20865902 -0.31861192
0.26925850 0.10583590 -0.45739254
-0.42351219 0.17646635 -0.59240472
-0.38105759 0.17018467 -0.60555822
-0.25882816 0.14976543 -0.64699870
-0.07126953 0.10769582 -0.72232294
0.10826623 0.00622763 -0.83171046
0.89618307 0.70115215 1.28599083
0.90153021 0.62544155 1.14963925
0.90637320 0.45850942 0.88821405
0.88150108 0.22544572 0.61351287
0.82221472 -0.49706903 0.36326760
0.53212577 0.64699924 0.94218510
0.61686397 0.59195203 0.87814820
0.72240198 0.45612213 0.71718568
0.75999808 0.25980011 0.50869590
0.73650199 -0.28546256 0.29728639
-0.01735018 0.49424079 0.49431852
0.21576507 0.46741828 0.46766734
0.39040950 0.39041546 0.39041564
0.48950201 0.26526982 0.27036265
0.51945609 0.03841492 0.12936191
-0.44476399 0.31274417 0.11161140
-0.33078086 0.30061570 0.09735487
-0.02835910 0.26324001 0.05120797
0.18197960 0.19698068 -0.04615744
0.25546613 0.09371846 -0.19381578
-0.47286856 0.17061430 -0.35875222
-0.43320531 0.16440223 -0.37249422
-0.31824422 0.14407493 -0.41578537
-0.13978590 0.10152023 -0.49449009
0.06527156 -0.00311573 -0.60887426
0.77610421 0.54894394 1.33232725
0.78546268 0.50145096 1.24832630
0.80335838 0.37231913 1.04843223
0.80417520 0.13378793 0.80102241
0.77281874 -0.62260175 0.55296063
0.50911778 0.53645861 1.09333122
0.56097096 0.49604207 1.04001772
0.64705849 0.38411158 0.89777523
0.69704264 0.19275269 0.69950300
0.69553000 -0.41388118 0.48479605
-0.23521462 0.44116691 0.68551069
0.12729552 0.41727731 0.65914607
0.33770719 0.34645754 0.58175302
0.45268357 0.22399403 0.45859343
0.49848041 -0.06864675 0.30908743
-0.53002757 0.28908160 0.29954907
-0.40820798 0.27716273 0.28586227
-0.08174757 0.24021071 0.24421480
0.17377782 0.17377572 0.17380580
0.24494058 0.06428088 0.08273493
-0.49939966 0.15804082 -0.08281247
-0.46444368 0.15183145 -0.09678093
-0.36211199 0.13123021 -0.14079255
-0.20048551 0.08637200 -0.22086701
-0.00617945 -0.02550945 -0.33744976
0.62970084 0.39876074 1.37372375
0.64364702 0.36321506 1.31661165
0.67504227 0.25097120 1.16430867
0.69964087 -0.16614570 0.95133275
0.69668722 -0.76201016 0.71810371
0.41454878 0.41254523 1.20049763
0.45704231 0.38094229 1.15762234
0.53962976 0.28417581 1.03738081
0.60480148 0.04327542 0.85803103
0.62745410 -0.55672586 0.65125519
-0.70953339 0.37066552 0.84514624
-0.36387050 0.34958610 0.82031113
0.22006552 0.28469384 0.74638766
0.37790355 0.16064128 0.62569106
0.44882116 -0.18738504 0.47385818
-0.82924587 0.25660744 0.46508476
-0.70031387 0.24507669 0.45099887
-0.34725657 0.20892848 0.40782371
0.09619677 0.14163616 0.33362535
0.21932048 0.00913877 0.23477580
-0.49873066 0.13709085 0.13317990
-0.46668035 0.13054733 0.12544502
-0.37545925 0.10838324 0.10181881
-0.23548254 0.05556990 0.05192239
-0.06320366 -0.06322791 -0.06309993
